modules/camera-engine/ios/LUTs/fuji-classic-negative.cube
TITLE "Camera18 V0 - Fujifilm Classic Negative inspired"
LUT_3D_SIZE 5
DOMAIN_MIN 0.0 0.0 0.0
DOMAIN_MAX 1.0 1.0 1.0
# Original Camera 18 V0 approximation; input expected normalized display-referred RGB.
# Punchy contrast with teal/cyan shadow tendency and warmer/magenta highlights.
0.000000 0.007250 0.010150
0.174399 0.014155 0.020170
0.358937 0.021133 0.030235
0.543464 0.028185 0.040345
0.798735 0.038778 0.055462
0.027722 0.181976 0.021525
0.189079 0.190382 0.019624
0.420389 0.215576 0.029345
0.665472 0.231841 0.038755
0.911398 0.242738 0.047897
0.080603 0.439787 0.040983
0.279870 0.454897 0.039317
0.466454 0.448775 0.034877
0.724953 0.474467 0.045535
0.991629 0.494124 0.056349
0.138345 0.717350 0.061407
0.359393 0.736848 0.061220
0.582486 0.761546 0.057777
0.781444 0.742812 0.052835
1.000000 0.767855 0.064649
0.201373 1.000000 0.084927
0.438217 1.000000 0.085254
0.651378 1.000000 0.079701
0.861169 1.000000 0.073299
1.000000 0.984340 0.067717
0.001856 0.026536 0.187799
0.174628 0.006020 0.186044
0.358602 0.010788 0.189029
0.542228 0.017526 0.197521
0.804351 0.027895 0.230473
0.000000 0.182080 0.168445
0.196569 0.206507 0.207045
0.428269 0.229227 0.233352
0.674416 0.248124 0.256095
0.923865 0.263468 0.275374
0.010247 0.438881 0.185600
0.264372 0.450471 0.244106
0.470262 0.462597 0.252341
0.735141 0.490076 0.271799
1.000000 0.506870 0.286933
0.038748 0.713372 0.190833
0.339912 0.735213 0.284117
0.570361 0.758348 0.290495
0.787270 0.759868 0.294181
1.000000 0.782963 0.309361
0.069380 1.000000 0.196583
0.413347 1.000000 0.320262
0.635249 1.000000 0.314707
0.844996 1.000000 0.308400
1.000000 0.988427 0.303518
0.013857 0.045854 0.365468
0.175079 0.017733 0.369184
0.359391 0.004885 0.361998
0.548676 0.008340 0.365147
0.809402 0.016337 0.409740
0.001558 0.227393 0.392096
0.213338 0.232546 0.415609
0.432651 0.222137 0.433612
0.676176 0.236213 0.453507
0.925089 0.250547 0.475281
0.000000 0.442355 0.404709
0.217221 0.451493 0.430529
0.475475 0.478003 0.474917
0.741929 0.505813 0.506999
1.000000 0.527758 0.533432
0.007449 0.716926 0.411543
0.260433 0.734034 0.446156
0.549614 0.749797 0.516412
0.792672 0.776711 0.539093
1.000000 0.797176 0.556815
0.036183 1.000000 0.424558
0.305010 1.000000 0.461967
0.610664 1.000000 0.543815
0.827077 1.000000 0.538514
1.000000 0.992731 0.536171
0.025853 0.065202 0.543155
0.175414 0.030584 0.546629
0.363385 0.015538 0.550771
0.565135 0.003993 0.558768
0.816843 0.006864 0.600803
0.017486 0.259821 0.616103
0.235401 0.264304 0.643083
0.438287 0.237747 0.661424
0.682330 0.231210 0.672684
0.926976 0.239487 0.683919
0.000000 0.505175 0.679212
0.237002 0.496273 0.688317
0.487722 0.501037 0.707997
0.747955 0.499340 0.736783
1.000000 0.514656 0.754486
0.000000 0.723028 0.659233
0.236698 0.738104 0.692048
0.497359 0.751309 0.724976
0.799031 0.794677 0.788527
1.000000 0.806421 0.804832
0.003531 1.000000 0.670893
0.271165 1.000000 0.702330
0.529516 1.000000 0.714140
0.801835 0.996166 0.760218
1.000000 0.997239 0.765910
0.037844 0.084582 0.720862
0.177659 0.043115 0.724197
0.365637 0.028832 0.739172
0.604436 0.015033 0.800414
0.829676 0.003363 0.813019
0.034175 0.292796 0.851154
0.256550 0.295535 0.878942
0.445085 0.256736 0.891213
0.694483 0.246021 0.918188
0.930897 0.235089 0.910476
0.016562 0.531303 0.917623
0.260674 0.531305 0.938538
0.514522 0.538794 0.965084
0.749447 0.514316 0.989840
1.000000 0.508845 0.996866
0.000000 0.822497 0.991648
0.255388 0.812658 1.000000
0.523963 0.805700 1.000000
0.801146 0.808953 1.000000
1.000000 0.792427 1.000000
0.001709 1.000000 0.939303
0.247103 1.000000 0.960811
0.501570 1.000000 0.962917
0.748215 0.995604 0.966418
1.000000 0.998742 0.989780
