modules/camera-engine/ios/LUTs/fuji-classic-negative.cube
TITLE "Camera18 V0 - Fujifilm Classic Negative inspired"
LUT_3D_SIZE 33
DOMAIN_MIN 0.0 0.0 0.0
DOMAIN_MAX 1.0 1.0 1.0
# Original Camera 18 V0 approximation; input expected normalized display-referred RGB.
# Punchy contrast with teal/cyan shadow tendency and warmer/magenta highlights.
0.000000 0.007250 0.010150
0.012919 0.008109 0.011400
0.035988 0.008969 0.012651
0.059057 0.009831 0.013902
0.082126 0.010693 0.015154
0.105195 0.011557 0.016407
0.128263 0.012422 0.017661
0.151331 0.013288 0.018915
0.174399 0.014155 0.020170
0.197467 0.015023 0.021425
0.220535 0.015893 0.022682
0.243602 0.016763 0.023939
0.266670 0.017635 0.025197
0.289737 0.018508 0.026455
0.312804 0.019382 0.027714
0.335871 0.020257 0.028974
0.358937 0.021133 0.030235
0.382004 0.022011 0.031496
0.405070 0.022889 0.032758
0.428136 0.023769 0.034021
0.451202 0.024650 0.035284
0.474268 0.025532 0.036548
0.497334 0.026415 0.037813
0.520399 0.027300 0.039079
0.543464 0.028185 0.040345
0.566529 0.029072 0.041612
0.599065 0.030441 0.043568
0.633109 0.031878 0.045622
0.667183 0.033309 0.047665
0.701285 0.034735 0.049699
0.735412 0.036155 0.051724
0.769562 0.037572 0.053743
0.798735 0.038778 0.055462
0.000000 0.029055 0.011550
0.013320 0.028637 0.011152
0.036558 0.029552 0.011999
0.059673 0.030095 0.012795
0.082761 0.030566 0.013582
0.105836 0.031009 0.014374
0.128905 0.031440 0.015172
0.151969 0.031865 0.015976
0.175031 0.032288 0.016786
0.198092 0.032710 0.017600
0.221151 0.033131 0.018418
0.244210 0.033553 0.019239
0.267267 0.033975 0.020062
0.290325 0.034397 0.020885
0.313382 0.034821 0.021708
0.336439 0.035246 0.022529
0.359496 0.035671 0.023350
0.382553 0.036098 0.024171
0.405610 0.036525 0.024991
0.428667 0.036954 0.025812
0.451723 0.037383 0.026632
0.474780 0.037813 0.027453
0.497836 0.038245 0.028273
0.520892 0.038677 0.029094
0.545378 0.039213 0.029994
0.578223 0.040327 0.031346
0.611177 0.041410 0.032689
0.644231 0.042466 0.034025
0.677373 0.043498 0.035355
0.710597 0.044508 0.036680
0.743895 0.045498 0.037999
0.777260 0.046470 0.039314
0.805332 0.047151 0.040412
0.000000 0.050870 0.012956
0.018887 0.051250 0.012666
0.036788 0.050040 0.012163
0.060096 0.051182 0.013034
0.083262 0.051878 0.013863
0.106388 0.052456 0.014669
0.129491 0.052976 0.015463
0.152582 0.053463 0.016253
0.175664 0.053930 0.017044
0.198740 0.054385 0.017839
0.221812 0.054832 0.018636
0.244881 0.055273 0.019438
0.267947 0.055711 0.020244
0.291011 0.056147 0.021053
0.314073 0.056581 0.021865
0.337134 0.057015 0.022680
0.360194 0.057448 0.023497
0.383253 0.057881 0.024317
0.406312 0.058314 0.025140
0.429369 0.058748 0.025964
0.452426 0.059182 0.026791
0.476644 0.059763 0.027686
0.508319 0.061230 0.029007
0.540181 0.062644 0.030323
0.572213 0.064009 0.031637
0.604399 0.065330 0.032946
0.636724 0.066611 0.034252
0.669177 0.067856 0.035553
0.701745 0.069068 0.036851
0.734420 0.070250 0.038146
0.767193 0.071405 0.039438
0.800055 0.072535 0.040728
0.827264 0.073179 0.041786
0.004064 0.072696 0.014369
0.023876 0.072889 0.014167
0.043095 0.073671 0.013688
0.060254 0.071457 0.013184
0.083610 0.072752 0.014067
0.106806 0.073558 0.014915
0.129963 0.074230 0.015743
0.153092 0.074825 0.016555
0.176204 0.075374 0.017356
0.199304 0.075892 0.018152
0.222395 0.076390 0.018946
0.245480 0.076872 0.019741
0.268560 0.077344 0.020537
0.291636 0.077807 0.021335
0.314708 0.078265 0.022135
0.337778 0.078719 0.022939
0.360846 0.079169 0.023745
0.383912 0.079617 0.024554
0.407827 0.080231 0.025418
0.438344 0.082064 0.026685
0.469127 0.083816 0.027951
0.500148 0.085498 0.029216
0.531385 0.087114 0.030480
0.562820 0.088672 0.031745
0.594433 0.090177 0.033009
0.626210 0.091633 0.034274
0.658138 0.093046 0.035539
0.690203 0.094418 0.036804
0.722396 0.095754 0.038070
0.754705 0.097055 0.039337
0.787123 0.098325 0.040604
0.819641 0.099567 0.041872
0.846124 0.100106 0.042896
0.008799 0.094532 0.015788
0.028858 0.094592 0.015661
0.047916 0.095302 0.015214
0.067401 0.096146 0.014690
0.083718 0.092890 0.014214
0.107114 0.094309 0.015106
0.130330 0.095192 0.015966
0.153508 0.095941 0.016808
0.176659 0.096606 0.017637
0.199790 0.097213 0.018454
0.222907 0.097782 0.019262
0.246013 0.098324 0.020064
0.269110 0.098845 0.020864
0.292202 0.099351 0.021662
0.315288 0.099844 0.022460
0.338797 0.100456 0.023288
0.368179 0.102683 0.024507
0.397900 0.104801 0.025726
0.427926 0.106820 0.026946
0.458231 0.108750 0.028166
0.488787 0.110601 0.029388
0.519574 0.112380 0.030612
0.550571 0.114093 0.031837
0.581761 0.115747 0.033063
0.613128 0.117346 0.034292
0.644659 0.118895 0.035523
0.676340 0.120399 0.036755
0.708161 0.121861 0.037989
0.740111 0.123284 0.039226
0.772181 0.124671 0.040464
0.804362 0.126025 0.041704
0.836647 0.127349 0.042946
0.862535 0.127737 0.043930
0.013532 0.116377 0.017213
0.033785 0.116350 0.017149
0.052883 0.116954 0.016733
0.072093 0.117732 0.016267
0.091780 0.118623 0.015699
0.107179 0.114338 0.015253
0.130613 0.115867 0.016150
0.153841 0.116808 0.017023
0.177035 0.117620 0.017875
0.200204 0.118344 0.018716
0.223352 0.119006 0.019547
0.246484 0.119623 0.020368
0.269603 0.120208 0.021182
0.297714 0.122831 0.022365
0.326400 0.125374 0.023558
0.355457 0.127781 0.024749
0.384849 0.130068 0.025939
0.414547 0.132247 0.027129
0.444525 0.134330 0.028319
0.474757 0.136326 0.029511
0.505223 0.138244 0.030705
0.535905 0.140090 0.031901
0.566785 0.141871 0.033099
0.597848 0.143592 0.034299
0.629081 0.145258 0.035502
0.660471 0.146875 0.036708
0.692007 0.148445 0.037916
0.723679 0.149972 0.039127
0.755477 0.151460 0.040341
0.787394 0.152912 0.041557
0.819421 0.154329 0.042776
0.851552 0.155715 0.043998
0.876954 0.155917 0.044947
0.018264 0.138233 0.018644
0.038667 0.138149 0.018637
0.057886 0.138636 0.018251
0.076937 0.139406 0.017794
0.096320 0.140220 0.017305
0.116197 0.141102 0.016720
0.130637 0.135801 0.016302
0.154102 0.137421 0.017203
0.177345 0.138418 0.018086
0.200551 0.139282 0.018947
0.226820 0.141990 0.020071
0.254515 0.145113 0.021276
0.282639 0.148029 0.022474
0.311151 0.150768 0.023664
0.340017 0.153353 0.024849
0.369208 0.155804 0.026030
0.398696 0.158137 0.027208
0.428458 0.160364 0.028385
0.458471 0.162495 0.029561
0.488715 0.164541 0.030738
0.519175 0.166509 0.031916
0.549832 0.168405 0.033096
0.580674 0.170238 0.034278
0.611687 0.172011 0.035461
0.642859 0.173729 0.036648
0.674179 0.175397 0.037837
0.705638 0.177019 0.039028
0.737227 0.178597 0.040223
0.768938 0.180136 0.041420
0.800763 0.181638 0.042620
0.832694 0.183106 0.043823
0.864727 0.184541 0.045029
0.889731 0.184533 0.045949
0.022994 0.160099 0.020082
0.043515 0.159978 0.020127
0.062875 0.160358 0.019768
0.081888 0.161079 0.019328
0.101090 0.161867 0.018865
0.120595 0.162743 0.018337
0.142126 0.165324 0.017941
0.154873 0.158074 0.017448
0.182044 0.162964 0.018725
0.209318 0.166783 0.019964
0.236997 0.170231 0.021182
0.265076 0.173419 0.022389
0.293521 0.176392 0.023590
0.322300 0.179182 0.024785
0.351387 0.181815 0.025974
0.380756 0.184311 0.027158
0.410387 0.186687 0.028337
0.440260 0.188957 0.029513
0.470359 0.191131 0.030687
0.500668 0.193219 0.031860
0.531171 0.195230 0.033032
0.561856 0.197170 0.034205
0.592710 0.199046 0.035379
0.623722 0.200862 0.036554
0.654882 0.202623 0.037731
0.686182 0.204334 0.038911
0.717611 0.205998 0.040092
0.749163 0.207620 0.041276
0.780830 0.209201 0.042462
0.812606 0.210745 0.043652
0.844484 0.212254 0.044844
0.876459 0.213731 0.046038
0.901141 0.213496 0.046933
0.027722 0.181976 0.021525
0.048340 0.181831 0.021620
0.068115 0.182862 0.021372
0.088503 0.186185 0.021254
0.109417 0.189570 0.021075
0.131080 0.192859 0.020858
0.153490 0.196240 0.020521
0.176895 0.199400 0.020141
0.189079 0.190382 0.019624
0.217255 0.195065 0.020896
0.245431 0.198728 0.022135
0.273882 0.202006 0.023356
0.302646 0.205054 0.024565
0.331699 0.207910 0.025767
0.361020 0.210601 0.026964
0.390589 0.213150 0.028157
0.420389 0.215576 0.029345
0.450404 0.217891 0.030528
0.480619 0.220108 0.031708
0.511022 0.222239 0.032885
0.541601 0.224290 0.034060
0.572345 0.226270 0.035233
0.603245 0.228185 0.036407
0.634290 0.230040 0.037580
0.665472 0.231841 0.038755
0.696783 0.233590 0.039930
0.728215 0.235293 0.041107
0.759762 0.236952 0.042286
0.791417 0.238570 0.043467
0.823175 0.240151 0.044650
0.855030 0.241697 0.045835
0.886977 0.243210 0.047023
0.911398 0.242738 0.047897
0.033422 0.209972 0.023664
0.055408 0.212368 0.024101
0.076733 0.215014 0.024044
0.097956 0.218017 0.023883
0.119483 0.221163 0.023656
0.141585 0.224269 0.023395
0.164315 0.227359 0.023076
0.187746 0.230503 0.022651
0.212071 0.233392 0.022211
0.223469 0.222669 0.021684
0.252431 0.227193 0.022958
0.281334 0.230757 0.024200
0.310407 0.233901 0.025428
0.339730 0.236839 0.026642
0.369287 0.239602 0.027850
0.399062 0.242215 0.029052
0.429041 0.244697 0.030251
0.459212 0.247065 0.031445
0.489561 0.249331 0.032636
0.520078 0.251507 0.033823
0.550754 0.253601 0.035006
0.581579 0.255622 0.036186
0.612546 0.257576 0.037365
0.643646 0.259469 0.038542
0.674872 0.261307 0.039719
0.706217 0.263093 0.040896
0.737675 0.264831 0.042074
0.769240 0.266526 0.043252
0.800906 0.268179 0.044432
0.832668 0.269794 0.045613
0.864522 0.271374 0.046795
0.896462 0.272920 0.047980
0.920678 0.272203 0.048839
0.039980 0.242796 0.026276
0.062909 0.244936 0.026731
0.085092 0.247282 0.026643
0.107042 0.250005 0.026454
0.129122 0.252927 0.026195
0.151611 0.255881 0.025896
0.174665 0.258751 0.025579
0.198220 0.261728 0.025162
0.222475 0.264661 0.024677
0.247530 0.267331 0.024194
0.257990 0.254948 0.023666
0.287582 0.259347 0.024946
0.317086 0.262855 0.026192
0.346670 0.265890 0.027430
0.376458 0.268739 0.028652
0.406438 0.271427 0.029867
0.436599 0.273976 0.031076
0.466930 0.276405 0.032282
0.497422 0.278726 0.033484
0.528065 0.280953 0.034683
0.558851 0.283094 0.035878
0.589771 0.285159 0.037069
0.620819 0.287155 0.038257
0.651989 0.289088 0.039443
0.683275 0.290963 0.040627
0.714670 0.292786 0.041810
0.746169 0.294560 0.042992
0.777768 0.296289 0.044174
0.809461 0.297976 0.045356
0.841244 0.299624 0.046539
0.873113 0.301237 0.047723
0.905063 0.302815 0.048908
0.929121 0.301851 0.049755
0.046627 0.275617 0.028817
0.070340 0.277549 0.029300
0.093252 0.279642 0.029191
0.115838 0.282119 0.028983
0.138423 0.284833 0.028703
0.161275 0.287636 0.028377
0.184574 0.290406 0.028029
0.208363 0.293139 0.027649
0.232616 0.295999 0.027161
0.257546 0.298748 0.026634
0.283195 0.301240 0.026119
0.292604 0.287228 0.025595
0.322713 0.291526 0.026882
0.352719 0.294999 0.028133
0.382736 0.297954 0.029381
0.412917 0.300730 0.030614
0.443258 0.303357 0.031836
0.473750 0.305855 0.033054
0.504386 0.308239 0.034267
0.535159 0.310523 0.035478
0.566060 0.312717 0.036685
0.597084 0.314831 0.037889
0.628225 0.316873 0.039089
0.659475 0.318849 0.040287
0.690831 0.320764 0.041481
0.722287 0.322625 0.042673
0.753840 0.324436 0.043863
0.785484 0.326200 0.045052
0.817216 0.327921 0.046240
0.849032 0.329603 0.047428
0.880927 0.331247 0.048616
0.912899 0.332857 0.049804
0.936842 0.331648 0.050644
0.053340 0.308439 0.031307
0.077716 0.310200 0.031824
0.101254 0.312078 0.031699
0.124404 0.314337 0.031479
0.147450 0.316860 0.031186
0.170647 0.319515 0.030842
0.194180 0.322185 0.030471
0.218162 0.324786 0.030090
0.242530 0.327460 0.029638
0.267380 0.330198 0.029100
0.292872 0.332788 0.028542
0.319013 0.335131 0.028003
0.327288 0.319513 0.027487
0.357829 0.323729 0.028783
0.388258 0.327177 0.030040
0.418651 0.330081 0.031298
0.449168 0.332796 0.032540
0.479819 0.335373 0.033773
0.510599 0.337828 0.034999
0.541502 0.340176 0.036221
0.572521 0.342429 0.037439
0.603652 0.344597 0.038655
0.634889 0.346689 0.039868
0.666227 0.348712 0.041077
0.697661 0.350672 0.042284
0.729187 0.352574 0.043488
0.760800 0.354424 0.044688
0.792499 0.356225 0.045887
0.824278 0.357982 0.047084
0.856135 0.359698 0.048279
0.888067 0.361375 0.049474
0.920070 0.363017 0.050668
0.943936 0.361566 0.051504
0.060104 0.341265 0.033761
0.085047 0.342883 0.034313
0.109129 0.344576 0.034180
0.132780 0.346644 0.033952
0.156251 0.348991 0.033650
0.179775 0.351501 0.033295
0.203538 0.354069 0.032908
0.227665 0.356608 0.032505
0.252202 0.359095 0.032087
0.277062 0.361725 0.031571
0.302427 0.364344 0.030998
0.328392 0.366797 0.030418
0.354947 0.369015 0.029860
0.362026 0.351808 0.029354
0.392933 0.355955 0.030659
0.423722 0.359384 0.031924
0.454444 0.362261 0.033190
0.485252 0.364925 0.034443
0.516175 0.367460 0.035685
0.547207 0.369880 0.036920
0.578344 0.372199 0.038150
0.609583 0.374427 0.039377
0.640918 0.376574 0.040602
0.672346 0.378648 0.041823
0.703862 0.380656 0.043042
0.735462 0.382604 0.044258
0.767144 0.384496 0.045471
0.798903 0.386337 0.046681
0.830736 0.388132 0.047888
0.862641 0.389883 0.049094
0.895858 0.392138 0.050368
0.930480 0.394888 0.051744
0.955634 0.393699 0.052666
0.066908 0.374097 0.036186
0.092339 0.375592 0.036771
0.116902 0.377129 0.036640
0.141001 0.379026 0.036407
0.164861 0.381211 0.036101
0.188696 0.383584 0.035739
0.212685 0.386047 0.035341
0.236960 0.388518 0.034924
0.261606 0.390933 0.034499
0.286579 0.393378 0.034030
0.311885 0.395946 0.033468
0.337695 0.398452 0.032868
0.364065 0.400786 0.032271
0.390970 0.402898 0.031696
0.396805 0.384116 0.031205
0.428026 0.388205 0.032518
0.459126 0.391620 0.033791
0.490142 0.394489 0.035064
0.521204 0.397110 0.036328
0.552364 0.399609 0.037580
0.583618 0.402000 0.038825
0.614965 0.404294 0.040064
0.646399 0.406502 0.041299
0.677917 0.408632 0.042532
0.709516 0.410692 0.043762
0.741194 0.412688 0.044989
0.772946 0.414626 0.046214
0.805464 0.416870 0.047477
0.839719 0.419875 0.048861
0.874122 0.422795 0.050247
0.908679 0.425643 0.051634
0.943384 0.428423 0.053020
0.968559 0.426965 0.053942
0.073743 0.406937 0.038592
0.099600 0.408326 0.039206
0.124590 0.409728 0.039085
0.149091 0.411473 0.038849
0.173310 0.413510 0.038541
0.197440 0.415752 0.038176
0.221652 0.418111 0.037772
0.246078 0.420508 0.037344
0.270812 0.422881 0.036905
0.295901 0.425194 0.036460
0.321237 0.427634 0.035934
0.346942 0.430130 0.035338
0.373140 0.432535 0.034720
0.399858 0.434765 0.034111
0.427064 0.436785 0.033520
0.431616 0.416438 0.033044
0.463109 0.420478 0.034367
0.494481 0.423883 0.035648
0.525760 0.426760 0.036926
0.557046 0.429343 0.038202
0.588416 0.431813 0.039464
0.619869 0.434179 0.040718
0.651401 0.436453 0.041966
0.683011 0.438644 0.043210
0.714793 0.440822 0.044457
0.748698 0.444147 0.045847
0.782743 0.447358 0.047247
0.816951 0.450478 0.048647
0.851314 0.453513 0.050047
0.885828 0.456469 0.051446
0.920486 0.459351 0.052845
0.955283 0.462164 0.054243
0.980521 0.460451 0.055169
0.080603 0.439787 0.040983
0.106835 0.441082 0.041624
0.132206 0.442369 0.041519
0.157071 0.443978 0.041282
0.181620 0.445879 0.040974
0.206029 0.447997 0.040609
0.230459 0.450253 0.040202
0.255040 0.452574 0.039767
0.279870 0.454897 0.039317
0.305014 0.457175 0.038863
0.330453 0.459448 0.038383
0.356126 0.461867 0.037812
0.382190 0.464289 0.037192
0.408726 0.466601 0.036560
0.435748 0.468740 0.035941
0.463215 0.470680 0.035336
0.466454 0.448775 0.034877
0.498185 0.452773 0.036209
0.529795 0.456171 0.037498
0.561310 0.459064 0.038783
0.592797 0.461621 0.040069
0.624355 0.464065 0.041341
0.657390 0.467413 0.042705
0.691086 0.471000 0.044121
0.724953 0.474467 0.045535
0.758984 0.477824 0.046948
0.793173 0.481079 0.048360
0.827514 0.484240 0.049772
0.862001 0.487315 0.051184
0.896629 0.490308 0.052595
0.931393 0.493227 0.054006
0.966287 0.496074 0.055416
0.991629 0.494124 0.056349
0.087483 0.472647 0.043364
0.114047 0.473859 0.044029
0.139762 0.475047 0.043946
0.164956 0.476533 0.043709
0.189810 0.478310 0.043402
0.214484 0.480311 0.043038
0.239126 0.482467 0.042630
0.263863 0.484710 0.042192
0.288796 0.486979 0.041736
0.313994 0.489226 0.041271
0.339501 0.491415 0.040805
0.365222 0.493698 0.040278
0.391210 0.496080 0.039674
0.417594 0.498429 0.039035
0.444429 0.500657 0.038393
0.471717 0.502715 0.037767
0.499412 0.504586 0.037148
0.501311 0.481130 0.036708
0.533253 0.485092 0.038048
0.565548 0.488895 0.039379
0.599097 0.493303 0.040823
0.632653 0.497259 0.042275
0.666365 0.501043 0.043717
0.700241 0.504690 0.045150
0.734274 0.508213 0.046579
0.768460 0.511622 0.048006
0.802793 0.514926 0.049431
0.837268 0.518133 0.050855
0.871880 0.521250 0.052278
0.906624 0.524284 0.053701
0.941496 0.527241 0.055124
0.976491 0.530126 0.056546
1.000000 0.527960 0.057487
0.094380 0.505519 0.045737
0.121240 0.506657 0.046425
0.147266 0.507759 0.046368
0.172760 0.509134 0.046131
0.197897 0.510796 0.045827
0.222820 0.512689 0.045465
0.247667 0.514748 0.045059
0.272562 0.516912 0.044620
0.297602 0.519123 0.044159
0.322862 0.521334 0.043687
0.348394 0.523506 0.043212
0.374199 0.525651 0.042724
0.400178 0.527940 0.042154
0.426901 0.530831 0.041569
0.454699 0.534434 0.041042
0.483020 0.537876 0.040513
0.511860 0.541121 0.039997
0.541161 0.544149 0.039475
0.538730 0.515972 0.038762
0.572776 0.521553 0.040281
0.606758 0.526481 0.041753
0.640697 0.530846 0.043214
0.674627 0.534753 0.044679
0.708679 0.538465 0.046135
0.742876 0.542050 0.047583
0.777216 0.545516 0.049025
0.811692 0.548873 0.050463
0.846301 0.552130 0.051900
0.881038 0.555294 0.053336
0.915899 0.558373 0.054770
0.950880 0.561371 0.056204
0.985977 0.564296 0.057638
1.000000 0.561937 0.058589
0.101290 0.538402 0.048106
0.128417 0.539475 0.048815
0.154726 0.540502 0.048787
0.180494 0.541776 0.048551
0.205892 0.543333 0.048250
0.231050 0.545123 0.047892
0.256097 0.547090 0.047489
0.281148 0.549175 0.047051
0.306300 0.551326 0.046588
0.331630 0.553496 0.046111
0.358012 0.556939 0.045745
0.384772 0.560350 0.045393
0.411841 0.563796 0.044996
0.439212 0.567367 0.044516
0.467004 0.570935 0.043988
0.495279 0.574404 0.043439
0.524054 0.577715 0.042892
0.553314 0.580835 0.042359
0.582996 0.583749 0.041812
0.579130 0.553728 0.041107
0.613550 0.559223 0.042639
0.647901 0.564097 0.044125
0.682203 0.568432 0.045597
0.716477 0.572306 0.047074
0.750836 0.575956 0.048545
0.785327 0.579483 0.050006
0.819945 0.582899 0.051461
0.854687 0.586210 0.052912
0.889549 0.589425 0.054360
0.924527 0.592552 0.055807
0.959617 0.595596 0.057253
0.994817 0.598563 0.058698
1.000000 0.596036 0.059659
0.108211 0.571298 0.050472
0.135578 0.572311 0.051201
0.162148 0.573274 0.051205
0.188167 0.574456 0.050971
0.213807 0.575917 0.050673
0.239188 0.577611 0.050320
0.264825 0.580369 0.049998
0.290699 0.583717 0.049701
0.316740 0.587132 0.049374
0.343021 0.590565 0.049025
0.369597 0.593976 0.048664
0.396508 0.597333 0.048295
0.423765 0.600627 0.047919
0.451266 0.604045 0.047468
0.479093 0.607538 0.046949
0.507339 0.610998 0.046394
0.536049 0.614348 0.045826
0.565231 0.617540 0.045262
0.594869 0.620549 0.044715
0.624848 0.623318 0.044145
0.619555 0.591502 0.043449
0.654313 0.596921 0.044994
0.688998 0.601749 0.046494
0.723628 0.606057 0.047977
0.758220 0.609915 0.049464
0.792859 0.613507 0.050949
0.827617 0.616985 0.052424
0.862491 0.620354 0.053891
0.897476 0.623625 0.055354
0.932571 0.626803 0.056814
0.967771 0.629896 0.058272
1.000000 0.632909 0.059728
1.000000 0.630240 0.060702
0.115142 0.604207 0.052838
0.142727 0.605167 0.053584
0.169740 0.606804 0.053688
0.196412 0.609225 0.053595
0.222806 0.611908 0.053439
0.249027 0.614818 0.053226
0.275182 0.617908 0.052963
0.301371 0.621130 0.052660
0.327682 0.624433 0.052325
0.354189 0.627773 0.051967
0.380950 0.631110 0.051594
0.408009 0.634409 0.051212
0.435395 0.637646 0.050826
0.463068 0.640884 0.050412
0.490973 0.644261 0.049917
0.519219 0.647674 0.049367
0.547878 0.651032 0.048790
0.576981 0.654273 0.048205
0.606530 0.657358 0.047628
0.636508 0.660267 0.047069
0.665035 0.661225 0.046480
0.660003 0.629297 0.045791
0.695066 0.634648 0.047348
0.730053 0.639434 0.048861
0.764981 0.643720 0.050356
0.799866 0.647570 0.051852
0.834765 0.651116 0.053351
0.869768 0.654548 0.054838
0.904876 0.657877 0.056318
0.940086 0.661110 0.057793
0.975395 0.664255 0.059264
1.000000 0.667318 0.060733
1.000000 0.664535 0.061721
0.122658 0.640534 0.055544
0.150872 0.642821 0.056458
0.178423 0.644971 0.056671
0.205501 0.647253 0.056574
0.232286 0.649797 0.056413
0.258875 0.652569 0.056197
0.285367 0.655528 0.055931
0.311855 0.658628 0.055623
0.338425 0.661824 0.055283
0.365152 0.665071 0.054918
0.392096 0.668332 0.054536
0.419301 0.671573 0.054143
0.446801 0.674768 0.053744
0.474615 0.677897 0.053343
0.502644 0.681122 0.052882
0.530927 0.684450 0.052351
0.559558 0.687783 0.051775
0.588592 0.691045 0.051180
0.618051 0.694186 0.050582
0.647933 0.697173 0.049994
0.678221 0.699991 0.049424
0.705261 0.699146 0.048818
0.700468 0.667113 0.048134
0.735809 0.672403 0.049704
0.771073 0.677151 0.051230
0.806273 0.681419 0.052736
0.841426 0.685263 0.054242
0.876567 0.688778 0.055752
0.911796 0.692169 0.057253
0.947120 0.695461 0.058745
0.982538 0.698661 0.060231
1.000000 0.701776 0.061713
1.000000 0.698910 0.062718
0.130496 0.678934 0.058476
0.159099 0.681118 0.059406
0.187048 0.683172 0.059655
0.214503 0.685329 0.059552
0.241653 0.687744 0.059389
0.268587 0.690388 0.059170
0.295396 0.693222 0.058902
0.322169 0.696206 0.058592
0.348990 0.699297 0.058248
0.375931 0.702454 0.057878
0.403053 0.705639 0.057489
0.430403 0.708820 0.057087
0.458017 0.711969 0.056678
0.485922 0.715063 0.056266
0.514098 0.718134 0.055839
0.542459 0.721342 0.055335
0.571094 0.724615 0.054774
0.600080 0.727870 0.054177
0.629458 0.731042 0.053567
0.659242 0.734091 0.052958
0.689427 0.736989 0.052361
0.719996 0.739725 0.051782
0.745523 0.737081 0.051163
0.740950 0.704951 0.050482
0.776545 0.710186 0.052064
0.812060 0.714901 0.053601
0.847510 0.719153 0.055119
0.882909 0.722994 0.056634
0.918279 0.726490 0.058155
0.953716 0.729843 0.059668
0.989240 0.733102 0.061172
1.000000 0.736273 0.062670
1.000000 0.733353 0.063694
0.138345 0.717350 0.061407
0.167306 0.719438 0.062352
0.195624 0.721406 0.062639
0.223427 0.723448 0.062532
0.250918 0.725744 0.062367
0.278175 0.728267 0.062146
0.305284 0.730984 0.061877
0.332331 0.733858 0.061566
0.359393 0.736848 0.061220
0.386543 0.739915 0.060846
0.413839 0.743025 0.060452
0.441333 0.746144 0.060043
0.469062 0.749246 0.059625
0.497054 0.752306 0.059203
0.525329 0.755306 0.058781
0.553810 0.758365 0.058315
0.582486 0.761546 0.057777
0.611451 0.764762 0.057190
0.640764 0.767941 0.056577
0.670457 0.771029 0.055955
0.700538 0.773993 0.055336
0.731000 0.776810 0.054731
0.761826 0.779472 0.054145
0.785814 0.775032 0.053514
0.781444 0.742812 0.052835
0.817272 0.747996 0.054429
0.853019 0.752682 0.055978
0.888699 0.756920 0.057507
0.924325 0.760759 0.059031
0.959911 0.764249 0.060562
0.995540 0.767568 0.062087
1.000000 0.770796 0.063603
1.000000 0.767855 0.064649
0.146203 0.755780 0.064337
0.175493 0.757782 0.065297
0.204154 0.759672 0.065621
0.232283 0.761608 0.065515
0.260091 0.763793 0.065347
0.287653 0.766203 0.065126
0.315047 0.768810 0.064857
0.342354 0.771578 0.064545
0.369649 0.774470 0.064198
0.397001 0.777451 0.063823
0.424470 0.780485 0.063425
0.452106 0.783542 0.063011
0.479949 0.786594 0.062587
0.508030 0.789618 0.062156
0.536372 0.792594 0.061724
0.564971 0.795530 0.061285
0.593726 0.798590 0.060779
0.622702 0.801737 0.060211
0.651973 0.804894 0.059604
0.681588 0.808000 0.058977
0.711571 0.811011 0.058345
0.741924 0.813896 0.057719
0.772641 0.816639 0.057107
0.803703 0.819232 0.056514
0.826131 0.813000 0.055874
0.821949 0.780695 0.055195
0.857991 0.785834 0.056800
0.893952 0.790494 0.058361
0.929844 0.794720 0.059900
0.965680 0.798559 0.061434
1.000000 0.802052 0.062973
1.000000 0.805340 0.064511
1.000000 0.802411 0.065584
0.154069 0.794226 0.067268
0.183664 0.796147 0.068242
0.212642 0.797966 0.068603
0.241077 0.799807 0.068500
0.269183 0.801887 0.068332
0.297031 0.804192 0.068111
0.324695 0.806694 0.067842
0.352251 0.809362 0.067531
0.379770 0.812160 0.067184
0.407319 0.815056 0.066807
0.434957 0.818016 0.066408
0.462735 0.821011 0.065990
0.490693 0.824012 0.065561
0.518864 0.826996 0.065124
0.547273 0.829945 0.064683
0.575937 0.832841 0.064243
0.604806 0.835759 0.063774
0.633826 0.838810 0.063234
0.663085 0.841917 0.062642
0.692642 0.845016 0.062018
