modules/camera-engine/ios/LUTs/fuji-classic-negative.cube
TITLE "Camera18 V0 - Fujifilm Classic Negative inspired"
LUT_3D_SIZE 9
DOMAIN_MIN 0.0 0.0 0.0
DOMAIN_MAX 1.0 1.0 1.0
# Original Camera 18 V0 approximation; input expected normalized display-referred RGB.
# Punchy contrast with teal/cyan shadow tendency and warmer/magenta highlights.
0.000000 0.007250 0.010150
0.082126 0.010693 0.015154
0.174399 0.014155 0.020170
0.266670 0.017635 0.025197
0.358937 0.021133 0.030235
0.451202 0.024650 0.035284
0.543464 0.028185 0.040345
0.667183 0.033309 0.047665
0.798735 0.038778 0.055462
0.008799 0.094532 0.015788
0.083718 0.092890 0.014214
0.176659 0.096606 0.017637
0.269110 0.098845 0.020864
0.368179 0.102683 0.024507
0.488787 0.110601 0.029388
0.613128 0.117346 0.034292
0.740111 0.123284 0.039226
0.862535 0.127737 0.043930
0.027722 0.181976 0.021525
0.109417 0.189570 0.021075
0.189079 0.190382 0.019624
0.302646 0.205054 0.024565
0.420389 0.215576 0.029345
0.541601 0.224290 0.034060
0.665472 0.231841 0.038755
0.791417 0.238570 0.043467
0.911398 0.242738 0.047897
0.053340 0.308439 0.031307
0.147450 0.316860 0.031186
0.242530 0.327460 0.029638
0.327288 0.319513 0.027487
0.449168 0.332796 0.032540
0.572521 0.342429 0.037439
0.697661 0.350672 0.042284
0.824278 0.357982 0.047084
0.943936 0.361566 0.051504
0.080603 0.439787 0.040983
0.181620 0.445879 0.040974
0.279870 0.454897 0.039317
0.382190 0.464289 0.037192
0.466454 0.448775 0.034877
0.592797 0.461621 0.040069
0.724953 0.474467 0.045535
0.862001 0.487315 0.051184
0.991629 0.494124 0.056349
0.108211 0.571298 0.050472
0.213807 0.575917 0.050673
0.316740 0.587132 0.049374
0.423765 0.600627 0.047919
0.536049 0.614348 0.045826
0.619555 0.591502 0.043449
0.758220 0.609915 0.049464
0.897476 0.623625 0.055354
1.000000 0.630240 0.060702
0.138345 0.717350 0.061407
0.250918 0.725744 0.062367
0.359393 0.736848 0.061220
0.469062 0.749246 0.059625
0.582486 0.761546 0.057777
0.700538 0.773993 0.055336
0.781444 0.742812 0.052835
0.924325 0.760759 0.059031
1.000000 0.767855 0.064649
0.169819 0.871167 0.073137
0.287149 0.878203 0.074315
0.399651 0.887728 0.073177
0.511790 0.899041 0.071544
0.626461 0.910490 0.069736
0.744283 0.922257 0.067504
0.863785 0.930684 0.064701
0.943515 0.894485 0.062326
1.000000 0.892318 0.067231
0.201373 1.000000 0.084927
0.322384 1.000000 0.086353
0.438217 1.000000 0.085254
0.546382 1.000000 0.082692
0.651378 1.000000 0.079701
0.756348 1.000000 0.076730
0.861169 1.000000 0.073299
0.967658 1.000000 0.069874
1.000000 0.984340 0.067717
0.000000 0.016889 0.098972
0.082241 0.006623 0.098090
0.174232 0.008979 0.099565
0.266052 0.012301 0.103782
0.358124 0.016056 0.109023
0.450293 0.019825 0.114388
0.542501 0.023557 0.119722
0.670166 0.028785 0.131996
0.802483 0.034197 0.143858
0.000000 0.094579 0.089245
0.083781 0.096801 0.098551
0.176046 0.100318 0.103601
0.268308 0.103853 0.108662
0.378958 0.112886 0.119535
0.500473 0.122658 0.131321
0.625559 0.131487 0.142209
0.753163 0.139658 0.152468
0.877586 0.146560 0.161411
0.000000 0.182109 0.080494
0.103525 0.188605 0.105408
0.192817 0.198365 0.111530
0.307055 0.211757 0.120763
0.424630 0.221009 0.128313
0.545566 0.228814 0.135294
0.669151 0.235710 0.141948
0.794824 0.241959 0.148379
0.915452 0.245982 0.153600
0.010979 0.306709 0.086341
0.139185 0.316183 0.125998
0.237404 0.326111 0.128655
0.329873 0.326792 0.130159
0.452238 0.339445 0.137561
0.575614 0.348327 0.143997
0.700613 0.355880 0.150057
0.827054 0.362624 0.155900
0.948415 0.366442 0.160646
0.024354 0.437771 0.088567
0.171414 0.445563 0.141295
0.274108 0.452423 0.142623
0.376962 0.463243 0.143481
0.468410 0.455713 0.143161
0.595580 0.468515 0.150018
0.730225 0.482477 0.157914
0.867279 0.494627 0.165440
0.996807 0.500766 0.171119
0.038185 0.569129 0.088241
0.202111 0.575872 0.154344
0.310720 0.585216 0.156491
0.418392 0.599626 0.158013
0.531335 0.614637 0.159158
0.623139 0.600364 0.158360
0.762237 0.618297 0.166539
0.901702 0.631563 0.173973
1.000000 0.637485 0.179556
0.052664 0.711613 0.088168
0.237965 0.726751 0.171393
0.352269 0.734922 0.173364
0.463183 0.747221 0.174045
0.576924 0.760489 0.174559
0.695416 0.774352 0.174552
0.784413 0.751368 0.173039
0.927673 0.768994 0.180880
1.000000 0.775479 0.186633
0.067761 0.865227 0.088237
0.272906 0.879215 0.187197
0.391434 0.886007 0.189039
0.505433 0.896507 0.189223
0.620299 0.908835 0.189232
0.738528 0.921258 0.189024
0.855135 0.927560 0.186979
0.941419 0.898430 0.185448
1.000000 0.894047 0.188518
0.082968 1.000000 0.087258
0.307091 1.000000 0.202106
0.428970 1.000000 0.203975
0.538257 1.000000 0.201060
0.643553 1.000000 0.197859
0.748293 1.000000 0.194697
0.853161 1.000000 0.191328
0.959488 1.000000 0.187743
1.000000 0.986355 0.186027
0.001856 0.026536 0.187799
0.082468 0.012468 0.189652
0.174628 0.006020 0.186044
0.266855 0.007664 0.185979
0.358602 0.010788 0.189029
0.450341 0.013969 0.192838
0.542228 0.017526 0.197521
0.671787 0.022579 0.214715
0.804351 0.027895 0.230473
0.000000 0.108089 0.185353
0.087509 0.104321 0.185265
0.176505 0.096589 0.186869
0.268178 0.098721 0.188097
0.379748 0.107604 0.202847
0.501064 0.117285 0.218974
0.626109 0.126159 0.233501
0.753682 0.134379 0.246730
0.879370 0.141548 0.257940
0.000000 0.182080 0.168445
0.084309 0.189436 0.182487
0.196569 0.206507 0.207045
0.310024 0.218505 0.220791
0.428269 0.229227 0.233352
0.550020 0.239022 0.245047
0.674416 0.248124 0.256095
0.800856 0.256697 0.266645
0.923865 0.263468 0.275374
0.000000 0.308251 0.180191
0.105363 0.315672 0.194933
0.228591 0.322477 0.224793
0.332279 0.333973 0.234370
0.455094 0.345721 0.243891
0.578133 0.353422 0.251375
0.702835 0.360133 0.258410
0.829039 0.366278 0.265213
0.954592 0.371330 0.271465
0.010247 0.438881 0.185600
0.124885 0.444540 0.201401
0.264372 0.450471 0.244106
0.370265 0.460423 0.248247
0.470262 0.462597 0.252341
0.600483 0.477061 0.262010
0.735141 0.490076 0.271799
0.872028 0.501351 0.280883
1.000000 0.506870 0.286933
0.024127 0.570022 0.187400
0.142646 0.574540 0.204309
0.299973 0.585039 0.262331
0.411637 0.596409 0.266795
0.525687 0.613515 0.272023
0.626566 0.609144 0.274599
0.766173 0.626622 0.284865
0.905767 0.639301 0.293687
1.000000 0.644436 0.299293
0.038748 0.713372 0.190833
0.162770 0.722771 0.210620
0.339912 0.735213 0.284117
0.455815 0.743882 0.287247
0.570361 0.758348 0.290495
0.689738 0.773864 0.293612
0.787270 0.759868 0.294181
0.930936 0.777133 0.303639
1.000000 0.782963 0.309361
0.053953 0.866776 0.194637
0.182145 0.874823 0.214952
0.377740 0.886563 0.303322
0.497289 0.893520 0.305861
0.613399 0.905767 0.307855
0.732082 0.919385 0.309923
0.846404 0.924163 0.308382
0.937093 0.900214 0.307354
1.000000 0.895774 0.308847
0.069380 1.000000 0.196583
0.200605 1.000000 0.217314
0.413347 1.000000 0.320262
0.528206 1.000000 0.318055
0.635249 1.000000 0.314707
0.739966 1.000000 0.311539
0.844996 1.000000 0.308400
0.951261 1.000000 0.304968
1.000000 0.988427 0.303518
0.007857 0.036191 0.276631
0.082638 0.018876 0.278364
0.176629 0.011324 0.280417
0.267011 0.005440 0.274014
0.359444 0.006490 0.272993
0.451226 0.009487 0.275255
0.542959 0.012677 0.278543
0.675485 0.016908 0.300437
0.806055 0.021378 0.317949
0.002596 0.117007 0.274253
0.093505 0.114014 0.274121
0.175426 0.101224 0.277226
0.269535 0.096304 0.275546
0.383951 0.103884 0.292225
0.503921 0.112119 0.309192
0.627612 0.119756 0.324571
0.754410 0.127414 0.339365
0.880116 0.134543 0.352248
0.000000 0.212627 0.286444
0.094703 0.213061 0.296024
0.201837 0.216388 0.306191
0.312625 0.215775 0.318525
0.429170 0.223737 0.328105
0.549721 0.232606 0.340353
0.673878 0.241827 0.353399
0.800299 0.250626 0.365910
0.924789 0.258008 0.376372
0.000000 0.310896 0.285539
0.095294 0.317428 0.299542
0.206367 0.323125 0.313551
0.335099 0.341624 0.340524
0.456115 0.351675 0.352407
0.579501 0.361108 0.363716
0.704791 0.370048 0.374566
0.833207 0.379311 0.385786
0.966056 0.389387 0.398106
0.000000 0.440112 0.290455
0.110578 0.445522 0.303921
0.227991 0.450173 0.318387
0.359080 0.454677 0.348957
0.472016 0.469430 0.362351
0.605095 0.485167 0.375663
0.739260 0.496674 0.386718
0.875771 0.506883 0.397070
1.000000 0.512087 0.403714
0.009013 0.570937 0.292420
0.127914 0.575320 0.306600
0.250404 0.583182 0.325122
0.400824 0.593892 0.373794
0.517805 0.609806 0.382738
0.629844 0.617846 0.392089
0.770057 0.634849 0.404413
0.909569 0.646643 0.414362
1.000000 0.650923 0.419783
0.022998 0.715080 0.298180
0.148087 0.724312 0.316317
0.275864 0.732651 0.336674
0.443879 0.742859 0.399222
0.562005 0.753572 0.404396
0.682883 0.771701 0.411667
0.790022 0.768315 0.416214
0.934184 0.785250 0.427292
1.000000 0.790241 0.432781
0.037872 0.868235 0.304545
0.167609 0.876197 0.323430
0.298799 0.883460 0.344373
0.484119 0.893293 0.421277
0.604791 0.901197 0.424861
0.724469 0.916268 0.429625
0.837434 0.920224 0.428681
0.932888 0.902067 0.428246
1.000000 0.897505 0.428258
0.053263 1.000000 0.308516
0.186358 1.000000 0.328126
0.320027 1.000000 0.349486
0.512852 1.000000 0.433024
0.625393 1.000000 0.430050
0.731225 1.000000 0.426964
0.836426 1.000000 0.424249
0.942888 1.000000 0.421429
1.000000 0.990553 0.420223
0.013857 0.045854 0.365468
0.083764 0.025120 0.367135
0.175079 0.017733 0.369184
0.271446 0.010352 0.371109
0.359391 0.004885 0.361998
0.452008 0.005426 0.360290
0.548676 0.008340 0.365147
0.681170 0.012229 0.390870
0.809402 0.016337 0.409740
0.009344 0.126604 0.363125
0.099498 0.123716 0.362982
0.175065 0.107166 0.365464
0.279518 0.104172 0.381394
0.388714 0.102841 0.390486
0.508261 0.108298 0.405460
0.631646 0.115353 0.421723
0.757723 0.122223 0.436966
0.881230 0.128178 0.448833
0.001558 0.227393 0.392096
0.105303 0.229231 0.404169
0.213338 0.232546 0.415609
0.313347 0.222187 0.426197
0.432651 0.222137 0.433612
0.553283 0.228548 0.442191
0.676176 0.236213 0.453507
0.801331 0.243687 0.464989
0.925089 0.250547 0.475281
0.000000 0.353380 0.427029
0.103416 0.349245 0.432301
0.217880 0.346313 0.437818
0.336101 0.347699 0.444970
0.458752 0.348774 0.458858
0.580100 0.355105 0.465308
0.703961 0.362977 0.475453
0.832698 0.372682 0.488438
0.967481 0.383765 0.503585
0.000000 0.442355 0.404709
0.101231 0.447099 0.417372
0.217221 0.451493 0.430529
0.335435 0.455284 0.443305
0.475475 0.478003 0.474917
0.607101 0.492329 0.491343
0.741929 0.505813 0.506999
0.879461 0.518590 0.522008
1.000000 0.527758 0.533432
0.000000 0.572074 0.404820
0.113487 0.576188 0.416855
0.235710 0.584846 0.433738
0.362090 0.593276 0.452171
0.504026 0.601794 0.488018
0.632983 0.626477 0.510756
0.773764 0.642678 0.525048
0.912617 0.652928 0.535522
1.000000 0.656565 0.540886
0.007449 0.716926 0.411543
0.132270 0.725898 0.428377
0.260433 0.734034 0.446156
0.391366 0.741448 0.466041
0.549614 0.749797 0.516412
0.673299 0.766456 0.526808
0.792672 0.776711 0.539093
0.937450 0.793309 0.551843
1.000000 0.797176 0.556815
0.021299 0.869748 0.419446
0.151160 0.877539 0.436652
0.283444 0.884692 0.455294
0.417334 0.891266 0.476226
0.591875 0.899477 0.540862
0.714640 0.910085 0.546692
0.827800 0.915162 0.547296
0.928798 0.903987 0.548167
1.000000 0.899253 0.546774
0.036183 1.000000 0.424558
0.169756 1.000000 0.442457
0.305010 1.000000 0.461967
0.436008 1.000000 0.478120
0.610664 1.000000 0.543815
0.721185 1.000000 0.540528
0.827077 1.000000 0.538514
0.934171 1.000000 0.536854
1.000000 0.992731 0.536171
0.019855 0.055524 0.454309
0.085267 0.031238 0.455963
0.174869 0.024196 0.457896
0.268934 0.016584 0.459997
0.366438 0.009504 0.461765
0.451767 0.004353 0.449996
0.555718 0.004531 0.456923
0.687040 0.007699 0.484591
0.812942 0.011437 0.503851
0.015919 0.136415 0.451982
0.107389 0.135826 0.459975
0.179479 0.115488 0.463161
0.284923 0.113333 0.485645
0.402074 0.110118 0.505989
0.512809 0.107514 0.509775
0.635838 0.111425 0.522975
0.761620 0.117610 0.538254
0.883014 0.123052 0.549081
0.009375 0.243402 0.502356
0.115645 0.245854 0.515950
0.224506 0.248505 0.528094
0.316133 0.231376 0.535158
0.437422 0.228982 0.549717
0.556200 0.227160 0.551952
0.679739 0.232203 0.559590
0.804704 0.239136 0.570280
0.925923 0.244707 0.578134
0.000361 0.365252 0.539573
0.113160 0.362806 0.546484
0.229395 0.361878 0.553468
0.346968 0.363457 0.560932
0.456087 0.353059 0.571881
0.583358 0.353488 0.578059
0.707604 0.358998 0.583540
0.836045 0.367422 0.594829
0.968227 0.376449 0.607946
0.000000 0.495257 0.562578
0.107840 0.488644 0.565866
0.226374 0.483041 0.569393
0.347481 0.478709 0.573383
0.473949 0.481967 0.582652
0.611213 0.490481 0.605398
0.743015 0.499809 0.615389
0.878594 0.511032 0.629618
1.000000 0.521386 0.643280
0.000000 0.573988 0.523841
0.105087 0.578495 0.536416
0.226458 0.587490 0.554377
0.351312 0.595534 0.571744
0.479175 0.602758 0.588600
0.637107 0.636131 0.631613
0.774306 0.649062 0.646740
0.913629 0.661444 0.661363
1.000000 0.669639 0.671835
0.000000 0.719449 0.532635
0.117897 0.727707 0.547671
0.245345 0.735588 0.564318
0.375701 0.742761 0.581171
0.508839 0.749334 0.599194
0.656903 0.756115 0.635439
0.795227 0.785060 0.662777
0.940599 0.800989 0.677175
1.000000 0.802650 0.680640
0.005536 0.871399 0.539750
0.134970 0.878991 0.556000
0.266927 0.885963 0.572717
0.401204 0.892395 0.590476
0.537383 0.898349 0.610463
0.700859 0.905175 0.661906
0.816329 0.908039 0.662929
0.924818 0.905971 0.667159
1.000000 0.900964 0.664435
0.019299 1.000000 0.545343
0.152668 1.000000 0.561852
0.288026 1.000000 0.579255
0.419241 1.000000 0.589901
0.546964 1.000000 0.601579
0.706944 1.000000 0.652825
0.816275 1.000000 0.650246
0.924600 1.000000 0.650578
1.000000 0.994961 0.651391
0.025853 0.065202 0.543155
0.086949 0.037274 0.544831
0.175414 0.030584 0.546629
0.267682 0.023047 0.548746
0.363385 0.015538 0.550771
0.461487 0.008741 0.552405
0.565135 0.003993 0.558768
0.693467 0.003877 0.582735
0.816843 0.006864 0.600803
0.022629 0.147983 0.547031
0.118196 0.151762 0.573277
0.186573 0.125469 0.571128
0.291333 0.122859 0.593877
0.406179 0.118704 0.614573
0.529635 0.114346 0.633307
0.640122 0.110978 0.631918
0.765664 0.113685 0.643420
0.884954 0.118180 0.651736
0.017486 0.259821 0.616103
0.125733 0.262431 0.630566
0.235401 0.264304 0.643083
0.320594 0.241084 0.647109
0.438287 0.237747 0.661424
0.565065 0.233952 0.675054
0.682330 0.231210 0.672684
0.808070 0.235095 0.679407
0.926976 0.239487 0.683919
0.008746 0.379242 0.654818
0.123173 0.377829 0.662840
0.240420 0.377980 0.670749
0.357653 0.379119 0.678488
0.456793 0.361347 0.685846
0.585501 0.359100 0.698818
0.709913 0.357473 0.699097
0.841174 0.364166 0.708073
0.969931 0.371311 0.717754
0.000000 0.505175 0.679212
0.116964 0.500349 0.683747
0.237002 0.496273 0.688317
0.360548 0.495854 0.695764
0.487722 0.501037 0.707997
0.607261 0.493974 0.724240
0.747955 0.499340 0.736783
0.883859 0.507882 0.746228
1.000000 0.514656 0.754486
0.000000 0.645007 0.704394
0.111914 0.640295 0.710515
0.236576 0.636758 0.717185
0.364106 0.633360 0.723822
0.495182 0.631485 0.731193
0.630926 0.635890 0.741859
0.778693 0.647286 0.767647
0.914539 0.655032 0.775354
1.000000 0.662564 0.784888
0.000000 0.723028 0.659233
0.110042 0.730507 0.674965
0.236698 0.738104 0.692048
0.365903 0.745010 0.708701
0.497359 0.751309 0.724976
0.630813 0.757072 0.740915
0.799031 0.794677 0.788527
0.940014 0.806700 0.802797
1.000000 0.806421 0.804832
0.000616 0.873812 0.667614
0.120645 0.880629 0.681387
0.251963 0.887415 0.697504
0.385453 0.893663 0.713613
0.521020 0.899440 0.730039
0.658671 0.904811 0.747758
0.799604 0.897708 0.773292
0.920944 0.908016 0.785261
1.000000 0.902474 0.781285
0.003531 1.000000 0.670893
0.136455 1.000000 0.686711
0.271165 1.000000 0.702330
0.401358 1.000000 0.707552
0.529516 1.000000 0.714140
0.655605 1.000000 0.723159
0.801835 0.996166 0.760218
0.912874 0.998754 0.761169
1.000000 0.997239 0.765910
0.031849 0.074888 0.632006
0.088728 0.043257 0.633728
0.176399 0.036886 0.635396
0.267312 0.029534 0.637466
0.361395 0.021920 0.639589
0.471561 0.015022 0.660338
0.597698 0.008636 0.690580
0.701732 0.003705 0.690187
0.821631 0.003222 0.701910
0.030337 0.164893 0.664574
0.128701 0.167478 0.689767
0.193286 0.135300 0.682368
0.297999 0.132441 0.705254
0.411368 0.127814 0.726066
0.532700 0.122531 0.745159
0.660485 0.117463 0.762456
0.769655 0.113618 0.756041
0.887352 0.114218 0.757908
0.025772 0.276329 0.732554
0.135633 0.278866 0.747465
0.246070 0.279973 0.760145
0.325539 0.250860 0.761237
0.441188 0.247145 0.775400
0.564913 0.242401 0.789202
0.695242 0.237840 0.802011
0.810409 0.234533 0.795228
0.928296 0.235081 0.793059
0.017434 0.394155 0.772131
0.133145 0.393464 0.780959
0.251072 0.394140 0.789469
0.368181 0.394700 0.797425
0.459837 0.370581 0.802236
0.584089 0.367155 0.814371
0.717059 0.363723 0.826699
0.845142 0.363941 0.828816
0.971972 0.366865 0.831362
0.007640 0.517672 0.797736
0.126695 0.513804 0.803065
0.248311 0.512145 0.810285
0.374378 0.515527 0.822957
0.501238 0.519974 0.835551
0.608642 0.503357 0.846144
0.750327 0.505285 0.865674
0.887498 0.507140 0.870834
1.000000 0.509560 0.871093
0.000000 0.656754 0.828917
0.121154 0.654070 0.837153
0.247661 0.651594 0.845227
0.377161 0.649939 0.853430
0.509943 0.650547 0.862369
0.644090 0.654672 0.872675
0.771497 0.648317 0.890232
0.919550 0.654677 0.902949
1.000000 0.656651 0.902579
0.000000 0.811056 0.862290
0.115546 0.804525 0.866921
0.245136 0.799344 0.872203
0.376691 0.794092 0.877379
0.510429 0.789248 0.882730
0.647198 0.786278 0.889075
0.788420 0.790345 0.899257
0.944785 0.805168 0.928582
1.000000 0.798180 0.919106
0.000303 0.877005 0.799194
0.113350 0.883264 0.813949
0.243962 0.889835 0.830389
0.376520 0.895883 0.846504
0.510824 0.901465 0.862329
0.646701 0.906630 0.877893
0.772042 0.897519 0.879600
0.918102 0.911030 0.903405
1.000000 0.904898 0.899560
0.002031 1.000000 0.803988
0.122342 1.000000 0.816712
0.255566 1.000000 0.829017
0.384999 1.000000 0.831561
0.512372 1.000000 0.834639
0.637969 1.000000 0.838487
0.762090 0.997013 0.843943
0.895459 0.987517 0.866141
1.000000 0.999564 0.879753
0.037844 0.084582 0.720862
0.090562 0.049203 0.722645
0.177659 0.043115 0.724197
0.267539 0.035981 0.726194
0.365637 0.028832 0.739172
0.482330 0.022090 0.773246
0.604436 0.015033 0.800414
0.730720 0.008336 0.822876
0.829676 0.003363 0.813019
0.038282 0.181477 0.784658
0.138972 0.183027 0.808728
0.199621 0.144998 0.796257
0.304609 0.141988 0.819169
0.417100 0.137116 0.839985
0.536749 0.131331 0.859186
0.661574 0.125151 0.875385
0.788369 0.119079 0.887130
0.891721 0.114584 0.872916
0.034175 0.292796 0.851154
0.145394 0.295151 0.866239
0.256550 0.295535 0.878942
0.330593 0.260599 0.877116
0.445085 0.256736 0.891213
0.566580 0.251538 0.905025
0.694483 0.246021 0.918188
0.822679 0.239674 0.925186
0.930897 0.235089 0.910476
0.026265 0.409570 0.891154
0.143012 0.409352 0.900549
0.261459 0.410248 0.909451
0.378571 0.410212 0.917567
0.463705 0.380069 0.920181
0.585238 0.376140 0.931725
0.717995 0.373375 0.948527
0.856008 0.370039 0.962641
0.975878 0.367071 0.954390
0.016562 0.531303 0.917623
0.136762 0.528923 0.924756
0.260674 0.531305 0.938538
0.387693 0.535171 0.952157
0.514522 0.538794 0.965084
0.613102 0.514323 0.971650
0.749447 0.514316 0.989840
0.892607 0.512410 1.000000
1.000000 0.508845 0.996866
0.006063 0.671637 0.956660
0.131309 0.669768 0.966109
0.259389 0.668348 0.975396
0.390296 0.668065 0.984806
0.523835 0.669963 0.994689
0.657077 0.673370 1.000000
0.771009 0.656632 1.000000
0.919586 0.659103 1.000000
1.000000 0.654808 1.000000
0.000000 0.822497 0.991648
0.124383 0.817065 0.997693
0.255388 0.812658 1.000000
0.388508 0.808635 1.000000
0.523963 0.805700 1.000000
0.662135 0.805350 1.000000
0.801146 0.808953 1.000000
0.934677 0.803806 1.000000
1.000000 0.792427 1.000000
0.000879 0.977603 1.000000
0.117769 0.969843 1.000000
0.250950 0.963453 1.000000
0.385674 0.956997 1.000000
0.518079 0.943644 1.000000
0.647543 0.927059 1.000000
0.776323 0.912436 1.000000
0.904301 0.903471 1.000000
1.000000 0.898151 1.000000
0.001709 1.000000 0.939303
0.115586 1.000000 0.953278
0.247103 1.000000 0.960811
0.375407 1.000000 0.961674
0.501570 1.000000 0.962917
0.625784 1.000000 0.964508
0.748215 0.995604 0.966418
0.869012 0.987455 0.968620
1.000000 0.998742 0.989780
