modules/camera-engine/ios/LUTs/hasselblad-natural.cube
TITLE "Camera18 V0 - Hasselblad Natural inspired"
LUT_3D_SIZE 9
DOMAIN_MIN 0.0 0.0 0.0
DOMAIN_MAX 1.0 1.0 1.0
# Original Camera 18 V0 approximation; input expected normalized display-referred RGB.
# Very restrained natural-color starting point with smooth highlight roll-off and gentle skin lift.
0.002500 0.002500 0.000000
0.145031 0.003853 0.003148
0.272111 0.006187 0.005928
0.399061 0.008566 0.008702
0.525982 0.010957 0.011474
0.652893 0.013357 0.014243
0.779803 0.015761 0.017011
0.906666 0.018170 0.019776
1.000000 0.020455 0.022394
0.006533 0.132381 0.004687
0.133312 0.130666 0.003566
0.263593 0.131801 0.005068
0.392486 0.132783 0.006880
0.520724 0.133968 0.008799
0.648240 0.135236 0.010782
0.775477 0.136629 0.012810
0.902524 0.138111 0.014870
1.000000 0.138579 0.016821
0.011821 0.258302 0.009164
0.137466 0.258506 0.008808
0.261147 0.255916 0.006983
0.390281 0.257619 0.008328
0.518521 0.258782 0.009944
0.646296 0.259934 0.011695
0.773766 0.261163 0.013517
0.901027 0.262475 0.015390
1.000000 0.261354 0.017141
0.017149 0.383744 0.013605
0.141068 0.383757 0.013242
0.267546 0.384977 0.012754
0.388612 0.380779 0.010361
0.517372 0.382852 0.011637
0.645400 0.384319 0.013132
0.773095 0.385613 0.014768
0.900539 0.386895 0.016492
1.000000 0.383966 0.018073
0.022526 0.509101 0.018026
0.145466 0.509017 0.017657
0.270989 0.510168 0.017323
0.397441 0.511807 0.016264
0.516159 0.505696 0.013711
0.644770 0.507988 0.014945
0.771201 0.508810 0.016525
0.896874 0.509334 0.018267
1.000000 0.503947 0.019821
0.027955 0.634490 0.022430
0.150296 0.634340 0.022055
0.274714 0.634949 0.021763
0.399497 0.635167 0.021605
0.524519 0.636060 0.020077
0.639747 0.627350 0.017614
0.766309 0.628808 0.019016
0.891974 0.629831 0.020579
1.000000 0.622905 0.021930
0.032786 0.757562 0.027108
0.153873 0.756243 0.026900
0.276645 0.756019 0.026733
0.400552 0.756392 0.026586
0.524723 0.757018 0.026135
0.649141 0.758224 0.024210
0.761830 0.747761 0.021723
0.887957 0.749444 0.023098
1.000000 0.741262 0.024264
0.037043 0.878491 0.032058
0.157399 0.877295 0.031850
0.279213 0.877046 0.031676
0.402307 0.877469 0.031525
0.525885 0.878086 0.031380
0.649698 0.879133 0.030418
0.773644 0.880459 0.028303
0.883700 0.867933 0.025791
0.996397 0.858481 0.026752
0.041357 0.999450 0.036987
0.161166 0.998297 0.036774
0.281991 0.997201 0.036561
0.403621 0.996034 0.036343
0.525228 0.994530 0.036110
0.646482 0.993113 0.035772
0.767129 0.991783 0.034221
0.887186 0.990531 0.031935
0.992069 0.974771 0.029385
0.005918 0.006011 0.163618
0.139904 0.004649 0.138453
0.268119 0.005981 0.135353
0.395209 0.008370 0.135557
0.522437 0.010771 0.137264
0.649586 0.013177 0.139416
0.776669 0.015587 0.141768
0.903490 0.017995 0.144197
1.000000 0.020324 0.146080
0.005651 0.131798 0.130433
0.131958 0.131420 0.129813
0.261355 0.133149 0.131921
0.389976 0.135092 0.134234
0.517982 0.137124 0.136627
0.645457 0.139204 0.139061
0.772682 0.141357 0.141560
0.899730 0.143562 0.144106
1.000000 0.144950 0.145819
0.011608 0.257940 0.132630
0.134883 0.257122 0.131902
0.260725 0.257563 0.132080
0.389526 0.258961 0.133278
0.517293 0.259883 0.134674
0.644741 0.260996 0.136274
0.771996 0.262267 0.138014
0.899114 0.263652 0.139848
1.000000 0.262988 0.140606
0.016945 0.383423 0.136086
0.139421 0.382780 0.135527
0.264374 0.383779 0.135543
0.388272 0.382490 0.134645
0.516922 0.384470 0.135931
0.644689 0.385679 0.137332
0.772112 0.386835 0.138880
0.899331 0.388057 0.140526
1.000000 0.385477 0.140831
0.022330 0.508834 0.139987
0.144379 0.508323 0.139503
0.267872 0.508792 0.139282
0.394458 0.510792 0.139314
0.515864 0.507442 0.137579
0.644100 0.509491 0.138852
0.770140 0.510004 0.140208
0.895615 0.510402 0.141714
1.000000 0.505189 0.141692
0.027765 0.634258 0.144075
0.149551 0.633834 0.143625
0.271723 0.633278 0.143275
0.396209 0.633812 0.143279
0.521447 0.634992 0.142697
0.639053 0.628767 0.140655
0.765577 0.630286 0.141978
0.891121 0.631174 0.143368
1.000000 0.624241 0.143087
0.032485 0.756968 0.148194
0.153184 0.755519 0.147775
0.274095 0.754509 0.147442
0.397302 0.754903 0.147386
0.521527 0.755762 0.147409
0.646246 0.757356 0.146191
0.761210 0.749236 0.144032
0.887329 0.750992 0.145379
0.999856 0.742730 0.144893
0.036751 0.877965 0.152486
0.156867 0.876696 0.152121
0.277058 0.875713 0.151805
0.399224 0.875952 0.151702
0.522717 0.876840 0.151711
0.646599 0.877978 0.151450
0.770746 0.879583 0.149783
0.882959 0.869275 0.147501
0.995628 0.859856 0.146872
0.041073 0.998976 0.156917
0.160747 0.997847 0.156587
0.280381 0.996784 0.156266
0.401136 0.995477 0.155903
0.522512 0.994003 0.155512
0.643816 0.992610 0.155131
0.764579 0.991299 0.153941
0.884683 0.990067 0.151622
0.991395 0.976143 0.149027
0.009362 0.009528 0.290918
0.140554 0.008761 0.270988
0.265921 0.007820 0.264198
0.393445 0.008213 0.263021
0.520239 0.010610 0.263130
0.646820 0.013008 0.263976
0.773680 0.015416 0.265689
0.900335 0.017823 0.267759
1.000000 0.020195 0.269508
0.008665 0.135007 0.260282
0.134498 0.134036 0.258263
0.259255 0.133045 0.256775
0.387117 0.134058 0.258068
0.514579 0.136164 0.259769
0.642167 0.138426 0.262168
0.769527 0.140705 0.264652
0.896683 0.142997 0.267161
1.000000 0.144783 0.268720
0.010124 0.257607 0.255893
0.133935 0.256791 0.254820
0.258724 0.257634 0.255394
0.386738 0.259575 0.257684
0.514435 0.261606 0.260057
0.641899 0.263705 0.262491
0.769184 0.265857 0.264973
0.896331 0.268051 0.267490
1.000000 0.268681 0.268436
0.016742 0.383115 0.258441
0.139168 0.382503 0.257726
0.261317 0.381972 0.257063
0.387941 0.384208 0.258837
0.516181 0.385764 0.260030
0.643396 0.386629 0.261238
0.770467 0.387711 0.262700
0.897470 0.388969 0.264335
1.000000 0.386874 0.263773
0.022134 0.508575 0.261877
0.144154 0.508083 0.261298
0.266006 0.507642 0.260744
0.391006 0.509324 0.261273
0.515574 0.509193 0.261394
0.643161 0.510755 0.262574
0.768887 0.510998 0.263644
0.894050 0.511252 0.264894
1.000000 0.506421 0.263518
0.027576 0.634031 0.265674
0.149343 0.633620 0.265161
0.270303 0.632177 0.264438
0.392599 0.631918 0.264241
0.518024 0.633549 0.264687
0.638373 0.630195 0.263548
0.764829 0.631722 0.264801
0.890183 0.632403 0.266009
1.000000 0.625539 0.264186
0.032184 0.756388 0.269138
0.152822 0.754978 0.268527
0.273102 0.753674 0.267951
0.394124 0.753108 0.267640
0.518127 0.754322 0.267966
0.643127 0.756246 0.267817
0.760600 0.750719 0.266235
0.886692 0.752526 0.267571
0.999209 0.744170 0.265451
0.036460 0.877449 0.272808
0.156530 0.876210 0.272299
0.276331 0.875052 0.271813
0.396524 0.874352 0.271469
0.519332 0.875248 0.271623
0.643312 0.876644 0.271920
0.767708 0.878554 0.270998
0.882229 0.870628 0.269085
0.994871 0.861246 0.266883
0.040790 0.998510 0.276767
0.160429 0.997404 0.276325
0.279858 0.996363 0.275899
0.399202 0.994922 0.275360
0.519874 0.993483 0.274817
0.641101 0.992115 0.274292
0.761997 0.990823 0.273479
0.882182 0.989609 0.271224
0.990732 0.977523 0.268572
0.012877 0.013115 0.417333
0.142372 0.012489 0.401007
0.267765 0.012159 0.393870
0.391877 0.011029 0.389837
0.519091 0.010469 0.389590
0.645792 0.012872 0.389976
0.772335 0.015275 0.390862
0.898261 0.017670 0.391832
1.000000 0.020067 0.393181
0.012307 0.138293 0.389350
0.137844 0.137453 0.386932
0.262460 0.136830 0.385115
0.386505 0.135747 0.383669
0.513649 0.135855 0.384739
0.640392 0.137973 0.385985
0.766918 0.140152 0.387427
0.893741 0.142448 0.389531
1.000000 0.144618 0.391489
0.012469 0.260948 0.383805
0.136775 0.260196 0.382481
0.260590 0.259574 0.381345
0.384050 0.258757 0.380352
0.510985 0.259841 0.381932
0.638050 0.262095 0.383985
0.765587 0.264573 0.386757
0.892958 0.266992 0.389493
1.000000 0.268511 0.390914
0.014645 0.382828 0.380696
0.137658 0.382241 0.379837
0.260405 0.381730 0.379049
0.385219 0.383545 0.380571
0.512719 0.385646 0.382994
0.640067 0.387792 0.385458
0.767291 0.389976 0.387954
0.894414 0.392193 0.390476
1.000000 0.391541 0.390348
0.021940 0.508323 0.383699
0.143931 0.507849 0.383035
0.265761 0.507424 0.382404
0.387457 0.507039 0.381801
0.515289 0.510948 0.385158
0.641888 0.511642 0.385921
0.766974 0.511491 0.386577
0.891754 0.511667 0.387586
1.000000 0.507695 0.385450
0.027387 0.633808 0.387228
0.148990 0.633073 0.386513
0.269842 0.631625 0.385568
0.390280 0.630297 0.384692
0.514048 0.631567 0.385420
0.637707 0.631633 0.386298
0.764001 0.633037 0.387460
0.889008 0.633392 0.388431
1.000000 0.626808 0.385267
0.031885 0.755822 0.389947
0.152463 0.754449 0.389155
0.272694 0.753178 0.388412
0.392618 0.751997 0.387714
0.514292 0.752230 0.387750
0.639577 0.754678 0.388780
0.760001 0.752210 0.388338
0.886030 0.754010 0.389662
0.998573 0.745566 0.385958
0.036170 0.876944 0.393030
0.156195 0.875733 0.392383
0.275958 0.874600 0.391770
0.395486 0.873538 0.391186
0.515963 0.873294 0.390969
0.639787 0.875092 0.391671
0.764411 0.877247 0.391808
0.881511 0.871989 0.390549
0.994126 0.862641 0.386791
0.040508 0.998052 0.396538
0.160112 0.996969 0.395989
0.279479 0.995835 0.395417
0.398475 0.994362 0.394708
0.517651 0.992967 0.394028
0.638374 0.991627 0.393366
0.759361 0.990355 0.392717
0.879676 0.989158 0.390737
0.990077 0.978910 0.388024
0.016411 0.016720 0.543515
0.144755 0.016185 0.529700
0.270079 0.015865 0.522690
0.394212 0.015631 0.518364
0.517824 0.014250 0.515447
0.644861 0.012738 0.515747
0.771360 0.015142 0.516280
0.897340 0.017539 0.516966
1.000000 0.019939 0.517959
0.015935 0.141642 0.517853
0.141223 0.140903 0.515186
0.265719 0.140339 0.513148
0.389580 0.139842 0.511340
0.512962 0.138522 0.509759
0.639792 0.137771 0.510890
0.766308 0.139963 0.512127
0.892655 0.142194 0.513517
1.000000 0.144456 0.515022
0.016080 0.264311 0.511418
0.140256 0.263618 0.509904
0.263988 0.263039 0.508604
0.387391 0.262546 0.507464
0.510550 0.261536 0.506457
0.637265 0.261741 0.508019
0.763787 0.263908 0.509627
0.890203 0.266118 0.511332
1.000000 0.268344 0.513395
0.016353 0.386264 0.507779
0.139931 0.385708 0.506798
0.263259 0.385220 0.505903
0.386388 0.384789 0.505077
0.509357 0.384113 0.504311
0.635944 0.385303 0.506065
0.762846 0.387707 0.508321
0.890352 0.390389 0.511330
1.000000 0.391139 0.512210
0.019229 0.508087 0.505474
0.141825 0.507628 0.504726
0.264265 0.507214 0.504021
0.386573 0.506839 0.503351
0.511614 0.509352 0.505581
0.637345 0.510528 0.507410
0.762679 0.511817 0.509343
0.887673 0.513202 0.511364
1.000000 0.511704 0.510468
0.027200 0.633590 0.508740
0.148601 0.632492 0.507707
0.269388 0.631087 0.506549
0.389772 0.629795 0.505478
0.509807 0.628603 0.504485
0.637053 0.633083 0.508913
0.762758 0.633899 0.509739
0.887051 0.633762 0.510294
1.000000 0.628074 0.506430
0.031588 0.755269 0.510627
0.152107 0.753932 0.509664
0.272290 0.752692 0.508763
0.392173 0.751539 0.507919
0.511793 0.750463 0.507123
0.635360 0.752457 0.508418
0.759411 0.753708 0.510344
0.885267 0.755354 0.511611
0.997948 0.746904 0.506448
0.035881 0.876449 0.513154
0.155862 0.875265 0.512378
0.275588 0.874157 0.511643
0.395084 0.873117 0.510945
0.514373 0.872138 0.510280
0.635698 0.872753 0.510552
0.760614 0.875415 0.511875
0.880805 0.873359 0.511896
0.993393 0.864018 0.506597
0.040226 0.997602 0.516234
0.159797 0.996540 0.515582
0.279086 0.995252 0.514810
0.398040 0.993808 0.513955
0.516723 0.992443 0.513139
0.635870 0.991145 0.512354
0.756648 0.989895 0.511590
0.877156 0.988714 0.510144
0.989431 0.980304 0.507385
0.019953 0.020333 0.669600
0.147467 0.019861 0.657623
0.272662 0.019553 0.650885
0.396820 0.019320 0.646495
0.520427 0.019129 0.643357
0.643773 0.017481 0.641043
0.770420 0.015009 0.641474
0.896471 0.017410 0.641936
1.000000 0.019811 0.642742
0.019553 0.145038 0.645932
0.144629 0.144379 0.643112
0.269008 0.143860 0.640901
0.392723 0.143362 0.638773
0.516047 0.142949 0.637005
0.639118 0.141426 0.635535
0.765743 0.139782 0.636743
0.892102 0.142024 0.637999
1.000000 0.144295 0.639388
0.019686 0.267701 0.638790
0.143745 0.267060 0.637126
0.267401 0.266519 0.635695
0.390753 0.266054 0.634439
0.513872 0.265648 0.633317
0.636819 0.264416 0.632319
0.763375 0.263721 0.633887
0.889765 0.265935 0.635474
1.000000 0.268177 0.637126
0.019954 0.389706 0.634714
0.143467 0.389180 0.633633
0.266748 0.388718 0.632650
0.389842 0.388307 0.631745
0.512784 0.387938 0.630904
0.635604 0.387024 0.630124
0.762072 0.387303 0.631866
0.887881 0.389290 0.633337
1.000000 0.390745 0.634276
0.020311 0.511575 0.632130
0.143499 0.511133 0.631309
0.266536 0.510734 0.630537
0.389448 0.510372 0.629807
0.511642 0.509532 0.628644
0.632977 0.508064 0.627235
0.757587 0.508443 0.628346
0.882323 0.510129 0.630072
1.000000 0.511323 0.631570
0.023874 0.633386 0.630230
0.145723 0.631956 0.628774
0.267076 0.630581 0.627408
0.388033 0.629317 0.626147
0.508647 0.628149 0.624978
0.632588 0.630706 0.627547
0.757590 0.632100 0.629563
0.882329 0.633569 0.631648
1.000000 0.631423 0.630085
0.031291 0.754728 0.631183
0.151755 0.753425 0.630058
0.271889 0.752216 0.629009
0.391733 0.751090 0.628026
0.511319 0.750038 0.627102
0.630675 0.749053 0.626230
0.758830 0.755213 0.632258
0.884010 0.756170 0.633146
0.997334 0.748194 0.627000
0.035593 0.875963 0.633185
0.155532 0.874806 0.632285
0.275221 0.873721 0.631434
0.394686 0.872702 0.630628
0.513948 0.871743 0.629862
0.632921 0.870692 0.629026
0.756055 0.872835 0.630512
0.880109 0.874739 0.633131
0.992674 0.865354 0.626324
0.039946 0.997159 0.635857
0.159483 0.996119 0.635107
0.278696 0.994679 0.634099
0.397608 0.993262 0.633104
0.516256 0.991923 0.632155
0.634661 0.990655 0.631249
0.753939 0.989442 0.630374
0.874592 0.988276 0.629371
0.988794 0.981705 0.626658
0.023500 0.023951 0.795637
0.150386 0.023526 0.785059
0.275437 0.023231 0.778640
0.399584 0.023001 0.774269
0.523222 0.022809 0.771058
0.646482 0.022640 0.768492
0.769255 0.020707 0.766162
0.895645 0.017377 0.766768
1.000000 0.019685 0.767404
0.023163 0.148470 0.773683
0.148056 0.147875 0.770776
0.272260 0.147356 0.768242
0.395909 0.146893 0.765986
0.519198 0.146504 0.764098
0.642223 0.146170 0.762480
0.765084 0.144415 0.761110
0.891567 0.141858 0.762397
1.000000 0.144137 0.763682
0.023287 0.271114 0.765956
0.147240 0.270518 0.764176
0.270826 0.270010 0.762639
0.394131 0.269570 0.761287
0.517218 0.269185 0.760078
0.640132 0.268843 0.758983
0.762923 0.267372 0.758004
0.889362 0.265762 0.759591
1.000000 0.268013 0.761171
0.023552 0.393161 0.761528
0.147005 0.392664 0.760364
0.270242 0.392224 0.759305
0.393303 0.391831 0.758331
0.516221 0.391478 0.757427
0.639019 0.391158 0.756582
0.761724 0.389994 0.755798
0.886958 0.388872 0.756847
1.000000 0.390355 0.757547
0.023909 0.515062 0.758692
0.147058 0.514639 0.757810
0.270066 0.514256 0.756983
0.392937 0.513885 0.756168
0.514590 0.512641 0.754411
0.635846 0.511496 0.752808
0.756791 0.509875 0.751352
0.881086 0.509441 0.752420
1.000000 0.510945 0.753534
0.024215 0.636450 0.756192
0.146541 0.634994 0.754499
0.268426 0.633659 0.752944
0.389928 0.632429 0.751510
0.511096 0.631291 0.750181
0.631971 0.630235 0.748944
0.752596 0.628969 0.747797
0.876615 0.629520 0.749129
1.000000 0.631063 0.750688
0.027266 0.754241 0.751661
0.148305 0.752961 0.750376
0.269020 0.751773 0.749178
0.389448 0.750666 0.748057
0.509620 0.749631 0.747004
0.629565 0.748661 0.746012
0.753664 0.752120 0.749461
0.878176 0.753667 0.751603
0.996509 0.750740 0.749244
0.035245 0.875487 0.753118
0.155203 0.874354 0.752108
0.274857 0.873293 0.751147
0.394291 0.872295 0.750238
0.513527 0.871355 0.749374
0.632367 0.870169 0.748297
0.750847 0.868897 0.747141
0.879424 0.876126 0.754257
0.991968 0.866600 0.746026
0.039666 0.996724 0.755410
0.159152 0.995587 0.754477
0.278309 0.994115 0.753288
0.397180 0.992725 0.752157
0.515792 0.991411 0.751081
0.634166 0.990166 0.750054
0.752322 0.988984 0.749073
0.871913 0.987846 0.748120
0.988166 0.983113 0.745846
0.027051 0.027571 0.921645
0.153446 0.027183 0.912168
0.278352 0.026900 0.906070
0.402469 0.026674 0.901767
0.526118 0.026483 0.898530
0.649227 0.026306 0.895643
0.771957 0.026143 0.893126
0.894590 0.023935 0.891121
1.000000 0.019936 0.891987
0.026767 0.151930 0.901176
0.151500 0.151388 0.898219
0.275546 0.150866 0.895359
0.399131 0.150433 0.893011
0.522385 0.150065 0.891031
0.645393 0.149747 0.889325
0.768213 0.149467 0.887829
0.890925 0.147463 0.886546
1.000000 0.144077 0.887919
0.026884 0.274547 0.892946
0.150742 0.273990 0.891076
0.274262 0.273512 0.889453
0.397522 0.273095 0.888022
0.520579 0.272728 0.886740
0.643473 0.272401 0.885578
0.766235 0.272107 0.884513
0.888908 0.270383 0.883558
1.000000 0.267851 0.885171
0.027148 0.396629 0.888234
0.150545 0.396157 0.887000
0.273741 0.395737 0.885876
0.396771 0.395362 0.884842
0.519666 0.395023 0.883883
0.642447 0.394715 0.882987
0.764939 0.394337 0.881958
0.885854 0.392210 0.880020
1.000000 0.389974 0.880692
0.027506 0.518557 0.885181
0.150619 0.518152 0.884247
0.273598 0.517785 0.883371
0.395995 0.516970 0.881897
0.517555 0.515766 0.879968
0.638745 0.514660 0.878199
0.759615 0.513638 0.876568
0.880240 0.511841 0.875088
1.000000 0.510573 0.876141
0.027640 0.639426 0.881860
0.149853 0.638023 0.879992
0.271645 0.636734 0.878275
0.393070 0.635544 0.876691
0.514174 0.634441 0.875221
0.634996 0.633416 0.873853
0.755568 0.632459 0.872575
0.875935 0.630999 0.871392
0.999743 0.630704 0.872696
0.027016 0.757329 0.876827
0.148541 0.756072 0.875397
0.269810 0.754912 0.874063
0.390800 0.753829 0.872815
0.511541 0.752816 0.871643
0.632059 0.751867 0.870540
0.752377 0.750974 0.869498
0.872522 0.749850 0.868518
0.995782 0.750267 0.869693
0.030690 0.875060 0.873022
0.151174 0.873944 0.871885
0.271415 0.872898 0.870812
0.391440 0.871913 0.869797
0.511268 0.870986 0.868835
0.630598 0.869668 0.867480
0.749658 0.868413 0.866184
0.873479 0.872239 0.869980
0.991246 0.868447 0.866742
0.039157 0.996298 0.874867
0.158754 0.995005 0.873696
0.277925 0.993561 0.872378
0.396757 0.992197 0.871119
0.515333 0.990907 0.869920
0.633677 0.989684 0.868777
0.751806 0.988522 0.867685
0.869738 0.987418 0.866640
0.987545 0.984527 0.864952
0.030603 0.031193 1.000000
0.156604 0.030834 1.000000
0.281373 0.030563 1.000000
0.405448 0.030342 1.000000
0.529057 0.030151 1.000000
0.652060 0.029968 1.000000
0.774818 0.029805 1.000000
0.897399 0.029656 1.000000
1.000000 0.027170 1.000000
0.030366 0.155414 1.000000
0.154915 0.154872 1.000000
0.278860 0.154387 1.000000
0.402386 0.153981 1.000000
0.525605 0.153632 1.000000
0.648593 0.153328 1.000000
0.771405 0.153059 1.000000
0.894077 0.152818 1.000000
1.000000 0.150555 1.000000
0.030477 0.277997 1.000000
0.154248 0.277475 1.000000
0.277708 0.277023 1.000000
0.400926 0.276628 1.000000
0.523954 0.276277 1.000000
0.646828 0.275963 1.000000
0.769577 0.275680 1.000000
0.892223 0.275423 1.000000
1.000000 0.273440 1.000000
0.030742 0.400108 1.000000
0.154088 0.399659 1.000000
0.277244 0.399258 1.000000
0.400246 0.398898 1.000000
0.523118 0.398573 1.000000
0.645882 0.398276 1.000000
0.767609 0.397545 1.000000
0.888418 0.396588 1.000000
1.000000 0.394283 1.000000
0.031102 0.522061 1.000000
0.154181 0.521672 1.000000
0.277134 0.521318 1.000000
0.399055 0.520070 1.000000
0.520536 0.518907 1.000000
0.641663 0.517836 1.000000
0.762482 0.516846 1.000000
0.883031 0.515926 0.999997
1.000000 0.513935 0.998511
0.031061 0.642425 1.000000
0.153166 0.641072 1.000000
0.274869 0.639826 1.000000
0.396220 0.638673 1.000000
0.517263 0.637604 1.000000
0.638033 0.636608 0.998624
0.758561 0.635677 0.997232
0.878875 0.634805 0.995927
0.999024 0.633138 0.994724
0.030370 0.760377 1.000000
0.151875 0.759167 1.000000
0.273077 0.758040 0.998790
0.394009 0.756988 0.997431
0.514700 0.756002 0.996155
0.635175 0.755077 0.994954
0.755457 0.754205 0.993819
0.875533 0.753357 0.992710
0.994983 0.751631 0.991194
0.030003 0.878230 0.997638
0.150880 0.877119 0.996392
0.271631 0.876085 0.995217
0.392229 0.875119 0.994105
0.512514 0.874003 0.992819
0.632395 0.872698 0.991313
0.752017 0.871465 0.989885
0.871403 0.870298 0.988528
0.990583 0.868915 0.987244
0.034180 0.995916 0.994354
0.154177 0.994484 0.992885
0.273866 0.993058 0.991418
0.393278 0.991711 0.990026
0.512437 0.990436 0.988701
0.631364 0.989227 0.987439
0.750078 0.988079 0.986234
0.868595 0.986987 0.985082
0.985917 0.984933 0.982965
