modules/camera-engine/ios/LUTs/hasselblad-natural.cube
TITLE "Camera18 V0 - Hasselblad Natural inspired"
LUT_3D_SIZE 5
DOMAIN_MIN 0.0 0.0 0.0
DOMAIN_MAX 1.0 1.0 1.0
# Original Camera 18 V0 approximation; input expected normalized display-referred RGB.
# Very restrained natural-color starting point with smooth highlight roll-off and gentle skin lift.
0.002500 0.002500 0.000000
0.272111 0.006187 0.005928
0.525982 0.010957 0.011474
0.779803 0.015761 0.017011
1.000000 0.020455 0.022394
0.011821 0.258302 0.009164
0.261147 0.255916 0.006983
0.518521 0.258782 0.009944
0.773766 0.261163 0.013517
1.000000 0.261354 0.017141
0.022526 0.509101 0.018026
0.270989 0.510168 0.017323
0.516159 0.505696 0.013711
0.771201 0.508810 0.016525
1.000000 0.503947 0.019821
0.032786 0.757562 0.027108
0.276645 0.756019 0.026733
0.524723 0.757018 0.026135
0.761830 0.747761 0.021723
1.000000 0.741262 0.024264
0.041357 0.999450 0.036987
0.281991 0.997201 0.036561
0.525228 0.994530 0.036110
0.767129 0.991783 0.034221
0.992069 0.974771 0.029385
0.009362 0.009528 0.290918
0.265921 0.007820 0.264198
0.520239 0.010610 0.263130
0.773680 0.015416 0.265689
1.000000 0.020195 0.269508
0.010124 0.257607 0.255893
0.258724 0.257634 0.255394
0.514435 0.261606 0.260057
0.769184 0.265857 0.264973
1.000000 0.268681 0.268436
0.022134 0.508575 0.261877
0.266006 0.507642 0.260744
0.515574 0.509193 0.261394
0.768887 0.510998 0.263644
1.000000 0.506421 0.263518
0.032184 0.756388 0.269138
0.273102 0.753674 0.267951
0.518127 0.754322 0.267966
0.760600 0.750719 0.266235
0.999209 0.744170 0.265451
0.040790 0.998510 0.276767
0.279858 0.996363 0.275899
0.519874 0.993483 0.274817
0.761997 0.990823 0.273479
0.990732 0.977523 0.268572
0.016411 0.016720 0.543515
0.270079 0.015865 0.522690
0.517824 0.014250 0.515447
0.771360 0.015142 0.516280
1.000000 0.019939 0.517959
0.016080 0.264311 0.511418
0.263988 0.263039 0.508604
0.510550 0.261536 0.506457
0.763787 0.263908 0.509627
1.000000 0.268344 0.513395
0.019229 0.508087 0.505474
0.264265 0.507214 0.504021
0.511614 0.509352 0.505581
0.762679 0.511817 0.509343
1.000000 0.511704 0.510468
0.031588 0.755269 0.510627
0.272290 0.752692 0.508763
0.511793 0.750463 0.507123
0.759411 0.753708 0.510344
0.997948 0.746904 0.506448
0.040226 0.997602 0.516234
0.279086 0.995252 0.514810
0.516723 0.992443 0.513139
0.756648 0.989895 0.511590
0.989431 0.980304 0.507385
0.023500 0.023951 0.795637
0.275437 0.023231 0.778640
0.523222 0.022809 0.771058
0.769255 0.020707 0.766162
1.000000 0.019685 0.767404
0.023287 0.271114 0.765956
0.270826 0.270010 0.762639
0.517218 0.269185 0.760078
0.762923 0.267372 0.758004
1.000000 0.268013 0.761171
0.023909 0.515062 0.758692
0.270066 0.514256 0.756983
0.514590 0.512641 0.754411
0.756791 0.509875 0.751352
1.000000 0.510945 0.753534
0.027266 0.754241 0.751661
0.269020 0.751773 0.749178
0.509620 0.749631 0.747004
0.753664 0.752120 0.749461
0.996509 0.750740 0.749244
0.039666 0.996724 0.755410
0.278309 0.994115 0.753288
0.515792 0.991411 0.751081
0.752322 0.988984 0.749073
0.988166 0.983113 0.745846
0.030603 0.031193 1.000000
0.281373 0.030563 1.000000
0.529057 0.030151 1.000000
0.774818 0.029805 1.000000
1.000000 0.027170 1.000000
0.030477 0.277997 1.000000
0.277708 0.277023 1.000000
0.523954 0.276277 1.000000
0.769577 0.275680 1.000000
1.000000 0.273440 1.000000
0.031102 0.522061 1.000000
0.277134 0.521318 1.000000
0.520536 0.518907 1.000000
0.762482 0.516846 1.000000
1.000000 0.513935 0.998511
0.030370 0.760377 1.000000
0.273077 0.758040 0.998790
0.514700 0.756002 0.996155
0.755457 0.754205 0.993819
0.994983 0.751631 0.991194
0.034180 0.995916 0.994354
0.273866 0.993058 0.991418
0.512437 0.990436 0.988701
0.750078 0.988079 0.986234
0.985917 0.984933 0.982965
