modules/camera-engine/ios/LUTs/hasselblad-natural.cube
TITLE "Camera18 V0 - Hasselblad Natural inspired"
LUT_3D_SIZE 33
DOMAIN_MIN 0.0 0.0 0.0
DOMAIN_MAX 1.0 1.0 1.0
# Original Camera 18 V0 approximation; input expected normalized display-referred RGB.
# Very restrained natural-color starting point with smooth highlight roll-off and gentle skin lift.
0.002500 0.002500 0.000000
0.048776 0.002389 0.001035
0.081206 0.002773 0.001749
0.113181 0.003294 0.002450
0.145031 0.003853 0.003148
0.176831 0.004427 0.003844
0.208604 0.005010 0.004539
0.240362 0.005597 0.005234
0.272111 0.006187 0.005928
0.303854 0.006780 0.006622
0.335592 0.007374 0.007315
0.367328 0.007969 0.008009
0.399061 0.008566 0.008702
0.430793 0.009163 0.009395
0.462523 0.009760 0.010088
0.494253 0.010359 0.010781
0.525982 0.010957 0.011474
0.557710 0.011557 0.012166
0.589438 0.012156 0.012859
0.621166 0.012756 0.013551
0.652893 0.013357 0.014243
0.684621 0.013957 0.014935
0.716348 0.014559 0.015627
0.748075 0.015160 0.016319
0.779803 0.015761 0.017011
0.811530 0.016363 0.017702
0.843258 0.016966 0.018394
0.874985 0.017568 0.019085
0.906666 0.018170 0.019776
0.938236 0.018770 0.020463
0.969807 0.019370 0.021151
1.000000 0.019970 0.021839
1.000000 0.020455 0.022394
0.002704 0.037931 0.001314
0.037349 0.036627 0.000979
0.071839 0.036336 0.001370
0.105370 0.036186 0.001839
0.138383 0.036195 0.002333
0.171074 0.036312 0.002843
0.203552 0.036503 0.003363
0.235880 0.036745 0.003890
0.268100 0.037025 0.004422
0.300237 0.037333 0.004958
0.332312 0.037663 0.005496
0.364337 0.038011 0.006035
0.396323 0.038372 0.006576
0.428276 0.038744 0.007118
0.460202 0.039125 0.007658
0.492107 0.039514 0.008198
0.523993 0.039908 0.008738
0.555862 0.040308 0.009277
0.587719 0.040713 0.009816
0.619563 0.041121 0.010355
0.651398 0.041533 0.010893
0.683224 0.041948 0.011431
0.715041 0.042365 0.011969
0.746853 0.042785 0.012507
0.778658 0.043208 0.013044
0.810457 0.043632 0.013581
0.842121 0.044051 0.014116
0.873770 0.044472 0.014651
0.905414 0.044894 0.015185
0.937054 0.045318 0.015719
0.968689 0.045744 0.016253
1.000000 0.046171 0.016786
1.000000 0.046309 0.017210
0.003938 0.069423 0.002441
0.037046 0.068983 0.002332
0.069332 0.067970 0.001844
0.102755 0.068099 0.002190
0.135765 0.068147 0.002606
0.168518 0.068233 0.003056
0.201087 0.068370 0.003524
0.233521 0.068552 0.004004
0.265849 0.068771 0.004494
0.298095 0.069020 0.004993
0.330275 0.069295 0.005499
0.362401 0.069591 0.006010
0.394482 0.069904 0.006526
0.426526 0.070233 0.007046
0.458537 0.070574 0.007569
0.490522 0.070926 0.008094
0.522483 0.071287 0.008622
0.554424 0.071657 0.009152
0.586347 0.072033 0.009683
0.618255 0.072416 0.010216
0.650149 0.072805 0.010750
0.682031 0.073199 0.011285
0.713898 0.073596 0.011821
0.745636 0.073986 0.012356
0.777362 0.074380 0.012891
0.809079 0.074778 0.013427
0.840787 0.075179 0.013962
0.872487 0.075583 0.014497
0.904180 0.075990 0.015032
0.935866 0.076399 0.015567
0.967545 0.076810 0.016101
0.999220 0.077224 0.016635
1.000000 0.077115 0.017052
0.005228 0.100903 0.003565
0.037435 0.100581 0.003462
0.070126 0.100607 0.003329
0.101320 0.099316 0.002706
0.134345 0.099625 0.003034
0.167091 0.099808 0.003418
0.199678 0.099971 0.003838
0.232139 0.100148 0.004281
0.264501 0.100348 0.004737
0.296785 0.100572 0.005204
0.329006 0.100818 0.005679
0.361173 0.101083 0.006161
0.393297 0.101366 0.006650
0.425382 0.101665 0.007144
0.457436 0.101977 0.007643
0.489461 0.102301 0.008147
0.521462 0.102636 0.008655
0.553441 0.102980 0.009166
0.585402 0.103333 0.009680
0.617329 0.103691 0.010196
0.649150 0.104040 0.010713
0.680955 0.104397 0.011232
0.712745 0.104761 0.011753
0.744521 0.105130 0.012275
0.776285 0.105505 0.012799
0.808037 0.105884 0.013324
0.839780 0.106268 0.013851
0.871513 0.106656 0.014378
0.903238 0.107047 0.014906
0.934955 0.107443 0.015435
0.966665 0.107841 0.015965
0.998369 0.108242 0.016495
1.000000 0.107859 0.016903
0.006533 0.132381 0.004687
0.038241 0.132106 0.004587
0.070506 0.132168 0.004498
0.102916 0.132378 0.004223
0.133312 0.130666 0.003566
0.166136 0.131074 0.003884
0.198729 0.131354 0.004249
0.231208 0.131583 0.004646
0.263593 0.131801 0.005068
0.295901 0.132026 0.005506
0.328146 0.132264 0.005956
0.360338 0.132517 0.006414
0.392486 0.132783 0.006880
0.424597 0.133063 0.007351
0.456675 0.133356 0.007829
0.488725 0.133660 0.008312
0.520724 0.133968 0.008799
0.552636 0.134271 0.009289
0.584524 0.134583 0.009783
0.616392 0.134906 0.010281
0.648240 0.135236 0.010782
0.680071 0.135575 0.011285
0.711887 0.135920 0.011791
0.743688 0.136272 0.012300
0.775477 0.136629 0.012810
0.807254 0.136993 0.013323
0.839020 0.137361 0.013837
0.870777 0.137734 0.014353
0.902524 0.138111 0.014870
0.934263 0.138492 0.015389
0.965995 0.138877 0.015909
0.997719 0.139266 0.016430
1.000000 0.138579 0.016821
0.007848 0.163859 0.005808
0.039246 0.163612 0.005710
0.071171 0.163679 0.005621
0.103335 0.163852 0.005532
0.135593 0.164190 0.005090
0.165310 0.162019 0.004424
0.198017 0.162490 0.004734
0.230511 0.162841 0.005087
0.262914 0.163127 0.005468
0.295245 0.163385 0.005872
0.327514 0.163638 0.006295
0.359728 0.163893 0.006730
0.391898 0.164156 0.007175
0.423995 0.164416 0.007627
0.456017 0.164671 0.008085
0.488005 0.164938 0.008548
0.519963 0.165216 0.009017
0.551895 0.165505 0.009490
0.583802 0.165802 0.009967
0.615689 0.166109 0.010448
0.647556 0.166425 0.010933
0.679406 0.166748 0.011421
0.711240 0.167078 0.011913
0.743060 0.167415 0.012407
0.774867 0.167759 0.012904
0.806662 0.168108 0.013403
0.838445 0.168463 0.013905
0.870219 0.168822 0.014409
0.901983 0.169187 0.014915
0.933738 0.169555 0.015422
0.965486 0.169928 0.015931
0.997226 0.170305 0.016442
1.000000 0.169288 0.016816
0.009168 0.195338 0.006928
0.040359 0.195112 0.006830
0.072015 0.195163 0.006741
0.103992 0.195361 0.006657
0.136060 0.195618 0.006493
0.168215 0.196019 0.005950
0.197313 0.193375 0.005281
0.229943 0.193890 0.005585
0.262372 0.194295 0.005929
0.294722 0.194629 0.006298
0.326977 0.194905 0.006687
0.359154 0.195153 0.007095
0.391280 0.195399 0.007516
0.423359 0.195648 0.007948
0.455398 0.195903 0.008388
0.487403 0.196166 0.008835
0.519378 0.196438 0.009288
0.551325 0.196717 0.009746
0.583248 0.197006 0.010208
0.615150 0.197302 0.010675
0.647033 0.197606 0.011145
0.678898 0.197917 0.011619
0.710747 0.198236 0.012097
0.742581 0.198561 0.012578
0.774402 0.198892 0.013062
0.806211 0.199230 0.013548
0.838008 0.199573 0.014038
0.869795 0.199921 0.014530
0.901572 0.200274 0.015024
0.933341 0.200631 0.015520
0.965101 0.200993 0.016018
0.996853 0.201360 0.016518
1.000000 0.199986 0.016874
0.010492 0.226819 0.008046
0.041538 0.226609 0.007950
0.072982 0.226640 0.007860
0.104779 0.226839 0.007776
0.136718 0.227083 0.007692
0.168735 0.227434 0.007398
0.200802 0.227851 0.006806
0.229294 0.224709 0.006135
0.261823 0.225220 0.006435
0.294155 0.225632 0.006770
0.326405 0.225974 0.007128
0.358597 0.226275 0.007506
0.390740 0.226553 0.007901
0.422838 0.226822 0.008310
0.454897 0.227088 0.008731
0.486919 0.227356 0.009161
0.518910 0.227628 0.009599
0.550873 0.227906 0.010043
0.582811 0.228190 0.010492
0.614727 0.228480 0.010945
0.646624 0.228777 0.011403
0.678502 0.229081 0.011864
0.710364 0.229390 0.012329
0.742211 0.229706 0.012798
0.774044 0.230028 0.013270
0.805865 0.230356 0.013745
0.837674 0.230689 0.014222
0.869473 0.231028 0.014703
0.901262 0.231371 0.015186
0.933041 0.231719 0.015671
0.964812 0.232071 0.016159
0.996575 0.232428 0.016648
1.000000 0.230675 0.016985
0.011821 0.258302 0.009164
0.042760 0.258107 0.009068
0.074036 0.258116 0.008978
0.105661 0.258286 0.008892
0.137466 0.258506 0.008808
0.169325 0.258746 0.008696
0.201272 0.259137 0.008272
0.233232 0.259534 0.007655
0.261147 0.255916 0.006983
0.293623 0.256457 0.007282
0.325913 0.256904 0.007609
0.358123 0.257284 0.007960
0.390281 0.257619 0.008328
0.422395 0.257926 0.008713
0.454471 0.258217 0.009112
0.486512 0.258501 0.009523
0.518521 0.258782 0.009944
0.550501 0.259065 0.010373
0.582455 0.259350 0.010808
0.614386 0.259640 0.011249
0.646296 0.259934 0.011695
0.678187 0.260233 0.012145
0.710062 0.260538 0.012598
0.741921 0.260848 0.013056
0.773766 0.261163 0.013517
0.805598 0.261484 0.013981
0.837418 0.261809 0.014447
0.869228 0.262140 0.014917
0.901027 0.262475 0.015390
0.932817 0.262814 0.015865
0.964598 0.263159 0.016342
0.996370 0.263507 0.016822
1.000000 0.261354 0.017141
0.013152 0.289748 0.010279
0.043999 0.289523 0.010182
0.075120 0.289474 0.010090
0.106581 0.289604 0.010003
0.138260 0.289829 0.009919
0.170033 0.290079 0.009835
0.201854 0.290387 0.009634
0.233754 0.290820 0.009133
0.265649 0.291224 0.008502
0.293006 0.287126 0.007830
0.325440 0.287691 0.008128
0.357701 0.288168 0.008448
0.389878 0.288580 0.008793
0.422009 0.288944 0.009154
0.454101 0.289277 0.009530
0.486158 0.289591 0.009920
0.518184 0.289893 0.010322
0.550182 0.290188 0.010733
0.582153 0.290482 0.011154
0.614100 0.290776 0.011581
0.646025 0.291072 0.012015
0.677930 0.291372 0.012454
0.709818 0.291675 0.012897
0.741689 0.291982 0.013344
0.773546 0.292293 0.013794
0.805390 0.292609 0.014248
0.837221 0.292929 0.014705
0.869041 0.293254 0.015165
0.900850 0.293582 0.015628
0.932650 0.293916 0.016094
0.964440 0.294253 0.016562
0.996222 0.294595 0.017032
1.000000 0.292023 0.017333
0.014481 0.321078 0.011389
0.045253 0.320870 0.011292
0.076250 0.320808 0.011200
0.107574 0.320921 0.011112
0.139133 0.321142 0.011028
0.170822 0.321405 0.010945
0.202552 0.321671 0.010856
0.234359 0.322059 0.010535
0.266217 0.322512 0.009987
0.298059 0.322920 0.009348
0.324870 0.318340 0.008675
0.357271 0.318924 0.008973
0.389511 0.319424 0.009286
0.421663 0.319865 0.009626
0.453772 0.320256 0.009981
0.485845 0.320613 0.010350
0.517887 0.320948 0.010732
0.549900 0.321268 0.011125
0.581888 0.321578 0.011529
0.613851 0.321884 0.011941
0.645793 0.322187 0.012361
0.677713 0.322491 0.012788
0.709615 0.322796 0.013220
0.741500 0.323103 0.013656
0.773369 0.323414 0.014097
0.805224 0.323728 0.014541
0.837067 0.324045 0.014989
0.868897 0.324366 0.015440
0.900717 0.324691 0.015894
0.932526 0.325019 0.016351
0.964326 0.325351 0.016810
0.996118 0.325687 0.017272
1.000000 0.322682 0.017556
0.015813 0.352410 0.012498
0.046526 0.352216 0.012401
0.077421 0.352143 0.012308
0.108626 0.352240 0.012220
0.140072 0.352450 0.012136
0.171674 0.352718 0.012053
0.203347 0.353000 0.011970
0.235054 0.353308 0.011826
0.266846 0.353747 0.011415
0.298666 0.354210 0.010836
0.330466 0.354621 0.010192
0.356739 0.349558 0.009519
0.389113 0.350158 0.009817
0.421338 0.350678 0.010123
0.453470 0.351143 0.010460
0.485561 0.351558 0.010809
0.517619 0.351938 0.011171
0.549647 0.352292 0.011546
0.581650 0.352629 0.011933
0.613629 0.352954 0.012329
0.645586 0.353272 0.012734
0.677523 0.353586 0.013146
0.709440 0.353897 0.013566
0.741339 0.354209 0.013991
0.773222 0.354522 0.014422
0.805090 0.354837 0.014857
0.836944 0.355153 0.015296
0.868786 0.355473 0.015738
0.900616 0.355796 0.016183
0.932436 0.356121 0.016631
0.964246 0.356450 0.017083
0.996046 0.356782 0.017536
1.000000 0.353329 0.017804
0.017149 0.383744 0.013605
0.047815 0.383564 0.013509
0.078623 0.383481 0.013416
0.109725 0.383561 0.013327
0.141068 0.383757 0.013242
0.172582 0.384023 0.013159
0.204194 0.384315 0.013076
0.235841 0.384605 0.012993
0.267546 0.384977 0.012754
0.299319 0.385447 0.012281
0.331106 0.385914 0.011682
0.362871 0.386326 0.011034
0.388612 0.380779 0.010361
0.420964 0.381392 0.010658
0.453178 0.381930 0.010960
0.485296 0.382415 0.011292
0.517372 0.382852 0.011637
0.549417 0.383252 0.011994
0.581434 0.383625 0.012363
0.613428 0.383979 0.012742
0.645400 0.384319 0.013132
0.677351 0.384649 0.013530
0.709283 0.384974 0.013936
0.741198 0.385294 0.014349
0.773095 0.385613 0.014768
0.804977 0.385932 0.015193
0.836844 0.386251 0.015622
0.868698 0.386572 0.016055
0.900539 0.386895 0.016492
0.932370 0.387219 0.016932
0.964190 0.387547 0.017376
0.996000 0.387877 0.017822
1.000000 0.383966 0.018073
0.018489 0.415080 0.014712
0.049116 0.414913 0.014616
0.079851 0.414822 0.014522
0.110862 0.414885 0.014433
0.142112 0.415067 0.014348
0.173542 0.415325 0.014264
0.205088 0.415622 0.014181
0.236693 0.415926 0.014099
0.268322 0.416237 0.013989
0.300029 0.416668 0.013655
0.331783 0.417155 0.013138
0.363541 0.417623 0.012525
0.395275 0.418035 0.011874
0.420491 0.412003 0.011201
0.452825 0.412628 0.011498
0.485029 0.413181 0.011797
0.517137 0.413684 0.012124
0.549200 0.414141 0.012465
0.581234 0.414560 0.012817
0.613243 0.414951 0.013181
0.645229 0.415320 0.013554
0.677194 0.415675 0.013938
0.709140 0.416018 0.014329
0.741069 0.416353 0.014729
0.772981 0.416682 0.015136
0.804877 0.417009 0.015549
0.836758 0.417334 0.015967
0.868625 0.417659 0.016391
0.900479 0.417984 0.016819
0.932321 0.418310 0.017251
0.964110 0.418619 0.017686
0.995404 0.418735 0.018164
1.000000 0.414324 0.018408
0.019831 0.446419 0.015818
0.050425 0.446262 0.015722
0.081100 0.446165 0.015628
0.112032 0.446213 0.015538
0.143197 0.446380 0.015452
0.174547 0.446628 0.015368
0.206026 0.446923 0.015285
0.237583 0.447236 0.015202
0.269173 0.447546 0.015120
0.300801 0.447904 0.014941
0.332505 0.448372 0.014537
0.364240 0.448868 0.013988
0.395973 0.449336 0.013365
0.427680 0.449748 0.012712
0.452376 0.443230 0.012039
0.484693 0.443866 0.012337
0.516889 0.444433 0.012633
0.548991 0.444951 0.012954
0.581044 0.445426 0.013292
0.613069 0.445862 0.013640
0.645070 0.446270 0.013999
0.677049 0.446655 0.014367
0.709009 0.447023 0.014745
0.740951 0.447378 0.015131
0.772876 0.447724 0.015525
0.804786 0.448063 0.015926
0.836681 0.448398 0.016333
0.868458 0.448676 0.016745
0.899829 0.448775 0.017212
0.931170 0.448879 0.017683
0.962483 0.448988 0.018159
0.993769 0.449103 0.018638
1.000000 0.444241 0.018863
0.021177 0.477759 0.016922
0.051742 0.477611 0.016827
0.082366 0.477510 0.016732
0.113229 0.477545 0.016642
0.144317 0.477696 0.016555
0.175591 0.477932 0.016471
0.207005 0.478222 0.016387
0.238510 0.478539 0.016305
0.270066 0.478861 0.016222
0.301639 0.479178 0.016130
0.333278 0.479594 0.015861
0.364975 0.480086 0.015405
0.396692 0.480587 0.014834
0.428403 0.481054 0.014204
0.460085 0.481465 0.013548
0.484265 0.474461 0.012876
0.516569 0.475106 0.013174
0.548758 0.475685 0.013467
0.580857 0.476216 0.013783
0.612901 0.476708 0.014119
0.644918 0.477160 0.014463
0.676912 0.477583 0.014817
0.708886 0.477983 0.015181
0.740842 0.478364 0.015554
0.772623 0.478638 0.015941
0.804090 0.478750 0.016379
0.835524 0.478860 0.016823
0.866927 0.478969 0.017274
0.898300 0.479079 0.017730
0.929644 0.479193 0.018192
0.960960 0.479309 0.018657
0.992250 0.479430 0.019128
1.000000 0.474114 0.019334
0.022526 0.509101 0.018026
0.053066 0.508962 0.017930
0.083647 0.508858 0.017836
0.114448 0.508880 0.017745
0.145466 0.509017 0.017657
0.176670 0.509240 0.017572
0.208020 0.509522 0.017488
0.239473 0.509839 0.017406
0.270989 0.510168 0.017323
0.302536 0.510493 0.017240
0.334107 0.510842 0.017102
0.365753 0.511300 0.016760
0.397441 0.511807 0.016264
0.429142 0.512309 0.015676
0.460833 0.512775 0.015041
0.492492 0.513185 0.014381
0.516159 0.505696 0.013711
0.548451 0.506349 0.014009
0.580635 0.506939 0.014301
0.612732 0.507482 0.014612
0.644770 0.507988 0.014945
0.676596 0.508327 0.015298
0.708169 0.508504 0.015698
0.739703 0.508664 0.016107
0.771201 0.508810 0.016525
0.802665 0.508948 0.016950
0.834098 0.509080 0.017383
0.865500 0.509208 0.017822
0.896874 0.509334 0.018267
0.928219 0.509460 0.018718
0.959538 0.509587 0.019174
0.990831 0.509716 0.019634
1.000000 0.503947 0.019821
0.023879 0.540445 0.019128
0.054396 0.540314 0.019033
0.084941 0.540208 0.018938
0.115687 0.540219 0.018846
0.146642 0.540341 0.018758
0.177781 0.540551 0.018673
0.209068 0.540824 0.018588
0.240468 0.541137 0.018505
0.271943 0.541470 0.018423
0.303461 0.541805 0.018340
0.334994 0.542132 0.018256
0.366578 0.542531 0.018041
0.398225 0.543018 0.017642
0.429904 0.543534 0.017116
0.461590 0.544036 0.016515
0.493264 0.544501 0.015875
0.524901 0.544909 0.015213
0.548058 0.536933 0.014544
0.580165 0.537447 0.014856
0.611963 0.537767 0.015198
0.643659 0.538050 0.015556
0.675274 0.538305 0.015936
0.706844 0.538531 0.016325
0.738375 0.538732 0.016722
0.769870 0.538915 0.017127
0.801332 0.539083 0.017539
0.832763 0.539241 0.017960
0.864164 0.539392 0.018387
0.895538 0.539537 0.018821
0.926884 0.539680 0.019261
0.958204 0.539821 0.019707
0.989500 0.539961 0.020158
1.000000 0.533742 0.020325
0.025234 0.571792 0.020230
0.055731 0.571667 0.020134
0.086246 0.571560 0.020039
0.116943 0.571561 0.019947
0.147841 0.571670 0.019858
0.178919 0.571867 0.019772
0.210148 0.572129 0.019687
0.241494 0.572437 0.019604
0.272926 0.572769 0.019521
0.304412 0.573111 0.019438
0.335925 0.573448 0.019355
0.367454 0.573793 0.019243
0.399051 0.574237 0.018955
0.430697 0.574744 0.018511
0.462133 0.575023 0.017990
0.493487 0.575240 0.017428
0.524808 0.575425 0.016835
0.556068 0.575562 0.016219
0.578739 0.567163 0.015545
0.610608 0.567555 0.015894
0.642362 0.567896 0.016235
0.674019 0.568200 0.016589
0.705595 0.568477 0.016965
0.737125 0.568726 0.017351
0.768619 0.568950 0.017744
0.800079 0.569154 0.018145
0.831509 0.569343 0.018553
0.862909 0.569520 0.018969
0.894282 0.569689 0.019392
0.925628 0.569851 0.019821
0.956950 0.570009 0.020257
0.988247 0.570164 0.020697
1.000000 0.563501 0.020845
0.026593 0.603140 0.021330
0.057073 0.603021 0.021235
0.087561 0.602915 0.021139
0.118214 0.602907 0.021047
0.149059 0.603003 0.020957
0.180081 0.603187 0.020870
0.211254 0.603438 0.020785
0.242550 0.603738 0.020701
0.273937 0.604068 0.020618
0.305388 0.604412 0.020535
0.336863 0.604734 0.020451
0.368130 0.604777 0.020406
0.399395 0.604868 0.020283
0.430699 0.605055 0.019983
0.462019 0.605291 0.019553
0.493335 0.605537 0.019035
0.524629 0.605766 0.018467
0.555893 0.605963 0.017873
0.587094 0.606111 0.017254
0.609240 0.597255 0.016580
0.641063 0.597664 0.016930
0.672777 0.598024 0.017269
0.704398 0.598348 0.017620
0.735941 0.598644 0.017991
0.767435 0.598914 0.018375
0.798895 0.599159 0.018765
0.830324 0.599383 0.019162
0.861724 0.599591 0.019567
0.893097 0.599787 0.019978
0.924443 0.599973 0.020397
0.955765 0.600151 0.020822
0.987064 0.600324 0.021252
1.000000 0.593221 0.021380
0.027955 0.634490 0.022430
0.058419 0.634377 0.022334
0.088885 0.634272 0.022238
0.119498 0.634255 0.022145
0.150296 0.634340 0.022055
0.181266 0.634510 0.021968
0.212386 0.634750 0.021882
0.243581 0.634932 0.021801
0.274714 0.634949 0.021763
0.305893 0.634992 0.021726
0.337096 0.635047 0.021690
0.368301 0.635106 0.021653
0.399497 0.635167 0.021605
0.430726 0.635317 0.021412
0.461986 0.635542 0.021065
0.493256 0.635800 0.020607
0.524519 0.636060 0.020077
0.555761 0.636299 0.019503
0.586974 0.636507 0.018908
0.618119 0.636663 0.018287
0.639747 0.627350 0.017614
0.671528 0.627774 0.017962
0.703206 0.628152 0.018301
0.734795 0.628493 0.018649
0.766309 0.628808 0.019016
0.797771 0.629098 0.019397
0.829201 0.629362 0.019784
0.860602 0.629605 0.020178
0.891974 0.629831 0.020579
0.923321 0.630044 0.020987
0.954644 0.630246 0.021402
0.985944 0.630440 0.021822
1.000000 0.622905 0.021930
0.029320 0.665843 0.023528
0.059769 0.665734 0.023432
0.090217 0.665632 0.023337
0.120794 0.665607 0.023243
0.151460 0.665451 0.023171
0.182213 0.665300 0.023127
0.213090 0.665222 0.023086
0.244068 0.665202 0.023046
0.275123 0.665224 0.023009
0.306233 0.665275 0.022972
0.337376 0.665343 0.022935
0.368531 0.665417 0.022899
0.399682 0.665490 0.022862
0.430836 0.665593 0.022773
0.462031 0.665790 0.022520
0.493250 0.666044 0.022135
0.524475 0.666320 0.021656
0.555690 0.666590 0.021115
0.586884 0.666839 0.020537
0.618050 0.667056 0.019942
0.649146 0.667220 0.019317
0.670260 0.657448 0.018644
0.702003 0.657887 0.018993
0.733648 0.658280 0.019331
0.765209 0.658638 0.019676
0.796697 0.658969 0.020038
0.828130 0.659277 0.020417
0.859533 0.659559 0.020802
0.890907 0.659820 0.021193
0.922255 0.660063 0.021591
0.953579 0.660292 0.021995
0.984879 0.660510 0.022406
1.000000 0.652550 0.022495
0.030681 0.697108 0.024624
0.061012 0.696692 0.024570
0.091314 0.696287 0.024515
0.121702 0.695953 0.024464
0.152237 0.695716 0.024416
0.182910 0.695565 0.024372
0.213705 0.695487 0.024330
0.244603 0.695468 0.024290
0.275585 0.695493 0.024252
0.306627 0.695550 0.024215
0.337710 0.695627 0.024178
0.368815 0.695715 0.024142
0.399924 0.695804 0.024106
0.431024 0.695890 0.024067
0.462151 0.696046 0.023914
0.493314 0.696281 0.023612
0.524495 0.696558 0.023196
0.555677 0.696848 0.022699
0.586849 0.697129 0.022149
0.618000 0.697386 0.021569
0.649125 0.697611 0.020973
0.680173 0.697781 0.020345
0.700778 0.687549 0.019673
0.732486 0.688001 0.020021
0.764102 0.688409 0.020358
0.795637 0.688782 0.020701
0.827102 0.689128 0.021060
0.858510 0.689452 0.021436
0.889887 0.689751 0.021819
0.921237 0.690029 0.022207
0.952563 0.690288 0.022602
0.983865 0.690533 0.023003
1.000000 0.682158 0.023072
0.031732 0.727334 0.025867
0.062009 0.726934 0.025813
0.092259 0.726544 0.025759
0.122580 0.726215 0.025707
0.153043 0.725980 0.025659
0.183640 0.725829 0.025614
0.214359 0.725750 0.025572
0.245183 0.725731 0.025532
0.276094 0.725758 0.025493
0.307071 0.725819 0.025456
0.338095 0.725903 0.025419
0.369148 0.726001 0.025383
0.400215 0.726103 0.025347
0.431279 0.726205 0.025311
0.462343 0.726320 0.025245
0.493446 0.726523 0.025033
0.524578 0.726788 0.024690
0.555723 0.727083 0.024249
0.586867 0.727385 0.023737
0.617999 0.727673 0.023181
0.649111 0.727937 0.022598
0.680198 0.728170 0.022002
0.711203 0.728347 0.021371
0.731301 0.717653 0.020699
0.762978 0.718118 0.021047
0.794567 0.718539 0.021384
0.826078 0.718927 0.021725
0.857522 0.719286 0.022080
0.888909 0.719625 0.022453
0.920262 0.719940 0.022833
0.951591 0.720234 0.023220
0.982895 0.720508 0.023611
1.000000 0.711729 0.023663
0.032786 0.757562 0.027108
0.063015 0.757177 0.027054
0.093218 0.756801 0.027000
0.123477 0.756477 0.026949
0.153873 0.756243 0.026900
0.184401 0.756091 0.026855
0.215048 0.756011 0.026812
0.245802 0.755991 0.026772
0.276645 0.756019 0.026733
0.307559 0.756083 0.026695
0.338526 0.756172 0.026658
0.369529 0.756278 0.026622
0.400552 0.756392 0.026586
0.431581 0.756507 0.026550
0.462603 0.756618 0.026514
0.493644 0.756777 0.026396
0.524723 0.757018 0.026135
0.555826 0.757307 0.025758
0.586937 0.757618 0.025295
0.618046 0.757929 0.024772
0.649141 0.758224 0.024210
0.680218 0.758495 0.023625
0.711270 0.758735 0.023029
0.742235 0.758916 0.022394
0.761830 0.747761 0.021723
0.793479 0.748236 0.022071
0.825042 0.748671 0.022407
0.856532 0.749071 0.022747
0.887957 0.749444 0.023098
0.919324 0.749797 0.023468
0.950656 0.750127 0.023847
0.981965 0.750435 0.024231
1.000000 0.741262 0.024264
0.033845 0.787791 0.028348
0.064029 0.787421 0.028294
0.094189 0.787058 0.028241
0.124391 0.786738 0.028189
0.154726 0.786506 0.028140
0.185189 0.786354 0.028094
0.215770 0.786272 0.028051
0.246458 0.786250 0.028010
0.277236 0.786277 0.027971
0.308090 0.786343 0.027933
0.339001 0.786436 0.027896
0.369953 0.786548 0.027860
0.400932 0.786671 0.027823
0.431924 0.786797 0.027787
0.462917 0.786923 0.027751
0.493905 0.787052 0.027701
0.524929 0.787257 0.027525
0.555985 0.787528 0.027222
0.587059 0.787837 0.026817
0.618140 0.788160 0.026336
0.649215 0.788479 0.025804
0.680278 0.788781 0.025237
0.711322 0.789057 0.024650
0.742342 0.789303 0.024054
0.773270 0.789489 0.023416
0.792364 0.777872 0.022746
0.823986 0.778358 0.023093
0.855527 0.778804 0.023429
0.886997 0.779216 0.023766
0.918404 0.779602 0.024115
0.949755 0.779966 0.024481
0.981068 0.780311 0.024858
0.999590 0.770759 0.024876
0.034907 0.818023 0.029586
0.065050 0.817666 0.029533
0.095171 0.817315 0.029479
0.125322 0.817000 0.029427
0.155599 0.816769 0.029378
0.186001 0.816616 0.029332
0.216521 0.816532 0.029288
0.247146 0.816508 0.029247
0.277863 0.816534 0.029207
0.308658 0.816600 0.029169
0.339515 0.816695 0.029132
0.370418 0.816812 0.029095
0.401353 0.816942 0.029059
0.432307 0.817079 0.029023
0.463268 0.817216 0.028987
0.494226 0.817349 0.028950
0.525193 0.817513 0.028861
0.556200 0.817756 0.028636
0.587233 0.818052 0.028297
