modules/camera-engine/ios/LUTs/leica-m9.cube
TITLE "Camera18 V0 - Leica M9 body-character inspired"
LUT_3D_SIZE 9
DOMAIN_MIN 0.0 0.0 0.0
DOMAIN_MAX 1.0 1.0 1.0
# Original Camera 18 V0 approximation; input expected normalized display-referred RGB.
# M9 body-color starting point: solid mids, restrained greens/blues, gentle warm/red character.
0.001700 0.000000 0.000850
0.109552 0.000000 0.001842
0.217411 0.000000 0.002832
0.325276 0.000000 0.003822
0.433146 0.000000 0.004810
0.541023 0.000000 0.005797
0.648905 0.000000 0.006782
0.756794 0.000000 0.007767
0.880760 0.000000 0.008913
0.010651 0.104882 0.010426
0.109956 0.103511 0.003781
0.218447 0.103488 0.002050
0.326528 0.101658 0.000696
0.434513 0.099475 0.000000
0.555189 0.099490 0.000000
0.683817 0.099813 0.000000
0.814517 0.099538 0.000000
0.945693 0.098713 0.000000
0.019673 0.210613 0.019988
0.118769 0.213983 0.013572
0.226720 0.215866 0.006948
0.348653 0.222547 0.005044
0.473249 0.225911 0.003496
0.600094 0.227617 0.002012
0.728755 0.228344 0.000554
0.858895 0.228421 0.000000
0.987811 0.227470 0.000000
0.031094 0.341936 0.031925
0.135280 0.347674 0.024377
0.254503 0.354864 0.018750
0.367246 0.350872 0.010762
0.495239 0.356388 0.008489
0.624221 0.359393 0.006695
0.754304 0.360895 0.005026
0.885342 0.361478 0.003417
1.000000 0.360216 0.001836
0.043025 0.478739 0.044313
0.148663 0.482760 0.035153
0.269151 0.488671 0.029868
0.394864 0.494693 0.022785
0.507835 0.485906 0.014511
0.639078 0.490802 0.011975
0.770270 0.493687 0.010201
0.901763 0.495092 0.008699
1.000000 0.493659 0.007240
0.055011 0.615555 0.056665
0.160814 0.618506 0.045772
0.281673 0.623376 0.040982
0.407265 0.628433 0.035367
0.535460 0.633752 0.027279
0.646703 0.620606 0.019107
0.779276 0.624959 0.016697
0.911794 0.627828 0.015005
1.000000 0.626764 0.013327
0.065859 0.752133 0.069589
0.170636 0.754269 0.057115
0.291297 0.758210 0.053097
0.416771 0.762831 0.047492
0.545446 0.767451 0.041142
0.675496 0.772301 0.032409
0.784623 0.755127 0.024201
0.918605 0.759190 0.021624
1.000000 0.759051 0.019761
0.075732 0.888520 0.083015
0.179604 0.890159 0.068628
0.300497 0.893423 0.065121
0.425693 0.897581 0.059739
0.554271 0.901816 0.053900
0.684775 0.906291 0.046433
0.816055 0.910712 0.037522
0.921157 0.888224 0.029240
1.000000 0.880308 0.026184
0.085653 1.000000 0.096441
0.188369 1.000000 0.080084
0.309470 1.000000 0.077033
0.433443 1.000000 0.071828
0.555727 1.000000 0.065307
0.678069 1.000000 0.058717
0.799467 1.000000 0.049956
0.919495 1.000000 0.040949
1.000000 0.981366 0.032912
0.006604 0.004696 0.106296
0.106976 0.002738 0.105698
0.215548 0.000000 0.109175
0.323068 0.000000 0.110079
0.430903 0.000000 0.111036
0.538787 0.000000 0.111962
0.646682 0.000000 0.112864
0.754581 0.000000 0.113751
0.886475 0.000000 0.117818
0.008289 0.103907 0.105513
0.108815 0.105774 0.106187
0.216696 0.105357 0.107173
0.324583 0.104939 0.108158
0.435812 0.105328 0.109983
0.562359 0.108340 0.114604
0.691615 0.110618 0.118532
0.822823 0.112369 0.121962
0.955482 0.113728 0.125020
0.018876 0.210448 0.116665
0.118758 0.214385 0.116622
0.228314 0.220902 0.114827
0.350464 0.226244 0.115823
0.474757 0.228135 0.116284
0.601335 0.228926 0.116523
0.729793 0.229104 0.116634
0.859774 0.228857 0.116644
0.989717 0.227989 0.116416
0.030405 0.343629 0.137168
0.138320 0.348149 0.136481
0.250099 0.354453 0.131668
0.367981 0.355351 0.126733
0.496200 0.360358 0.126035
0.625070 0.362333 0.125336
0.754963 0.362989 0.124578
0.885820 0.362931 0.123768
1.000000 0.361434 0.122607
0.042259 0.479966 0.154422
0.154388 0.483328 0.152864
0.265022 0.487643 0.145835
0.390382 0.494264 0.141541
0.508140 0.490099 0.134616
0.639573 0.494817 0.133134
0.770472 0.496923 0.132167
0.901867 0.497647 0.131266
1.000000 0.495769 0.129881
0.054202 0.616499 0.169723
0.168977 0.619127 0.167713
0.278267 0.622158 0.158948
0.402197 0.627576 0.154918
0.530863 0.633411 0.149198
0.646486 0.624576 0.141842
0.779216 0.628914 0.140231
0.911735 0.631246 0.139003
1.000000 0.629660 0.137253
0.064833 0.752849 0.184715
0.180834 0.754860 0.182720
0.288738 0.757053 0.172208
0.411993 0.761564 0.168342
0.540259 0.766565 0.163503
0.670925 0.772035 0.156258
0.784236 0.758981 0.148617
0.918363 0.763096 0.146666
1.000000 0.762531 0.144660
0.074686 0.889101 0.199557
0.192000 0.890745 0.197390
0.298644 0.892398 0.184965
0.421453 0.896124 0.181448
0.549021 0.900734 0.176466
0.679627 0.905432 0.170761
0.809930 0.908731 0.162401
0.916920 0.888372 0.154034
1.000000 0.880627 0.149844
0.084594 1.000000 0.214049
0.202915 1.000000 0.211761
0.308184 1.000000 0.197377
0.428763 1.000000 0.193356
0.549548 1.000000 0.186629
0.671321 1.000000 0.179656
0.792813 1.000000 0.171329
0.913118 1.000000 0.161838
1.000000 0.981772 0.153661
0.011510 0.010241 0.211742
0.112034 0.009731 0.210881
0.212264 0.006326 0.210543
0.322041 0.000000 0.216641
0.429427 0.000000 0.217494
0.536832 0.000000 0.218351
0.644502 0.000000 0.219294
0.755200 0.000000 0.221095
0.892476 0.000000 0.229496
0.011636 0.110281 0.210964
0.112178 0.109771 0.210099
0.212824 0.108062 0.209741
0.322245 0.103009 0.213546
0.436819 0.103848 0.217594
0.563318 0.106652 0.225325
0.692520 0.108822 0.231796
0.823634 0.110494 0.237310
0.956177 0.111789 0.242105
0.014960 0.208663 0.210160
0.117287 0.215102 0.215429
0.228919 0.225036 0.224081
0.350570 0.229384 0.229921
0.475390 0.232873 0.234957
0.602612 0.235712 0.239383
0.731702 0.238046 0.243335
0.862270 0.239980 0.246912
0.994030 0.241592 0.250187
0.029698 0.345218 0.243485
0.138045 0.349474 0.244150
0.248886 0.353045 0.244276
0.368613 0.359761 0.243688
0.496832 0.363599 0.244413
0.625286 0.364138 0.244557
0.754898 0.363930 0.244638
0.885577 0.363374 0.244702
1.000000 0.362030 0.244367
0.041484 0.481133 0.265146
0.153871 0.484337 0.264395
0.267779 0.487119 0.263375
0.385080 0.492951 0.259007
0.508386 0.494252 0.255288
0.639770 0.498516 0.254922
0.770445 0.499601 0.254579
0.901627 0.499492 0.254174
1.000000 0.497276 0.252952
0.053388 0.617404 0.283181
0.168334 0.619927 0.281705
0.283786 0.622062 0.280321
0.397276 0.625765 0.273769
0.525679 0.632427 0.270734
0.646231 0.628521 0.264942
0.779116 0.632736 0.264123
0.911573 0.634351 0.263327
1.000000 0.632188 0.261504
0.063802 0.753539 0.300119
0.179925 0.755475 0.298503
0.296778 0.757206 0.296789
0.408134 0.759757 0.288233
0.534764 0.765252 0.284894
0.665990 0.771373 0.279987
0.783823 0.762818 0.273289
0.918091 0.766953 0.271997
1.000000 0.765831 0.269795
0.073637 0.889663 0.316305
0.191042 0.891251 0.314422
0.309001 0.892684 0.312471
0.418583 0.894517 0.301980
0.543872 0.899040 0.298625
0.674116 0.904210 0.294404
0.802986 0.905823 0.286541
0.912768 0.888575 0.278029
1.000000 0.881001 0.272796
0.083533 1.000000 0.331816
0.201926 1.000000 0.329748
0.320751 1.000000 0.327630
0.425632 1.000000 0.312960
0.543902 1.000000 0.306892
0.664554 1.000000 0.299619
0.785980 1.000000 0.291887
0.906649 1.000000 0.282198
1.000000 0.982221 0.273795
0.016418 0.015787 0.317187
0.116945 0.015277 0.316325
0.217477 0.014766 0.315462
0.317565 0.009914 0.315386
0.428544 0.000000 0.324104
0.535939 0.000000 0.324956
0.643339 0.000000 0.325807
0.762374 0.000000 0.331716
0.898232 0.000000 0.342799
0.016554 0.115827 0.316407
0.117099 0.115316 0.315542
0.217649 0.114806 0.314675
0.318264 0.111689 0.314689
0.440315 0.104516 0.329657
0.565764 0.106283 0.339101
0.693837 0.107472 0.346849
0.824372 0.108663 0.353799
0.956655 0.109768 0.360032
0.017043 0.219638 0.321130
0.122734 0.225307 0.329291
0.233031 0.229786 0.335704
0.346981 0.232247 0.341494
0.473940 0.231023 0.351659
0.600829 0.233258 0.357066
0.730164 0.235648 0.362428
0.860934 0.237653 0.367248
0.992823 0.239307 0.371586
0.023783 0.343293 0.344794
0.134098 0.348493 0.348701
0.246990 0.353003 0.351881
0.368006 0.362975 0.360423
0.495287 0.365804 0.364828
0.624119 0.368214 0.368840
0.754229 0.370279 0.372528
0.885408 0.372055 0.375947
1.000000 0.373554 0.379227
0.040699 0.482245 0.376448
0.153336 0.485300 0.376440
0.267439 0.487957 0.376088
0.382784 0.490275 0.375444
0.508577 0.498369 0.376488
0.639614 0.501453 0.377162
0.769795 0.501070 0.377187
0.900671 0.500104 0.377260
1.000000 0.497998 0.376698
0.052568 0.618272 0.397017
0.167551 0.620670 0.396104
0.283078 0.622707 0.395205
0.399463 0.624508 0.394136
0.519500 0.630369 0.390573
0.645940 0.632442 0.388389
0.778946 0.636286 0.388359
0.911189 0.636880 0.387918
1.000000 0.634150 0.386078
0.062768 0.754203 0.415790
0.179009 0.756068 0.414533
0.295962 0.757737 0.413151
0.413550 0.759229 0.411660
0.529247 0.762800 0.405293
0.660352 0.769954 0.403116
0.783384 0.766638 0.398206
0.917796 0.770683 0.397581
1.000000 0.768857 0.395173
0.072585 0.890205 0.433251
0.190080 0.891740 0.431639
0.308116 0.893125 0.429941
0.426641 0.894374 0.428166
0.539573 0.896719 0.419664
0.668234 0.902497 0.416940
0.795803 0.902642 0.409855
0.908701 0.888831 0.401257
1.000000 0.881397 0.395055
0.082471 1.000000 0.449736
0.200933 1.000000 0.447880
0.319148 1.000000 0.445023
0.434292 1.000000 0.439128
0.539617 1.000000 0.425413
0.657955 1.000000 0.418644
0.778894 1.000000 0.411262
0.900037 1.000000 0.401976
1.000000 0.982711 0.393334
0.021328 0.021333 0.422632
0.121858 0.020822 0.421770
0.222393 0.020312 0.420906
0.322934 0.019802 0.420042
0.422878 0.013502 0.420226
0.535058 0.000000 0.431565
0.642460 0.000000 0.432416
0.769737 0.000000 0.444744
0.904662 0.000000 0.458105
0.021475 0.121372 0.421850
0.122022 0.120862 0.420984
0.222575 0.120352 0.420117
0.330687 0.122643 0.429050
0.443604 0.120710 0.439331
0.569215 0.106912 0.455622
0.697182 0.107923 0.465169
0.827029 0.108532 0.473175
0.958318 0.108833 0.480001
0.022452 0.229280 0.436019
0.129681 0.234336 0.445741
0.240998 0.238374 0.453530
0.355400 0.241644 0.459860
0.471966 0.241422 0.465756
0.601871 0.233629 0.478487
0.730288 0.234922 0.483978
0.860129 0.235892 0.488833
0.991645 0.237096 0.493663
0.024260 0.355324 0.464534
0.137137 0.359200 0.469371
0.252382 0.362457 0.473393
0.369541 0.365214 0.476754
0.488908 0.366713 0.480673
0.621248 0.365420 0.490438
0.751099 0.367008 0.494470
0.882660 0.369027 0.498849
1.000000 0.370702 0.503045
0.032691 0.478835 0.480241
0.147218 0.482911 0.482957
0.263282 0.486576 0.485241
0.380640 0.489894 0.487161
0.507190 0.500940 0.496691
0.636792 0.502847 0.500642
0.767296 0.504508 0.504369
0.898587 0.505958 0.507901
1.000000 0.507224 0.511263
0.051743 0.619106 0.511215
0.166698 0.621371 0.510859
0.282356 0.623326 0.510388
0.398850 0.625055 0.509715
0.516079 0.626586 0.508862
0.645615 0.636341 0.512164
0.778475 0.639053 0.512815
0.910135 0.638120 0.512489
1.000000 0.635218 0.511086
0.061729 0.754842 0.531716
0.178086 0.756640 0.530799
0.295137 0.758247 0.529733
0.412809 0.759686 0.528536
0.531037 0.760972 0.527220
0.653516 0.767257 0.524239
0.782922 0.770442 0.523358
0.917441 0.774143 0.523407
1.000000 0.771427 0.520814
0.071530 0.890729 0.550389
0.189113 0.892213 0.549034
0.307226 0.893551 0.547579
0.425817 0.894758 0.546032
0.544845 0.895845 0.544401
0.662154 0.899460 0.538238
0.788093 0.898895 0.531957
0.904713 0.889139 0.523745
1.000000 0.881745 0.516632
0.081406 1.000000 0.567806
0.199938 1.000000 0.566152
0.317261 1.000000 0.561549
0.432188 1.000000 0.554891
0.545671 1.000000 0.548485
0.652229 1.000000 0.536084
0.771555 0.999641 0.529111
0.893130 0.997358 0.521027
1.000000 0.983241 0.512300
0.026239 0.026878 0.528077
0.126773 0.026368 0.527214
0.227311 0.025858 0.526350
0.327855 0.025347 0.525484
0.428403 0.024837 0.524618
0.528203 0.017090 0.525064
0.643458 0.000000 0.540600
0.776455 0.000000 0.559668
0.910707 0.000000 0.575004
0.026397 0.126918 0.527293
0.126948 0.126408 0.526426
0.229914 0.127231 0.531128
0.341418 0.130491 0.546047
0.456505 0.132997 0.557885
0.571996 0.128521 0.567021
0.700281 0.108351 0.584731
0.830035 0.108851 0.594098
0.961209 0.109067 0.602108
0.027982 0.238620 0.553553
0.136568 0.243159 0.564417
0.248805 0.246818 0.573254
0.363841 0.249805 0.580537
0.481070 0.252264 0.586603
0.599367 0.249641 0.592424
0.731639 0.235467 0.607552
0.861498 0.236313 0.613252
0.992472 0.236894 0.618320
0.029955 0.364263 0.585598
0.143617 0.367824 0.591262
0.259450 0.370831 0.596035
0.377055 0.373387 0.600079
0.496125 0.375569 0.603521
0.616693 0.374792 0.607688
0.751219 0.367129 0.620279
0.881775 0.367957 0.624172
1.000000 0.368504 0.627972
0.031336 0.491473 0.604067
0.148156 0.494346 0.607308
0.266416 0.496840 0.610079
0.385897 0.499013 0.612452
0.506243 0.500878 0.614564
0.628057 0.501886 0.618047
0.763294 0.500874 0.628440
0.894389 0.501939 0.632078
1.000000 0.503602 0.636278
0.041670 0.614390 0.615646
0.158423 0.617691 0.617806
0.275978 0.620679 0.619781
0.394412 0.623433 0.621513
0.513614 0.625983 0.623031
0.643391 0.638335 0.634365
0.774813 0.639754 0.637870
0.906839 0.641011 0.641224
1.000000 0.642124 0.644445
0.060687 0.755458 0.647888
0.177156 0.757190 0.647293
0.294304 0.758740 0.646527
0.412058 0.760126 0.645609
0.530357 0.761366 0.644555
0.649146 0.762474 0.643377
0.782437 0.774231 0.648735
0.916764 0.776785 0.649327
1.000000 0.773132 0.646753
0.070473 0.891236 0.667711
0.188142 0.892670 0.666603
0.306329 0.893963 0.665379
0.424987 0.895129 0.664050
0.544071 0.896179 0.662624
0.663447 0.896988 0.661012
0.779443 0.894172 0.651630
0.900802 0.889495 0.645521
1.000000 0.881954 0.637591
0.080339 1.000000 0.686019
0.198939 1.000000 0.684559
0.315396 1.000000 0.677535
0.430108 1.000000 0.670143
0.543401 1.000000 0.663041
0.655388 0.999031 0.656205
0.764159 0.994849 0.645390
0.885596 0.993694 0.638919
0.998031 0.983809 0.630709
0.031153 0.032424 0.633521
0.131689 0.031914 0.632658
0.232231 0.031403 0.631793
0.332777 0.030893 0.630927
0.433329 0.030383 0.630060
0.542853 0.030374 0.639760
0.657395 0.021457 0.653616
0.782486 0.000000 0.676039
0.916279 0.000000 0.693289
0.031321 0.132464 0.632735
0.131875 0.131953 0.631868
0.239300 0.135326 0.649640
0.351628 0.138258 0.665384
0.467195 0.140538 0.678066
0.585194 0.142329 0.688449
0.702333 0.135563 0.696646
0.832820 0.109140 0.715973
0.963901 0.109278 0.725038
0.033612 0.247711 0.673271
0.143405 0.251808 0.684967
0.256478 0.255140 0.694599
0.372100 0.257877 0.702629
0.489744 0.260144 0.709388
0.609018 0.262032 0.715124
0.728497 0.257176 0.720807
0.862787 0.236730 0.738292
0.993781 0.237233 0.744069
0.035714 0.373048 0.708001
0.150092 0.376329 0.714335
0.266469 0.379113 0.719726
0.384492 0.381488 0.724342
0.503884 0.383523 0.728312
0.624428 0.385272 0.731740
0.745851 0.382331 0.736060
0.882230 0.368371 0.751417
1.000000 0.368800 0.755762
0.037200 0.500019 0.728565
0.154496 0.502700 0.732316
0.273137 0.505035 0.735558
0.392926 0.507073 0.738366
0.513155 0.508755 0.741048
0.634168 0.510207 0.743440
0.756633 0.509113 0.747194
0.893816 0.501830 0.760503
1.000000 0.502197 0.763856
0.038228 0.627778 0.742058
0.156946 0.629892 0.744641
0.276622 0.631754 0.746926
0.397135 0.633395 0.748948
0.518386 0.634842 0.750741
0.640289 0.636118 0.752330
0.764113 0.637011 0.755556
0.902003 0.636627 0.766591
1.000000 0.637431 0.769830
0.048548 0.749520 0.752045
0.166859 0.752310 0.753815
0.285891 0.754908 0.755384
0.405565 0.757336 0.756775
0.525812 0.759610 0.758007
0.646574 0.761748 0.759096
0.779688 0.775745 0.772063
0.912365 0.776832 0.775258
1.000000 0.776497 0.777038
0.069227 0.891722 0.785090
0.187166 0.893111 0.784339
0.305427 0.894360 0.783336
0.424149 0.895487 0.782215
0.543290 0.896501 0.780987
0.660706 0.894557 0.777180
0.773334 0.887491 0.768939
0.896966 0.889899 0.766612
1.000000 0.881761 0.758077
0.079271 1.000000 0.804372
0.197530 1.000000 0.801448
0.313550 1.000000 0.792996
0.428052 1.000000 0.784898
0.541159 1.000000 0.777125
0.652980 0.996778 0.769652
0.763615 0.990203 0.762456
0.876960 0.988894 0.754389
0.994531 0.984414 0.748580
0.036068 0.037970 0.738965
0.136607 0.037459 0.738101
0.237152 0.036949 0.737235
0.337702 0.036439 0.736369
0.439735 0.036049 0.737982
0.557647 0.036656 0.760307
0.677960 0.037014 0.778037
0.793811 0.026070 0.789344
0.920987 0.000000 0.811870
0.036247 0.138009 0.738177
0.139177 0.139885 0.750102
0.248311 0.143305 0.770399
0.361406 0.145958 0.786663
0.477441 0.148041 0.799934
0.595719 0.149689 0.810923
0.715747 0.150998 0.820132
0.833989 0.142085 0.827578
0.966445 0.110012 0.848670
0.039327 0.256593 0.794818
0.150198 0.260310 0.807109
0.264034 0.263355 0.817341
0.380202 0.265873 0.825954
0.498239 0.267968 0.833269
0.617795 0.269720 0.839531
0.738606 0.271188 0.844923
0.858909 0.264208 0.850455
0.994996 0.237551 0.870318
0.041527 0.381699 0.831575
0.156563 0.384731 0.838451
0.273446 0.387315 0.844353
0.391860 0.389526 0.849447
0.511557 0.391427 0.853864
0.632340 0.393064 0.857710
0.753997 0.394466 0.861090
0.875512 0.389344 0.865739
1.000000 0.369104 0.883929
0.043104 0.508473 0.853869
0.160842 0.510980 0.858054
0.279842 0.513168 0.861701
0.399619 0.515025 0.865023
0.520021 0.516590 0.868087
0.641227 0.517953 0.870812
0.763137 0.519139 0.873241
0.886082 0.515998 0.877211
1.000000 0.502490 0.893382
0.043849 0.636003 0.868899
0.162881 0.637990 0.871828
0.282820 0.639742 0.874435
0.403554 0.641288 0.876761
0.524992 0.642652 0.878838
0.647054 0.643854 0.880694
0.769672 0.644913 0.882354
0.893866 0.643786 0.885859
1.000000 0.637167 0.899886
0.043131 0.763673 0.880243
0.163366 0.765423 0.882236
0.284476 0.766916 0.884016
0.406203 0.768248 0.885607
0.528484 0.769433 0.887030
0.651263 0.770488 0.888301
0.774492 0.771424 0.889435
0.899803 0.772338 0.892602
1.000000 0.770253 0.901545
0.055260 0.884623 0.888561
0.174860 0.887073 0.889976
0.295003 0.889379 0.891240
0.415635 0.891556 0.892368
0.536712 0.893614 0.893373
0.654740 0.890867 0.889573
0.768869 0.884564 0.882232
0.891363 0.888490 0.885176
1.000000 0.881709 0.880470
0.077491 1.000000 0.922409
0.195755 1.000000 0.917008
0.311724 1.000000 0.907947
0.426019 1.000000 0.899170
0.538941 1.000000 0.890752
0.650599 0.994560 0.882664
0.761089 0.988088 0.874881
0.870498 0.981911 0.867381
0.991089 0.985055 0.865931
0.040985 0.043515 0.844409
0.141528 0.043005 0.843544
0.242075 0.042495 0.842678
0.342628 0.041984 0.841811
0.453495 0.042439 0.860504
0.571409 0.043047 0.882807
0.691592 0.043421 0.900777
0.813468 0.043620 0.915512
0.930222 0.030691 0.925054
0.041338 0.144127 0.846978
0.146756 0.148113 0.872610
0.257015 0.151190 0.893009
0.370822 0.153602 0.909572
0.487309 0.155511 0.923241
0.605869 0.157032 0.934671
0.726067 0.158246 0.944334
0.847581 0.159214 0.952579
0.966582 0.148240 0.959432
0.045114 0.265298 0.917907
0.156956 0.268685 0.930616
0.271490 0.271479 0.941295
0.388166 0.273802 0.950359
0.506574 0.275742 0.958119
0.626404 0.277371 0.964809
0.747414 0.278739 0.970611
0.869415 0.279890 0.975667
0.990297 0.270857 0.981065
0.047391 0.390232 0.956181
0.163032 0.393041 0.963493
0.280386 0.395444 0.969814
0.399167 0.397507 0.975309
0.519153 0.399284 0.980106
0.640164 0.400818 0.984310
0.761631 0.402067 0.988187
0.883661 0.403102 0.991714
1.000000 0.395955 0.996435
0.049043 0.516843 0.979900
0.167195 0.519191 0.984454
0.286469 0.521232 0.988479
0.406220 0.522918 0.992262
0.526846 0.524387 0.995637
0.648236 0.525667 0.998656
0.770299 0.526780 1.000000
0.892956 0.527746 1.000000
1.000000 0.522599 1.000000
0.049495 0.644167 0.996276
0.168824 0.646036 0.999508
0.289012 0.647687 1.000000
0.409958 0.649143 1.000000
0.531575 0.650429 1.000000
0.653789 0.651563 1.000000
0.776538 0.652561 1.000000
0.899765 0.653438 1.000000
1.000000 0.650322 1.000000
0.048641 0.771802 1.000000
0.169287 0.773386 1.000000
0.290593 0.774799 1.000000
0.412489 0.776059 1.000000
0.534916 0.777181 1.000000
0.657823 0.778178 1.000000
0.781163 0.779064 1.000000
0.904898 0.779847 1.000000
1.000000 0.773381 1.000000
0.048398 0.899487 1.000000
0.169549 0.901061 1.000000
0.291557 0.902352 1.000000
0.414226 0.903443 1.000000
0.536382 0.902831 1.000000
0.653589 0.895389 1.000000
0.769317 0.888344 1.000000
0.883690 0.881661 0.997728
0.998495 0.875474 0.992725
0.062037 1.000000 1.000000
0.181741 1.000000 1.000000
0.299401 1.000000 1.000000
0.415470 1.000000 1.000000
0.530083 0.996482 0.997570
0.643358 0.990414 0.990464
0.755401 0.984677 0.983703
0.866309 0.979248 0.977259
0.986766 0.984794 0.981840
