modules/camera-engine/ios/LUTs/leica-m9.cube
TITLE "Camera18 V0 - Leica M9 body-character inspired"
LUT_3D_SIZE 5
DOMAIN_MIN 0.0 0.0 0.0
DOMAIN_MAX 1.0 1.0 1.0
# Original Camera 18 V0 approximation; input expected normalized display-referred RGB.
# M9 body-color starting point: solid mids, restrained greens/blues, gentle warm/red character.
0.001700 0.000000 0.000850
0.217411 0.000000 0.002832
0.433146 0.000000 0.004810
0.648905 0.000000 0.006782
0.880760 0.000000 0.008913
0.019673 0.210613 0.019988
0.226720 0.215866 0.006948
0.473249 0.225911 0.003496
0.728755 0.228344 0.000554
0.987811 0.227470 0.000000
0.043025 0.478739 0.044313
0.269151 0.488671 0.029868
0.507835 0.485906 0.014511
0.770270 0.493687 0.010201
1.000000 0.493659 0.007240
0.065859 0.752133 0.069589
0.291297 0.758210 0.053097
0.545446 0.767451 0.041142
0.784623 0.755127 0.024201
1.000000 0.759051 0.019761
0.085653 1.000000 0.096441
0.309470 1.000000 0.077033
0.555727 1.000000 0.065307
0.799467 1.000000 0.049956
1.000000 0.981366 0.032912
0.011510 0.010241 0.211742
0.212264 0.006326 0.210543
0.429427 0.000000 0.217494
0.644502 0.000000 0.219294
0.892476 0.000000 0.229496
0.014960 0.208663 0.210160
0.228919 0.225036 0.224081
0.475390 0.232873 0.234957
0.731702 0.238046 0.243335
0.994030 0.241592 0.250187
0.041484 0.481133 0.265146
0.267779 0.487119 0.263375
0.508386 0.494252 0.255288
0.770445 0.499601 0.254579
1.000000 0.497276 0.252952
0.063802 0.753539 0.300119
0.296778 0.757206 0.296789
0.534764 0.765252 0.284894
0.783823 0.762818 0.273289
1.000000 0.765831 0.269795
0.083533 1.000000 0.331816
0.320751 1.000000 0.327630
0.543902 1.000000 0.306892
0.785980 1.000000 0.291887
1.000000 0.982221 0.273795
0.021328 0.021333 0.422632
0.222393 0.020312 0.420906
0.422878 0.013502 0.420226
0.642460 0.000000 0.432416
0.904662 0.000000 0.458105
0.022452 0.229280 0.436019
0.240998 0.238374 0.453530
0.471966 0.241422 0.465756
0.730288 0.234922 0.483978
0.991645 0.237096 0.493663
0.032691 0.478835 0.480241
0.263282 0.486576 0.485241
0.507190 0.500940 0.496691
0.767296 0.504508 0.504369
1.000000 0.507224 0.511263
0.061729 0.754842 0.531716
0.295137 0.758247 0.529733
0.531037 0.760972 0.527220
0.782922 0.770442 0.523358
1.000000 0.771427 0.520814
0.081406 1.000000 0.567806
0.317261 1.000000 0.561549
0.545671 1.000000 0.548485
0.771555 0.999641 0.529111
1.000000 0.983241 0.512300
0.031153 0.032424 0.633521
0.232231 0.031403 0.631793
0.433329 0.030383 0.630060
0.657395 0.021457 0.653616
0.916279 0.000000 0.693289
0.033612 0.247711 0.673271
0.256478 0.255140 0.694599
0.489744 0.260144 0.709388
0.728497 0.257176 0.720807
0.993781 0.237233 0.744069
0.037200 0.500019 0.728565
0.273137 0.505035 0.735558
0.513155 0.508755 0.741048
0.756633 0.509113 0.747194
1.000000 0.502197 0.763856
0.048548 0.749520 0.752045
0.285891 0.754908 0.755384
0.525812 0.759610 0.758007
0.779688 0.775745 0.772063
1.000000 0.776497 0.777038
0.079271 1.000000 0.804372
0.313550 1.000000 0.792996
0.541159 1.000000 0.777125
0.763615 0.990203 0.762456
0.994531 0.984414 0.748580
0.040985 0.043515 0.844409
0.242075 0.042495 0.842678
0.453495 0.042439 0.860504
0.691592 0.043421 0.900777
0.930222 0.030691 0.925054
0.045114 0.265298 0.917907
0.271490 0.271479 0.941295
0.506574 0.275742 0.958119
0.747414 0.278739 0.970611
0.990297 0.270857 0.981065
0.049043 0.516843 0.979900
0.286469 0.521232 0.988479
0.526846 0.524387 0.995637
0.770299 0.526780 1.000000
1.000000 0.522599 1.000000
0.048641 0.771802 1.000000
0.290593 0.774799 1.000000
0.534916 0.777181 1.000000
0.781163 0.779064 1.000000
1.000000 0.773381 1.000000
0.062037 1.000000 1.000000
0.299401 1.000000 1.000000
0.530083 0.996482 0.997570
0.755401 0.984677 0.983703
0.986766 0.984794 0.981840
