modules/camera-engine/ios/LUTs/leica-m9.cube
TITLE "Camera18 V0 - Leica M9 body-character inspired"
LUT_3D_SIZE 33
DOMAIN_MIN 0.0 0.0 0.0
DOMAIN_MAX 1.0 1.0 1.0
# Original Camera 18 V0 approximation; input expected normalized display-referred RGB.
# M9 body-color starting point: solid mids, restrained greens/blues, gentle warm/red character.
0.001700 0.000000 0.000850
0.028663 0.000000 0.001098
0.055625 0.000000 0.001346
0.082589 0.000000 0.001594
0.109552 0.000000 0.001842
0.136517 0.000000 0.002089
0.163481 0.000000 0.002337
0.190446 0.000000 0.002585
0.217411 0.000000 0.002832
0.244377 0.000000 0.003080
0.271342 0.000000 0.003327
0.298309 0.000000 0.003574
0.325276 0.000000 0.003822
0.352243 0.000000 0.004069
0.379210 0.000000 0.004316
0.406178 0.000000 0.004563
0.433146 0.000000 0.004810
0.460115 0.000000 0.005057
0.487084 0.000000 0.005303
0.514053 0.000000 0.005550
0.541023 0.000000 0.005797
0.567993 0.000000 0.006043
0.594963 0.000000 0.006290
0.621934 0.000000 0.006536
0.648905 0.000000 0.006782
0.675877 0.000000 0.007029
0.702849 0.000000 0.007275
0.729821 0.000000 0.007521
0.756794 0.000000 0.007767
0.783767 0.000000 0.008013
0.810898 0.000000 0.008260
0.845830 0.000000 0.008587
0.880760 0.000000 0.008913
0.003931 0.025583 0.003245
0.028754 0.025240 0.001585
0.055871 0.025235 0.001153
0.082885 0.024777 0.000816
0.109874 0.024231 0.000512
0.136854 0.023665 0.000237
0.163829 0.023096 0.000000
0.190802 0.022531 0.000000
0.217774 0.021968 0.000000
0.244746 0.021410 0.000000
0.271717 0.020855 0.000000
0.298689 0.020302 0.000000
0.325660 0.019752 0.000000
0.352632 0.019203 0.000000
0.379604 0.018654 0.000000
0.406576 0.018104 0.000000
0.433548 0.017555 0.000000
0.460521 0.017005 0.000000
0.487494 0.016456 0.000000
0.514467 0.015906 0.000000
0.541441 0.015356 0.000000
0.568415 0.014806 0.000000
0.595389 0.014256 0.000000
0.622364 0.013706 0.000000
0.649339 0.013156 0.000000
0.676314 0.012606 0.000000
0.703290 0.012056 0.000000
0.730266 0.011506 0.000000
0.757242 0.010956 0.000000
0.789305 0.010473 0.000000
0.823396 0.010004 0.000000
0.857533 0.009521 0.000000
0.891715 0.009024 0.000000
0.006167 0.052016 0.005640
0.030584 0.052229 0.003998
0.055814 0.051331 0.002318
0.082989 0.051554 0.001831
0.110052 0.051319 0.001454
0.137078 0.050902 0.001108
0.164084 0.050404 0.000779
0.191079 0.049868 0.000466
0.218067 0.049312 0.000169
0.245051 0.048748 0.000000
0.272032 0.048180 0.000000
0.299011 0.047611 0.000000
0.325989 0.047043 0.000000
0.352965 0.046476 0.000000
0.379942 0.045911 0.000000
0.406918 0.045348 0.000000
0.433893 0.044787 0.000000
0.460869 0.044227 0.000000
0.487845 0.043670 0.000000
0.514820 0.043114 0.000000
0.541796 0.042559 0.000000
0.568772 0.042006 0.000000
0.595748 0.041454 0.000000
0.622725 0.040904 0.000000
0.649701 0.040354 0.000000
0.679070 0.039946 0.000000
0.712284 0.039738 0.000000
0.745597 0.039500 0.000000
0.779002 0.039235 0.000000
0.812490 0.038946 0.000000
0.846054 0.038634 0.000000
0.879690 0.038301 0.000000
0.913105 0.037936 0.000000
0.008407 0.078449 0.008033
0.032018 0.078556 0.006204
0.058305 0.078999 0.004862
0.082882 0.077421 0.003051
0.110094 0.077751 0.002527
0.137187 0.077687 0.002122
0.164245 0.077404 0.001753
0.191277 0.077005 0.001404
0.218293 0.076538 0.001066
0.245299 0.076031 0.000739
0.272297 0.075499 0.000423
0.299291 0.074951 0.000118
0.326280 0.074393 0.000000
0.353267 0.073830 0.000000
0.380252 0.073263 0.000000
0.407235 0.072695 0.000000
0.434217 0.072126 0.000000
0.461199 0.071557 0.000000
0.488179 0.070989 0.000000
0.515160 0.070422 0.000000
0.542139 0.069856 0.000000
0.569486 0.069336 0.000000
0.601776 0.069383 0.000000
0.634222 0.069385 0.000000
0.666810 0.069347 0.000000
0.699528 0.069272 0.000000
0.732366 0.069164 0.000000
0.765314 0.069024 0.000000
0.798364 0.068856 0.000000
0.831508 0.068662 0.000000
0.864740 0.068443 0.000000
0.898053 0.068201 0.000000
0.930758 0.067888 0.000000
0.010651 0.104882 0.010426
0.033658 0.104913 0.008347
0.059491 0.105309 0.007141
0.086079 0.105803 0.005571
0.109956 0.103511 0.003781
0.137200 0.103896 0.003226
0.164313 0.103959 0.002805
0.191392 0.103791 0.002416
0.218447 0.103488 0.002050
0.245484 0.103099 0.001699
0.272507 0.102654 0.001356
0.299521 0.102169 0.001022
0.326528 0.101658 0.000696
0.353529 0.101128 0.000378
0.380527 0.100585 0.000069
0.407521 0.100033 0.000000
0.434513 0.099475 0.000000
0.461503 0.098912 0.000000
0.491883 0.099029 0.000000
0.523440 0.099289 0.000000
0.555189 0.099490 0.000000
0.587115 0.099639 0.000000
0.619203 0.099740 0.000000
0.651441 0.099797 0.000000
0.683817 0.099813 0.000000
0.716322 0.099793 0.000000
0.748946 0.099739 0.000000
0.781680 0.099653 0.000000
0.814517 0.099538 0.000000
0.847450 0.099396 0.000000
0.880472 0.099229 0.000000
0.913578 0.099038 0.000000
0.945693 0.098713 0.000000
0.012900 0.131315 0.012818
0.035395 0.131297 0.010438
0.060864 0.131629 0.009358
0.087197 0.132063 0.008065
0.113865 0.132601 0.006265
0.137038 0.129602 0.004511
0.164309 0.130014 0.003924
0.191437 0.130174 0.003495
0.218533 0.130103 0.003090
0.245606 0.129887 0.002709
0.272661 0.129573 0.002345
0.299701 0.129191 0.001992
0.326729 0.128759 0.001647
0.353750 0.128292 0.001308
0.382337 0.128327 0.000980
0.413016 0.128922 0.000659
0.443934 0.129427 0.000338
0.475071 0.129851 0.000019
0.506411 0.130204 0.000000
0.537938 0.130492 0.000000
0.569638 0.130723 0.000000
0.601499 0.130901 0.000000
0.633510 0.131032 0.000000
0.665659 0.131119 0.000000
0.697938 0.131166 0.000000
0.730339 0.131176 0.000000
0.762852 0.131153 0.000000
0.795470 0.131098 0.000000
0.828188 0.131014 0.000000
0.860999 0.130903 0.000000
0.893897 0.130767 0.000000
0.926877 0.130608 0.000000
0.958494 0.130229 0.000000
0.015153 0.157747 0.015209
0.037182 0.157698 0.012494
0.062384 0.157962 0.011549
0.088421 0.158388 0.010279
0.114966 0.158849 0.008863
0.141656 0.159391 0.006965
0.164126 0.155692 0.005239
0.191421 0.156120 0.004627
0.218562 0.156353 0.004189
0.245672 0.156363 0.003772
0.272759 0.156223 0.003377
0.302601 0.157420 0.003028
0.332734 0.158443 0.002684
0.363120 0.159313 0.002343
0.393742 0.160054 0.002001
0.424582 0.160686 0.001659
0.455625 0.161223 0.001318
0.486859 0.161676 0.000977
0.518268 0.162055 0.000637
0.549843 0.162368 0.000300
0.581571 0.162622 0.000000
0.613444 0.162823 0.000000
0.645451 0.162975 0.000000
0.677585 0.163084 0.000000
0.709838 0.163152 0.000000
0.742202 0.163183 0.000000
0.774671 0.163180 0.000000
0.807239 0.163146 0.000000
0.839899 0.163083 0.000000
0.872648 0.162992 0.000000
0.905480 0.162876 0.000000
0.938390 0.162736 0.000000
0.969581 0.162273 0.000000
0.017411 0.184180 0.017599
0.038999 0.184111 0.014528
0.064006 0.184311 0.013705
0.089776 0.184708 0.012498
0.116124 0.185143 0.011202
0.142758 0.185652 0.009579
0.169453 0.186177 0.007670
0.191582 0.182125 0.005976
0.221136 0.184393 0.005401
0.250868 0.186351 0.004986
0.280843 0.187961 0.004589
0.311058 0.189296 0.004203
0.341497 0.190418 0.003826
0.372147 0.191367 0.003458
0.402995 0.192173 0.003095
0.434026 0.192859 0.002736
0.465230 0.193441 0.002377
0.496597 0.193933 0.002020
0.528118 0.194346 0.001663
0.559782 0.194689 0.001307
0.591583 0.194971 0.000953
0.623511 0.195196 0.000601
0.655560 0.195372 0.000251
0.687723 0.195501 0.000000
0.719993 0.195589 0.000000
0.752365 0.195639 0.000000
0.784833 0.195654 0.000000
0.817392 0.195637 0.000000
0.850037 0.195590 0.000000
0.882765 0.195515 0.000000
0.915569 0.195415 0.000000
0.948448 0.195291 0.000000
0.979271 0.194719 0.000000
0.019673 0.210613 0.019988
0.040835 0.210531 0.016546
0.065697 0.210676 0.015829
0.091460 0.211536 0.014737
0.118769 0.213983 0.013572
0.146901 0.216339 0.012336
0.175594 0.218723 0.010575
0.204654 0.220948 0.008693
0.226720 0.215866 0.006948
0.256992 0.217943 0.006330
0.287368 0.219763 0.005874
0.317919 0.221284 0.005455
0.348653 0.222547 0.005044
0.379562 0.223608 0.004644
0.410637 0.224505 0.004255
0.441869 0.225265 0.003872
0.473249 0.225911 0.003496
0.504768 0.226457 0.003122
0.536420 0.226917 0.002751
0.568197 0.227300 0.002381
0.600094 0.227617 0.002012
0.632104 0.227875 0.001645
0.664221 0.228078 0.001279
0.696440 0.228233 0.000915
0.728755 0.228344 0.000554
0.761163 0.228416 0.000194
0.793658 0.228450 0.000000
0.826237 0.228451 0.000000
0.858895 0.228421 0.000000
0.891628 0.228362 0.000000
0.924433 0.228277 0.000000
0.957307 0.228166 0.000000
0.987811 0.227470 0.000000
0.022154 0.239352 0.022594
0.043375 0.240787 0.018853
0.069062 0.242767 0.018358
0.095761 0.244950 0.017424
0.123423 0.247199 0.016249
0.151885 0.249398 0.015004
0.180937 0.251564 0.013546
0.210390 0.253745 0.011623
0.240100 0.255757 0.009697
0.261851 0.249613 0.007910
0.292688 0.251539 0.007260
0.323579 0.253245 0.006763
0.354593 0.254699 0.006326
0.385750 0.255910 0.005896
0.417046 0.256927 0.005477
0.448476 0.257787 0.005068
0.480033 0.258515 0.004668
0.511711 0.259132 0.004275
0.543504 0.259653 0.003887
0.575406 0.260090 0.003503
0.607412 0.260453 0.003122
0.639517 0.260751 0.002742
0.671718 0.260991 0.002363
0.704010 0.261178 0.001986
0.736388 0.261318 0.001611
0.768850 0.261415 0.001238
0.801390 0.261474 0.000867
0.834007 0.261496 0.000498
0.866696 0.261486 0.000131
0.899454 0.261445 0.000000
0.932278 0.261377 0.000000
0.965166 0.261283 0.000000
0.995392 0.260449 0.000000
0.025136 0.273544 0.025709
0.046474 0.274785 0.021442
0.072653 0.276539 0.020996
0.099716 0.278505 0.020111
0.127654 0.280574 0.018952
0.156359 0.282642 0.017674
0.185671 0.284637 0.016381
0.215410 0.286682 0.014654
0.245445 0.288691 0.012638
0.275664 0.290533 0.010686
0.296981 0.283364 0.008866
0.328273 0.285170 0.008190
0.359587 0.286777 0.007651
0.390981 0.288179 0.007202
0.422489 0.289351 0.006756
0.454110 0.290337 0.006319
0.485840 0.291170 0.005894
0.517675 0.291876 0.005478
0.549610 0.292473 0.005070
0.581641 0.292977 0.004669
0.613763 0.293398 0.004272
0.645973 0.293748 0.003880
0.678266 0.294033 0.003490
0.710640 0.294260 0.003101
0.743092 0.294437 0.002715
0.775619 0.294567 0.002330
0.808217 0.294654 0.001947
0.840884 0.294703 0.001566
0.873616 0.294717 0.001187
0.906412 0.294699 0.000809
0.939269 0.294651 0.000435
0.972184 0.294575 0.000062
1.000000 0.293596 0.000000
0.028116 0.307739 0.028819
0.049459 0.308823 0.024023
0.076049 0.310388 0.023623
0.103417 0.312168 0.022792
0.131581 0.314074 0.021665
0.160471 0.316015 0.020380
0.189965 0.317919 0.019052
0.219920 0.319784 0.017620
0.250192 0.321720 0.015702
0.280687 0.323582 0.013632
0.311316 0.325285 0.011664
0.332112 0.317117 0.009816
0.363779 0.318824 0.009119
0.395446 0.320349 0.008542
0.427159 0.321707 0.008079
0.458964 0.322849 0.007620
0.490862 0.323812 0.007170
0.522849 0.324626 0.006729
0.554923 0.325317 0.006299
0.587081 0.325901 0.005877
0.619321 0.326393 0.005463
0.651638 0.326805 0.005055
0.684029 0.327146 0.004652
0.716492 0.327423 0.004252
0.749024 0.327644 0.003855
0.781622 0.327813 0.003460
0.814285 0.327937 0.003067
0.847010 0.328018 0.002675
0.879795 0.328062 0.002285
0.912637 0.328071 0.001897
0.945535 0.328047 0.001511
0.978487 0.327994 0.001127
1.000000 0.326864 0.000746
0.031094 0.341936 0.031925
0.052361 0.342892 0.026599
0.079298 0.344297 0.026242
0.106927 0.345915 0.025464
0.135280 0.347674 0.024377
0.164316 0.349496 0.023105
0.193944 0.351312 0.021753
0.224050 0.353071 0.020404
0.254503 0.354864 0.018750
0.285202 0.356693 0.016712
0.316070 0.358432 0.014612
0.347035 0.360019 0.012632
0.367246 0.350872 0.010762
0.399227 0.352497 0.010048
0.431193 0.353952 0.009439
0.463180 0.355269 0.008958
0.495239 0.356388 0.008489
0.527374 0.357334 0.008026
0.559584 0.358137 0.007573
0.591867 0.358817 0.007129
0.624221 0.359393 0.006695
0.656645 0.359879 0.006269
0.689135 0.360286 0.005849
0.721688 0.360622 0.005436
0.754304 0.360895 0.005026
0.786979 0.361112 0.004620
0.819711 0.361279 0.004217
0.852500 0.361399 0.003816
0.885342 0.361478 0.003417
0.918237 0.361519 0.003020
0.951183 0.361525 0.002624
0.984178 0.361499 0.002231
1.000000 0.360216 0.001836
0.034074 0.376135 0.035026
0.055197 0.376984 0.029172
0.082435 0.378253 0.028851
0.110290 0.379729 0.028125
0.138805 0.381356 0.027085
0.167960 0.383065 0.025837
0.197689 0.384794 0.024479
0.227898 0.386493 0.023094
0.258487 0.388148 0.021675
0.289339 0.389887 0.019813
0.320386 0.391618 0.017699
0.351562 0.393249 0.015580
0.382808 0.394740 0.013592
0.402384 0.384629 0.011704
0.434633 0.386184 0.010975
0.466855 0.387581 0.010340
0.499080 0.388858 0.009837
0.531358 0.389959 0.009359
0.563700 0.390894 0.008886
0.596104 0.391688 0.008422
0.628571 0.392363 0.007967
0.661099 0.392935 0.007521
0.693686 0.393418 0.007083
0.726330 0.393822 0.006653
0.759030 0.394157 0.006229
0.791784 0.394429 0.005811
0.824589 0.394646 0.005396
0.857444 0.394812 0.004985
0.890348 0.394932 0.004577
0.923299 0.395011 0.004171
0.956296 0.395051 0.003767
0.989339 0.395057 0.003364
1.000000 0.393622 0.002957
0.037055 0.410335 0.038125
0.057982 0.411093 0.031743
0.085484 0.412245 0.031453
0.113536 0.413597 0.030776
0.142193 0.415105 0.029784
0.171449 0.416709 0.028568
0.201255 0.418353 0.027220
0.231539 0.419989 0.025816
0.262216 0.421581 0.024418
0.293188 0.423184 0.022835
0.324370 0.424860 0.020830
0.355705 0.426502 0.018669
0.387140 0.428042 0.016541
0.418623 0.429449 0.014543
0.437528 0.418387 0.012643
0.470007 0.419881 0.011902
0.502452 0.421229 0.011244
0.534886 0.422468 0.010715
0.567356 0.423555 0.010231
0.599879 0.424481 0.009749
0.632455 0.425271 0.009275
0.665085 0.425943 0.008809
0.697767 0.426514 0.008353
0.730500 0.426996 0.007905
0.763283 0.427401 0.007465
0.796114 0.427737 0.007032
0.828993 0.428011 0.006604
0.861916 0.428230 0.006181
0.894884 0.428398 0.005762
0.927851 0.428512 0.005368
0.960741 0.428563 0.005032
0.993672 0.428576 0.004698
1.000000 0.426972 0.004334
0.040038 0.444537 0.041220
0.060727 0.445215 0.034312
0.088462 0.446268 0.034048
0.116690 0.447510 0.033418
0.145472 0.448909 0.032474
0.174814 0.450415 0.031296
0.204682 0.451977 0.029966
0.235020 0.453550 0.028558
0.265755 0.455099 0.027131
0.296812 0.456603 0.025710
0.328098 0.458180 0.023920
0.359554 0.459794 0.021818
0.391134 0.461355 0.019627
0.422789 0.462815 0.017494
0.454476 0.464150 0.015487
0.472678 0.452147 0.013578
0.505357 0.453588 0.012826
0.537997 0.454893 0.012149
0.570618 0.456095 0.011593
0.603256 0.457171 0.011103
0.635940 0.458091 0.010614
0.668669 0.458878 0.010131
0.701444 0.459550 0.009657
0.734264 0.460122 0.009191
0.767129 0.460606 0.008733
0.800037 0.461014 0.008284
0.832864 0.461330 0.007900
0.865692 0.461577 0.007542
0.898560 0.461770 0.007188
0.931467 0.461912 0.006840
0.964412 0.462009 0.006495
0.997394 0.462064 0.006154
1.000000 0.460317 0.005776
0.043025 0.478739 0.044313
0.063441 0.479348 0.036881
0.091383 0.480315 0.036636
0.119769 0.481459 0.036049
0.148663 0.482760 0.035153
0.178080 0.484175 0.034016
0.208000 0.485658 0.032712
0.238376 0.487169 0.031310
0.269151 0.488671 0.029868
0.300259 0.490137 0.028433
0.331625 0.491595 0.026900
0.363174 0.493141 0.024953
0.394864 0.494693 0.022785
0.426651 0.496182 0.020576
0.458497 0.497572 0.018443
0.490359 0.498843 0.016425
0.507835 0.485906 0.014511
0.540690 0.487302 0.013750
0.573502 0.488569 0.013055
0.606289 0.489737 0.012473
0.639078 0.490802 0.011975
0.671905 0.491718 0.011480
0.704756 0.492502 0.010997
0.737493 0.493143 0.010595
0.770270 0.493687 0.010201
0.803086 0.494145 0.009814
0.835941 0.494526 0.009436
0.868833 0.494840 0.009064
0.901763 0.495092 0.008699
0.934728 0.495290 0.008339
0.967728 0.495438 0.007984
1.000000 0.495540 0.007633
1.000000 0.493659 0.007240
0.046015 0.512942 0.047404
0.066129 0.513491 0.039448
0.094259 0.514383 0.039219
0.122786 0.515439 0.038673
0.151782 0.516650 0.037822
0.181266 0.517981 0.036727
0.211228 0.519389 0.035455
0.241634 0.520837 0.034067
0.272434 0.522292 0.032621
0.303573 0.523725 0.031162
0.334991 0.525117 0.029724
0.366612 0.526562 0.028011
0.398386 0.528070 0.025950
0.430275 0.529563 0.023738
0.462242 0.530988 0.021519
0.494254 0.532316 0.019386
0.526271 0.533531 0.017358
0.542999 0.519667 0.015441
0.576010 0.521022 0.014672
0.608935 0.522248 0.013981
0.641695 0.523353 0.013459
0.674446 0.524372 0.013035
0.707229 0.525254 0.012618
0.740046 0.526009 0.012204
0.772898 0.526654 0.011795
0.805785 0.527202 0.011395
0.838708 0.527665 0.011001
0.871664 0.528052 0.010615
0.904654 0.528372 0.010237
0.937677 0.528631 0.009864
0.970731 0.528835 0.009498
1.000000 0.528989 0.009136
1.000000 0.526985 0.008727
0.049009 0.547146 0.050493
0.068798 0.547641 0.042014
0.097097 0.548467 0.041797
0.125751 0.549444 0.041288
0.154840 0.550575 0.040481
0.184386 0.551826 0.039429
0.214385 0.553164 0.038191
0.244813 0.554551 0.036824
0.275629 0.555957 0.035382
0.306785 0.557355 0.033910
0.338229 0.558723 0.032446
0.369905 0.560070 0.030944
0.401743 0.561504 0.029064
0.433710 0.562971 0.026922
0.465722 0.564399 0.024704
0.497675 0.565732 0.022564
0.529663 0.566973 0.020515
0.561644 0.568106 0.018558
0.577773 0.553352 0.016561
0.610744 0.554638 0.015871
0.643667 0.555809 0.015234
0.676559 0.556888 0.014692
0.709433 0.557892 0.014254
0.742329 0.558773 0.013834
0.775256 0.559530 0.013415
0.808213 0.560179 0.013001
0.841201 0.560732 0.012594
0.874220 0.561201 0.012194
0.907270 0.561595 0.011802
0.940349 0.561922 0.011416
0.973457 0.562188 0.011037
1.000000 0.562400 0.010664
1.000000 0.560283 0.010237
0.052008 0.581350 0.053580
0.071450 0.581797 0.044578
0.099904 0.582567 0.044371
0.128675 0.583472 0.043896
0.157848 0.584528 0.043131
0.187450 0.585707 0.042121
0.217482 0.586976 0.040919
0.247927 0.588305 0.039577
0.278751 0.589663 0.038147
0.309916 0.591023 0.036671
0.341373 0.592366 0.035187
0.372985 0.593655 0.033768
0.404706 0.594957 0.032209
0.436560 0.596338 0.030287
0.468522 0.597731 0.028170
0.500562 0.599084 0.025993
0.532652 0.600365 0.023852
0.564767 0.601557 0.021807
0.596867 0.602646 0.019838
0.612236 0.586979 0.017833
0.645330 0.588232 0.017138
0.678376 0.589377 0.016490
0.711386 0.590433 0.015931
0.744374 0.591422 0.015475
0.777373 0.592302 0.015052
0.810399 0.593062 0.014629
0.843453 0.593715 0.014211
0.876533 0.594275 0.013798
0.909641 0.594751 0.013392
0.942776 0.595152 0.012993
0.975937 0.595487 0.012601
1.000000 0.595761 0.012216
1.000000 0.593546 0.011770
0.055011 0.615555 0.056665
0.074090 0.615959 0.047141
0.102686 0.616678 0.046940
0.131562 0.617518 0.046498
0.160814 0.618506 0.045772
0.190468 0.619617 0.044804
0.220530 0.620823 0.043638
0.250987 0.622095 0.042326
0.281673 0.623376 0.040982
0.312672 0.624666 0.039591
0.343966 0.625947 0.038177
0.375511 0.627204 0.036771
0.407265 0.628433 0.035367
0.439164 0.629737 0.033641
0.471181 0.631094 0.031626
0.503288 0.632446 0.029468
0.535460 0.633752 0.027279
0.567671 0.634987 0.025140
0.599900 0.636135 0.023099
0.632106 0.637184 0.021118
0.646703 0.620606 0.019107
0.679908 0.621831 0.018406
0.713064 0.622953 0.017749
0.746183 0.623988 0.017173
0.779276 0.624959 0.016697
0.812370 0.625840 0.016272
0.845487 0.626603 0.015846
0.878628 0.627262 0.015423
0.911794 0.627828 0.015005
0.944983 0.628311 0.014594
0.978197 0.628721 0.014190
1.000000 0.629063 0.013792
1.000000 0.626764 0.013327
0.058018 0.649760 0.059749
0.076719 0.650126 0.049703
0.105446 0.650800 0.049506
0.134420 0.651581 0.049094
0.163684 0.652494 0.048435
0.193232 0.653511 0.047582
0.223163 0.654626 0.046532
0.253470 0.655811 0.045329
0.284136 0.657041 0.044016
0.315130 0.658293 0.042634
0.346419 0.659545 0.041217
0.377966 0.660782 0.039795
0.409730 0.661989 0.038392
0.441666 0.663203 0.036888
0.473724 0.664501 0.035030
0.505883 0.665831 0.032945
0.538118 0.667144 0.030758
0.570407 0.668406 0.028564
0.602727 0.669598 0.026428
0.635059 0.670707 0.024391
0.667359 0.671719 0.022397
0.681175 0.654235 0.020380
0.714481 0.655434 0.019675
0.747738 0.656534 0.019009
0.780956 0.657552 0.018419
0.814146 0.658505 0.017923
0.847327 0.659385 0.017494
0.880528 0.660151 0.017065
0.913750 0.660816 0.016638
0.946993 0.661389 0.016216
0.980258 0.661880 0.015799
1.000000 0.662298 0.015390
1.000000 0.659930 0.014907
0.060934 0.683946 0.062878
0.079170 0.684262 0.052349
0.107873 0.684867 0.052224
0.136789 0.685565 0.051912
0.166030 0.686402 0.051333
0.195622 0.687361 0.050519
0.225577 0.688419 0.049507
0.255893 0.689553 0.048336
0.286556 0.690737 0.047048
0.317543 0.691950 0.045679
0.348823 0.693173 0.044265
0.380362 0.694387 0.042834
0.412127 0.695580 0.041410
0.444081 0.696742 0.040006
0.476172 0.697963 0.038349
0.508370 0.699250 0.036388
0.540655 0.700551 0.034251
0.573005 0.701826 0.032043
0.605399 0.703048 0.029846
0.637817 0.704201 0.027715
0.670242 0.705274 0.025682
0.702627 0.706253 0.023675
0.715651 0.687865 0.021654
0.749050 0.689040 0.020944
0.782399 0.690121 0.020271
0.815709 0.691122 0.019668
0.848988 0.692059 0.019153
0.882251 0.692936 0.018716
0.915529 0.693706 0.018285
0.948825 0.694376 0.017855
0.982141 0.694956 0.017428
1.000000 0.695456 0.017008
1.000000 0.693037 0.016507
0.063396 0.718039 0.066233
0.081232 0.718325 0.055182
0.110045 0.718895 0.055057
0.139043 0.719543 0.054772
0.168346 0.720328 0.054227
0.197979 0.721233 0.053450
0.227958 0.722238 0.052474
0.258282 0.723321 0.051337
0.288942 0.724461 0.050075
0.319918 0.725636 0.048724
0.351185 0.726827 0.047317
0.382713 0.728018 0.045883
0.414470 0.729194 0.044445
0.446426 0.730345 0.043024
0.478541 0.731488 0.041557
0.510769 0.732713 0.039763
0.543092 0.733983 0.037722
0.575489 0.735255 0.035546
0.607941 0.736494 0.033325
0.640429 0.737679 0.031128
0.672936 0.738796 0.029001
0.705445 0.739837 0.026972
0.737908 0.740785 0.024951
0.750134 0.721495 0.022928
0.783617 0.722649 0.022214
0.817051 0.723712 0.021534
0.850444 0.724698 0.020919
0.883806 0.725622 0.020387
0.917146 0.726492 0.019939
0.950496 0.727267 0.019506
0.983862 0.727943 0.019073
1.000000 0.728530 0.018643
1.000000 0.726080 0.018126
0.065859 0.752133 0.069589
0.083286 0.752391 0.058016
0.112202 0.752931 0.057889
0.141276 0.753534 0.057629
0.170636 0.754269 0.057115
0.200309 0.755123 0.056374
0.230310 0.756078 0.055435
0.260641 0.757114 0.054331
0.291297 0.758210 0.053097
0.322261 0.759347 0.051767
0.353513 0.760507 0.050371
0.385026 0.761673 0.048938
0.416771 0.762831 0.047492
0.448720 0.763970 0.046053
0.480842 0.765081 0.044638
0.513095 0.766229 0.043045
0.545446 0.767451 0.041142
0.577879 0.768702 0.039038
0.610377 0.769945 0.036833
0.642922 0.771150 0.034604
0.675496 0.772301 0.032409
0.708083 0.773384 0.030287
0.740669 0.774395 0.028262
0.773203 0.775315 0.026227
0.784623 0.755127 0.024201
0.818184 0.756260 0.023483
0.851696 0.757307 0.022797
0.885167 0.758279 0.022171
0.918605 0.759190 0.021624
0.952018 0.760053 0.021162
0.985434 0.760832 0.020727
1.000000 0.761514 0.020292
1.000000 0.759051 0.019761
0.068324 0.786228 0.072945
0.085332 0.786462 0.060852
0.114345 0.786974 0.060721
0.143490 0.787535 0.060483
0.172905 0.788224 0.060000
0.202615 0.789031 0.059293
0.232637 0.789939 0.058389
0.262975 0.790929 0.057318
0.293627 0.791983 0.056113
0.324579 0.793083 0.054806
0.355814 0.794210 0.053425
0.387309 0.795350 0.051998
0.419038 0.796489 0.050548
0.450974 0.797615 0.049097
0.483091 0.798718 0.047661
0.515358 0.799804 0.046216
0.547731 0.800964 0.044484
0.580192 0.802178 0.042492
0.612725 0.803408 0.040341
0.645314 0.804622 0.038115
0.677942 0.805796 0.035881
0.710594 0.806914 0.033689
0.743255 0.807967 0.031572
0.775912 0.808951 0.029549
0.808510 0.809844 0.027501
0.819118 0.788759 0.025474
0.852751 0.789874 0.024753
0.886335 0.790906 0.024060
0.919878 0.791865 0.023425
0.953387 0.792765 0.022863
0.986870 0.793618 0.022385
1.000000 0.794401 0.021949
1.000000 0.791948 0.021409
0.070791 0.820325 0.076302
0.087373 0.820535 0.063687
0.116475 0.821021 0.063554
0.145688 0.821545 0.063335
0.175154 0.822192 0.062880
0.204899 0.822954 0.062205
0.234942 0.823817 0.061335
0.265287 0.824764 0.060298
0.295935 0.825777 0.059123
0.326875 0.826840 0.057839
0.358092 0.827936 0.056476
0.389567 0.829049 0.055058
0.421277 0.830167 0.053610
0.453197 0.831278 0.052151
0.485302 0.832372 0.050699
0.517567 0.833441 0.049268
0.549958 0.834527 0.047729
0.582440 0.835690 0.045883
0.614999 0.836893 0.043821
