modules/camera-engine/ios/LUTs/panasonic-bw-old-film.cube
#Generated by Picture Instruments - Look Converter
TITLE "filter6"
LUT_3D_SIZE 5
DOMAIN_MIN 0.000000 0.000000 0.000000
DOMAIN_MAX 0.903226 0.903226 0.903226
0.0627 0.0627 0.0549
0.0902 0.0902 0.0902
0.1333 0.1333 0.1333
0.2118 0.2118 0.2039
0.4157 0.4157 0.4118
0.0902 0.0902 0.0902
0.0980 0.0980 0.0980
0.1451 0.1451 0.1451
0.2392 0.2392 0.2314
0.4706 0.4706 0.4627
0.1569 0.1569 0.1569
0.1608 0.1608 0.1608
0.1922 0.1922 0.1882
0.3255 0.3255 0.3255
0.5686 0.5686 0.5569
0.2863 0.2863 0.2784
0.3137 0.3137 0.3137
0.3804 0.3804 0.3804
0.4588 0.4588 0.4510
0.6863 0.6863 0.6784
0.5255 0.5294 0.5176
0.5843 0.5843 0.5725
0.6471 0.6471 0.6392
0.7176 0.7176 0.7137
0.7725 0.7725 0.7725
0.0902 0.0902 0.0902
0.0980 0.0980 0.0941
0.1490 0.1490 0.1490
0.2588 0.2588 0.2549
0.5216 0.5216 0.5137
0.1020 0.1020 0.0980
0.1373 0.1373 0.1373
0.2196 0.2196 0.2157
0.4000 0.4000 0.3961
0.6510 0.6510 0.6392
0.1647 0.1647 0.1647
0.2471 0.2471 0.2431
0.3137 0.3137 0.3137
0.4824 0.4824 0.4745
0.7412 0.7412 0.7412
0.3255 0.3255 0.3255
0.4745 0.4745 0.4627
0.5216 0.5255 0.5059
0.5843 0.5843 0.5725
0.8118 0.8118 0.8118
0.5882 0.5882 0.5804
0.7490 0.7490 0.7451
0.8000 0.8000 0.7961
0.8275 0.8275 0.8275
0.8510 0.8510 0.8510
0.1490 0.1490 0.1490
0.1569 0.1569 0.1569
0.2118 0.2118 0.2078
0.4000 0.4000 0.4000
0.6588 0.6588 0.6510
0.1608 0.1608 0.1608
0.2314 0.2314 0.2235
0.3412 0.3412 0.3412
0.5137 0.5176 0.5059
0.7765 0.7765 0.7725
0.2078 0.2078 0.2039
0.3373 0.3373 0.3373
0.4824 0.4824 0.4745
0.6314 0.6314 0.6196
0.8667 0.8667 0.8667
0.4078 0.4078 0.4039
0.5333 0.5333 0.5216
0.6588 0.6588 0.6549
0.7294 0.7294 0.7216
0.8902 0.8902 0.8902
0.6588 0.6588 0.6510
0.8000 0.8000 0.8000
0.8863 0.8863 0.8863
0.8941 0.8941 0.8941
0.9098 0.9098 0.9098
0.2353 0.2353 0.2275
0.2784 0.2784 0.2784
0.4078 0.4078 0.4078
0.5373 0.5412 0.5255
0.7647 0.7647 0.7608
0.2627 0.2627 0.2588
0.4078 0.4078 0.4039
0.5137 0.5176 0.5020
0.6275 0.6275 0.6157
0.8353 0.8353 0.8353
0.3569 0.3569 0.3569
0.5020 0.5020 0.4941
0.6235 0.6235 0.6157
0.7490 0.7490 0.7412
0.8941 0.8941 0.8941
0.4902 0.4902 0.4784
0.6078 0.6078 0.5961
0.7451 0.7451 0.7412
0.8784 0.8784 0.8784
0.9490 0.9490 0.9490
0.7373 0.7373 0.7294
0.8353 0.8353 0.8353
0.8980 0.8980 0.8980
0.9529 0.9529 0.9529
0.9608 0.9608 0.9608
0.3725 0.3725 0.3725
0.4784 0.4824 0.4706
0.6392 0.6392 0.6275
0.7608 0.7608 0.7569
0.8039 0.8039 0.8039
0.4431 0.4471 0.4392
0.5961 0.5961 0.5843
0.7647 0.7647 0.7608
0.8392 0.8392 0.8392
0.8588 0.8588 0.8588
0.5569 0.5569 0.5451
0.7294 0.7294 0.7216
0.8588 0.8588 0.8588
0.8941 0.8941 0.8941
0.9098 0.9098 0.9098
0.6941 0.6941 0.6863
0.8196 0.8196 0.8196
0.8941 0.8941 0.8941
0.9490 0.9490 0.9490
0.9608 0.9608 0.9608
0.7882 0.7882 0.7882
0.8549 0.8549 0.8549
0.9098 0.9098 0.9098
0.9608 0.9608 0.9608
0.9843 0.9843 0.9843
