modules/camera-engine/ios/LUTs/panasonic-food-film.cube
TITLE "Generated by Resolve"
LUT_3D_SIZE 5
0.0841993 0.0840009 0.0777905
0.231434 0.103532 0.0713512
0.728817 0.168658 0.126299
0.871092 0.195514 0.145129
0.871092 0.195514 0.145129
0.0817426 0.182803 0.0986801
0.128573 0.148486 0.0851911
0.710643 0.171923 0.123461
0.871092 0.195514 0.145129
0.871092 0.195514 0.145129
0.163836 0.607156 0.242802
0.163409 0.605173 0.242222
0.575418 0.61004 0.181704
0.851453 0.555505 0.215061
0.851652 0.542245 0.212696
0.207401 0.772656 0.265003
0.207401 0.772656 0.265003
0.344457 0.776089 0.217655
0.82295 0.831144 0.25069
0.841886 0.829328 0.251972
0.207401 0.772656 0.265003
0.207401 0.772656 0.265003
0.285725 0.768643 0.226688
0.80528 0.839216 0.251499
0.841703 0.844907 0.255467
0.0937667 0.0935836 0.150088
0.210468 0.10753 0.191989
0.725597 0.168505 0.15021
0.868544 0.195529 0.162341
0.868589 0.195407 0.161547
0.0918593 0.153628 0.140337
0.113497 0.129244 0.127214
0.717739 0.167575 0.144579
0.868788 0.194995 0.158694
0.868833 0.194873 0.157855
0.16257 0.60354 0.248783
0.162158 0.601373 0.248005
0.568612 0.602075 0.18555
0.848554 0.545342 0.217075
0.847913 0.531136 0.213931
0.207401 0.772656 0.265003
0.207401 0.772656 0.265003
0.337758 0.775219 0.218311
0.821302 0.829221 0.250095
0.841856 0.827512 0.251575
0.207401 0.772656 0.265003
0.207401 0.772656 0.265003
0.280674 0.767529 0.230442
0.803311 0.838895 0.251286
0.841703 0.844907 0.255467
0.195178 0.247868 0.682231
0.176211 0.250523 0.687236
0.709621 0.229465 0.615244
0.882948 0.263584 0.613306
0.882887 0.26334 0.612894
0.196078 0.246571 0.680369
0.196139 0.246464 0.680217
0.70045 0.229129 0.614939
0.882689 0.26244 0.611429
0.882643 0.262165 0.610971
0.248753 0.64358 0.666865
0.248753 0.641291 0.668177
0.59266 0.600488 0.600122
0.849363 0.51191 0.536263
0.851347 0.494072 0.536202
0.28777 0.808347 0.565393
0.286107 0.806867 0.564569
0.325612 0.780941 0.508782
0.821836 0.810117 0.467262
0.844388 0.804395 0.460121
0.28127 0.805661 0.552529
0.281132 0.8056 0.552224
0.276234 0.782712 0.510262
0.807431 0.829709 0.445518
0.846448 0.831052 0.440055
0.273732 0.415869 0.848341
0.27361 0.415747 0.848264
0.659907 0.399725 0.806546
0.890944 0.42504 0.819211
0.890929 0.424781 0.819013
0.272404 0.414542 0.847578
0.272343 0.414481 0.847532
0.649821 0.398886 0.805844
0.890959 0.423911 0.81828
0.890974 0.42359 0.818036
0.339101 0.656519 0.885405
0.338598 0.653758 0.885115
0.542535 0.589334 0.82565
0.851881 0.495628 0.789654
0.852522 0.476158 0.786511
0.393408 0.849454 0.876219
0.392447 0.848371 0.876448
0.398596 0.826856 0.869459
0.822553 0.811444 0.821042
0.855741 0.801923 0.81387
0.402899 0.862348 0.870222
0.402823 0.862333 0.87013
0.393484 0.852369 0.861891
0.809522 0.842802 0.816205
0.854902 0.844572 0.812024
0.310536 0.454078 0.870588
0.310536 0.454078 0.870588
0.655665 0.43917 0.833677
0.890394 0.467613 0.846937
0.890394 0.467613 0.846937
0.310536 0.454078 0.870588
0.310536 0.454078 0.870588
0.644022 0.439658 0.833402
0.890394 0.467613 0.846937
0.890394 0.467613 0.846937
0.363043 0.662135 0.905882
0.361669 0.658167 0.905028
0.519326 0.581048 0.847471
0.847837 0.490913 0.816144
0.850065 0.472053 0.812131
0.429404 0.856275 0.914046
0.428962 0.855314 0.914122
0.422141 0.833448 0.902693
0.820264 0.813214 0.861784
0.859525 0.804959 0.861921
0.445258 0.872724 0.912612
0.445258 0.872724 0.912612
0.445258 0.872724 0.912612
0.812741 0.855085 0.866514
0.861234 0.850935 0.863844
