modules/camera-engine/ios/LUTs/panasonic-txd-rag-film-cned2.cube
# Created by Adobe Lightroom plugin Export LUT (1.24.0)
# www.johnrellis.com/lightroom/exportlut.htm
# Photo: 兔小呆 电影动态范围2测试样片 (8).jpg
# Color profile: C:\Program Files (x86)\Common Files\Adobe\Color\Profiles\Recommended\sRGB Color Space Profile.icm
LUT_3D_SIZE 33
DOMAIN_MIN 0.0 0.0 0.0
DOMAIN_MAX 1.0 1.0 1.0
0.057588 0.047486 0.049805
0.063874 0.048249 0.049958
0.071015 0.048432 0.050141
0.081453 0.049195 0.050172
0.093874 0.050538 0.049989
0.108522 0.052277 0.048432
0.125216 0.053956 0.046662
0.144808 0.055146 0.043488
0.168002 0.056001 0.039826
0.192844 0.058503 0.034913
0.221378 0.060761 0.030304
0.255863 0.062409 0.027192
0.297093 0.063539 0.024140
0.342992 0.064881 0.020935
0.391516 0.064698 0.017823
0.445045 0.062196 0.015167
0.497505 0.056977 0.011566
0.551934 0.045777 0.007080
0.607721 0.026795 0.003571
0.664271 0.022644 0.002197
0.720119 0.027283 0.001892
0.771908 0.032044 0.002014
0.817411 0.039124 0.002747
0.857145 0.047395 0.003143
0.891600 0.054047 0.003784
0.922789 0.059754 0.003510
0.948760 0.120272 0.000000
0.969604 0.155520 0.000000
0.988190 0.186191 0.000000
1.000000 0.215335 0.000000
1.000000 0.245060 0.000000
1.000000 0.275029 0.000000
1.000000 0.305486 0.000000
0.057649 0.052094 0.050721
0.061494 0.052399 0.050599
0.069886 0.053529 0.050629
0.079896 0.055390 0.050477
0.092439 0.057038 0.049897
0.107759 0.058259 0.048371
0.124605 0.059876 0.046204
0.144259 0.060945 0.042969
0.167208 0.062135 0.039246
0.192691 0.064607 0.034730
0.221164 0.067048 0.030060
0.255894 0.069184 0.026795
0.297642 0.070558 0.024079
0.343969 0.072969 0.020996
0.392950 0.072694 0.017823
0.446326 0.070985 0.014588
0.498787 0.068391 0.010529
0.552941 0.061891 0.005951
0.609400 0.046998 0.002106
0.666621 0.023499 0.001740
0.722255 0.027161 0.002014
0.773739 0.032715 0.002075
0.818875 0.039033 0.003052
0.858610 0.047852 0.003296
0.892821 0.054536 0.003571
0.923247 0.083894 0.001953
0.948455 0.139986 0.000000
0.969299 0.169162 0.000000
0.987762 0.196902 0.000000
1.000000 0.225010 0.000000
1.000000 0.253574 0.000000
1.000000 0.282963 0.000000
1.000000 0.312444 0.000000
0.057923 0.056794 0.052308
0.061799 0.056672 0.053010
0.067506 0.057435 0.052003
0.078523 0.059876 0.051026
0.091676 0.062318 0.050263
0.106416 0.064240 0.048676
0.123476 0.065675 0.046082
0.143221 0.067048 0.042817
0.166598 0.068757 0.038972
0.192477 0.071229 0.034791
0.221042 0.074037 0.029999
0.256016 0.076112 0.027131
0.298161 0.078614 0.023651
0.345068 0.081086 0.020874
0.393957 0.082429 0.017334
0.447211 0.081941 0.013855
0.500511 0.078798 0.009735
0.554864 0.074495 0.004791
0.610925 0.069184 0.000061
0.668513 0.050904 0.000458
0.724666 0.027405 0.001984
0.775967 0.032837 0.002075
0.820829 0.039429 0.003021
0.860136 0.048157 0.003449
0.893767 0.071717 0.002625
0.922637 0.125765 0.000000
0.948150 0.157961 0.000000
0.968841 0.183352 0.000000
0.987060 0.209171 0.000000
1.000000 0.236179 0.000000
1.000000 0.263371 0.000000
1.000000 0.292149 0.000000
1.000000 0.320348 0.000000
0.057465 0.063966 0.054261
0.061677 0.063478 0.054627
0.066194 0.063325 0.054170
0.075288 0.064210 0.053437
0.088991 0.066560 0.051575
0.103944 0.070588 0.049287
0.121889 0.073060 0.046479
0.142000 0.075380 0.042969
0.165499 0.077180 0.039063
0.191714 0.080262 0.034730
0.220371 0.083650 0.029755
0.255833 0.086458 0.026642
0.298009 0.089509 0.023438
0.345800 0.093233 0.020142
0.394568 0.095583 0.016724
0.448280 0.095552 0.013062
0.501396 0.094545 0.008453
0.556329 0.092012 0.003082
0.613428 0.088899 0.000000
0.670619 0.084077 0.000000
0.726955 0.072358 0.000000
0.778622 0.054627 0.000977
0.822812 0.070314 0.001526
0.860868 0.097993 0.000000
0.893553 0.127504 0.000000
0.922454 0.153628 0.000000
0.947631 0.179843 0.000000
0.968017 0.202792 0.000000
0.985901 0.226780 0.000000
1.000000 0.252384 0.000000
1.000000 0.279210 0.000000
1.000000 0.306004 0.000000
1.000000 0.333318 0.000000
0.056458 0.071229 0.056458
0.061341 0.070741 0.056794
0.065309 0.070649 0.056367
0.071626 0.070558 0.055879
0.083162 0.071901 0.054261
0.099947 0.075196 0.051667
0.119326 0.080476 0.047181
0.140200 0.084474 0.043305
0.163882 0.087953 0.038972
0.190860 0.091585 0.034363
0.219883 0.095460 0.029603
0.255650 0.099519 0.026062
0.298741 0.103609 0.022797
0.346838 0.107790 0.019654
0.395972 0.111116 0.015808
0.449592 0.112428 0.011627
0.503105 0.113069 0.006439
0.558404 0.112520 0.001373
0.615412 0.111452 0.000000
0.672908 0.110658 0.000000
0.729305 0.108888 0.000000
0.780270 0.110903 0.000000
0.823880 0.123079 0.000000
0.861295 0.140505 0.000000
0.893645 0.160281 0.000000
0.922087 0.181888 0.000000
0.946777 0.204776 0.000000
0.966705 0.225803 0.000000
0.984649 0.248631 0.000000
1.000000 0.273625 0.000000
1.000000 0.298833 0.000000
1.000000 0.323796 0.000000
1.000000 0.349645 0.000000
0.055909 0.080018 0.059297
0.060212 0.079622 0.059632
0.063539 0.079591 0.059571
0.069184 0.079347 0.058778
0.078431 0.079469 0.057435
0.092500 0.081697 0.055573
0.113588 0.086305 0.050996
0.137118 0.093019 0.044495
0.162783 0.099397 0.037964
0.189944 0.104128 0.034272
0.220432 0.109834 0.029664
0.256748 0.114870 0.025605
0.300206 0.119997 0.022217
0.348486 0.125154 0.018494
0.398230 0.129641 0.014405
0.451087 0.132387 0.009735
0.504631 0.134524 0.003937
0.559808 0.135866 0.000000
0.617700 0.137362 0.000000
0.675593 0.139223 0.000000
0.731472 0.141451 0.000000
0.781888 0.146822 0.000000
0.823941 0.160616 0.000000
0.861326 0.175540 0.000000
0.893400 0.192782 0.000000
0.921355 0.211612 0.000000
0.945403 0.232944 0.000000
0.965393 0.252567 0.000000
0.983612 0.274540 0.000000
1.000000 0.298650 0.000000
1.000000 0.322179 0.000000
1.000000 0.345617 0.000000
1.000000 0.370153 0.000000
0.053101 0.091035 0.062470
0.057313 0.090974 0.062745
0.062196 0.090578 0.062715
0.067262 0.090394 0.062318
0.074922 0.090455 0.061158
0.086824 0.091249 0.059358
0.105135 0.094484 0.055604
0.130434 0.100191 0.049683
0.159030 0.109102 0.040803
0.188785 0.117678 0.033936
0.221195 0.125521 0.029175
0.258640 0.132662 0.024964
0.302617 0.139437 0.021088
0.350866 0.145693 0.017090
0.400641 0.151095 0.012268
0.453620 0.155184 0.006714
0.506645 0.158968 0.000702
0.561456 0.163027 0.000000
0.619562 0.166629 0.000000
0.677455 0.170993 0.000000
0.732387 0.175235 0.000000
0.781765 0.183169 0.000000
0.824125 0.195834 0.000000
0.860533 0.209903 0.000000
0.892576 0.225559 0.000000
0.920531 0.243961 0.000000
0.944152 0.264073 0.000000
0.964141 0.283726 0.000000
0.982483 0.304662 0.000000
0.999268 0.327337 0.000000
1.000000 0.348394 0.000000
1.000000 0.370703 0.000000
1.000000 0.393378 0.000000
0.047395 0.104616 0.065522
0.052552 0.104494 0.065797
0.056886 0.104433 0.065736
0.063355 0.104189 0.065675
0.071504 0.104005 0.064881
0.081758 0.104463 0.063233
0.097658 0.105989 0.060182
0.120241 0.110689 0.055116
0.151095 0.118227 0.047120
0.185031 0.129366 0.036774
0.220768 0.141238 0.029053
0.260472 0.151858 0.023804
0.304936 0.160464 0.019623
0.353887 0.168368 0.014801
0.403204 0.175662 0.008209
0.456214 0.182040 0.002167
0.509026 0.187900 0.000000
0.563195 0.193210 0.000000
0.620569 0.199161 0.000000
0.677760 0.205600 0.000000
0.732662 0.211002 0.000000
0.781003 0.220005 0.000000
0.822782 0.232059 0.000000
0.858885 0.245792 0.000000
0.890837 0.261753 0.000000
0.918761 0.279881 0.000000
0.942992 0.299290 0.000000
0.963134 0.317754 0.000000
0.981506 0.337438 0.000000
0.998383 0.358495 0.000000
1.000000 0.378241 0.000000
1.000000 0.398993 0.000000
1.000000 0.420508 0.000000
0.035584 0.120729 0.068360
0.041382 0.120607 0.068940
0.046815 0.120729 0.068849
0.054566 0.120668 0.068727
0.064027 0.120485 0.068269
0.074556 0.120912 0.067018
0.090028 0.121981 0.064454
0.110597 0.125154 0.060426
0.138918 0.131777 0.053956
0.176028 0.141604 0.044923
0.216678 0.155856 0.032685
0.260105 0.170443 0.023529
0.307836 0.183627 0.017151
0.357458 0.194125 0.010681
0.406561 0.203769 0.003540
0.458717 0.212833 0.000000
0.511162 0.221042 0.000000
0.564813 0.228122 0.000000
0.621271 0.235264 0.000000
0.677974 0.241581 0.000000
0.731594 0.248173 0.000000
0.778622 0.257450 0.000000
0.819883 0.270268 0.000000
0.856107 0.284520 0.000000
0.888304 0.300755 0.000000
0.916503 0.318730 0.000000
0.941192 0.336614 0.000000
0.961761 0.353918 0.000000
0.980560 0.372595 0.000000
0.997589 0.392248 0.000000
1.000000 0.411109 0.000000
1.000000 0.430671 0.000000
1.000000 0.450568 0.000000
0.017243 0.140536 0.071901
0.022919 0.140627 0.072114
0.029114 0.140871 0.072267
0.038148 0.140841 0.072450
0.049866 0.140993 0.071962
0.063050 0.141451 0.071015
0.078614 0.142458 0.069551
0.098939 0.144900 0.065827
0.125765 0.149783 0.060945
0.161410 0.158999 0.053498
0.206149 0.172030 0.042298
0.255161 0.188510 0.027527
0.307378 0.205783 0.015930
0.359960 0.221164 0.005707
0.409552 0.235477 0.000000
0.461341 0.246708 0.000000
0.513695 0.256352 0.000000
0.566674 0.265446 0.000000
0.622370 0.273747 0.000000
0.677699 0.281498 0.000000
0.728969 0.288029 0.000000
0.774533 0.297734 0.000000
0.814939 0.311345 0.000000
0.852262 0.326299 0.000000
0.885344 0.342290 0.000000
0.913695 0.359136 0.000000
0.938872 0.375433 0.000000
0.960266 0.392065 0.000000
0.978943 0.410407 0.000000
0.995666 0.429633 0.000000
1.000000 0.446845 0.000000
1.000000 0.464790 0.000000
1.000000 0.482399 0.000000
0.000000 0.165316 0.076509
0.000000 0.165530 0.076661
0.000000 0.165713 0.077089
0.008972 0.165774 0.077241
0.022370 0.166140 0.077241
0.040223 0.166629 0.076600
0.060578 0.167605 0.075471
0.081971 0.169802 0.073030
0.109468 0.174044 0.068605
0.144106 0.181308 0.062287
0.188266 0.193668 0.052613
0.240818 0.209323 0.038209
0.300938 0.228244 0.019196
0.358068 0.247990 0.003967
0.411353 0.265110 0.000000
0.463844 0.280674 0.000000
0.517113 0.293278 0.000000
0.569757 0.303899 0.000000
0.623987 0.314488 0.000000
0.676814 0.324224 0.000000
0.725307 0.331609 0.000000
0.768673 0.342992 0.000000
0.808743 0.355657 0.000000
0.846586 0.369085 0.000000
0.880552 0.384283 0.000000
0.909880 0.400549 0.000000
0.935241 0.416876 0.000000
0.957031 0.433173 0.000000
0.975860 0.450843 0.000000
0.992615 0.469215 0.000000
1.000000 0.483833 0.000000
1.000000 0.499916 0.000000
1.000000 0.514885 0.000000
0.000000 0.196353 0.084077
0.000000 0.196628 0.084474
0.000000 0.196750 0.085115
0.000000 0.197024 0.085176
0.000000 0.197421 0.085176
0.000000 0.197910 0.084810
0.021820 0.198856 0.083711
0.052308 0.200809 0.081666
0.086458 0.204227 0.077638
0.121859 0.210513 0.072206
0.164950 0.220584 0.062898
0.218143 0.235966 0.050629
0.282292 0.253971 0.030884
0.349859 0.274510 0.006531
0.408484 0.294347 0.000000
0.464759 0.312078 0.000000
0.520073 0.330144 0.000000
0.572961 0.345495 0.000000
0.625483 0.358312 0.000000
0.675196 0.368566 0.000000
0.721614 0.376318 0.000000
0.763333 0.388556 0.000000
0.802792 0.400763 0.000000
0.840055 0.414130 0.000000
0.874296 0.429084 0.000000
0.904051 0.444739 0.000000
0.929168 0.459998 0.000000
0.951232 0.475166 0.000000
0.970916 0.491493 0.000000
0.988220 0.508232 0.000000
1.000000 0.521141 0.000000
1.000000 0.535821 0.000000
1.000000 0.548943 0.000000
0.000000 0.233860 0.095735
0.000000 0.234104 0.096071
0.000000 0.234409 0.096345
0.000000 0.234745 0.096864
0.000000 0.235264 0.097017
0.000000 0.235874 0.096620
0.000000 0.237095 0.096193
0.000000 0.238651 0.094148
0.038605 0.241733 0.090883
0.087282 0.246494 0.084749
0.135836 0.254520 0.077058
0.189303 0.267002 0.065095
0.253696 0.284306 0.046784
0.328130 0.302312 0.019471
0.398871 0.323247 0.000000
0.461341 0.345220 0.000000
0.520134 0.366735 0.000000
0.574395 0.385046 0.000000
0.626642 0.400885 0.000000
0.674983 0.412024 0.000000
0.719356 0.421057 0.000000
0.759426 0.433417 0.000000
0.797604 0.446235 0.000000
0.833890 0.460304 0.000000
0.866728 0.474861 0.000000
0.896147 0.489387 0.000000
0.921904 0.502495 0.000000
0.944701 0.516655 0.000000
0.964935 0.532189 0.000000
0.982727 0.548028 0.000000
0.998566 0.560662 0.000000
1.000000 0.575097 0.000000
1.000000 0.586603 0.000000
0.000000 0.274998 0.108949
0.000000 0.275334 0.109621
0.000000 0.275822 0.109804
0.000000 0.276341 0.110384
0.000000 0.276982 0.110628
0.000000 0.277714 0.110842
0.000000 0.278813 0.110414
0.000000 0.280430 0.109102
0.000000 0.283055 0.106233
0.021180 0.287114 0.101900
0.094759 0.293462 0.094331
0.154269 0.302831 0.083192
0.219974 0.316472 0.066438
0.295903 0.334630 0.039490
0.375372 0.355291 0.006867
0.449653 0.379614 0.000000
0.515129 0.401923 0.000000
0.572564 0.422095 0.000000
0.626490 0.438758 0.000000
0.674372 0.452888 0.000000
0.717617 0.465003 0.000000
0.756619 0.478645 0.000000
0.793362 0.492592 0.000000
0.827604 0.505730 0.000000
0.859556 0.518914 0.000000
0.888670 0.532464 0.000000
0.914641 0.543908 0.000000
0.937346 0.557580 0.000000
0.957305 0.573205 0.000000
0.976104 0.589441 0.000000
0.993957 0.602899 0.000000
1.000000 0.616510 0.000000
1.000000 0.625330 0.000000
0.000000 0.318120 0.122744
0.000000 0.318608 0.123629
0.000000 0.318853 0.124056
0.000000 0.319615 0.124788
0.000000 0.320348 0.125307
0.000000 0.321141 0.125948
0.000000 0.322423 0.125795
0.000000 0.324010 0.125124
0.000000 0.326268 0.123323
0.000000 0.329839 0.119936
0.018830 0.335210 0.113863
0.110292 0.342870 0.103365
0.181765 0.354498 0.088197
0.257237 0.370916 0.067048
0.341833 0.392462 0.033265
0.424323 0.413733 0.000000
0.501976 0.436072 0.000000
0.566064 0.456916 0.000000
0.622797 0.476448 0.000000
0.671992 0.491707 0.000000
0.715114 0.505730 0.000000
0.753841 0.519585 0.000000
0.789944 0.533288 0.000000
0.822751 0.547356 0.000000
0.853117 0.560998 0.000000
0.880827 0.574670 0.000000
0.906432 0.585962 0.000000
0.929412 0.598901 0.000000
0.951049 0.614221 0.000000
0.970703 0.628260 0.000000
0.988220 0.640375 0.000000
1.000000 0.654322 0.000000
1.000000 0.662135 0.000122
0.000000 0.365118 0.137881
0.000000 0.365515 0.138491
0.000000 0.366003 0.139071
0.000000 0.366491 0.139620
0.000000 0.367468 0.140780
0.000000 0.368414 0.141360
0.000000 0.369543 0.142000
0.000000 0.371344 0.142000
0.000000 0.373846 0.141024
0.000000 0.376989 0.138491
0.000000 0.381842 0.134340
0.027314 0.388769 0.126558
0.135439 0.398627 0.114137
0.217807 0.412421 0.096284
0.303441 0.429419 0.069917
0.389654 0.449592 0.030457
0.476295 0.469825 0.000000
0.551995 0.492988 0.000000
0.615412 0.512383 0.000000
0.667323 0.528588 0.000000
0.711269 0.542290 0.000000
0.750301 0.555871 0.000000
0.785672 0.569635 0.000000
0.817594 0.584222 0.000000
0.846738 0.599603 0.000000
0.873686 0.614649 0.000000
0.899809 0.626001 0.000000
0.923980 0.638819 0.000000
0.944945 0.652583 0.000000
0.964141 0.663508 0.000000
0.981018 0.673548 0.000000
0.995361 0.685115 0.010925
1.000000 0.692042 0.072694
0.000000 0.414435 0.155459
0.000000 0.414801 0.156161
0.000000 0.415259 0.156771
0.000000 0.415839 0.157626
0.000000 0.416510 0.158785
0.000000 0.417578 0.159762
0.000000 0.418708 0.160678
0.000000 0.420417 0.161166
0.000000 0.422675 0.160922
0.000000 0.425635 0.159548
0.000000 0.429694 0.156771
0.000000 0.435676 0.151614
0.080232 0.443549 0.141665
0.179751 0.454078 0.127443
0.265995 0.467964 0.106294
0.352056 0.485817 0.078126
0.441413 0.506950 0.041993
0.527031 0.527886 0.000549
0.600275 0.546075 0.000000
0.658717 0.562036 0.000000
0.705898 0.577234 0.000000
0.745907 0.590723 0.000000
0.780880 0.603906 0.000000
0.813107 0.618250 0.000000
0.842557 0.633692 0.000000
0.870054 0.648371 0.000000
0.895445 0.661616 0.000000
0.918151 0.674098 0.000000
0.938293 0.686488 0.000000
0.957183 0.695827 0.000000
0.974578 0.705287 0.036316
0.989044 0.714229 0.090181
1.000000 0.720180 0.127016
0.000000 0.464698 0.176913
0.000000 0.464942 0.177646
0.000000 0.465309 0.178317
0.000000 0.465766 0.179446
0.000000 0.466499 0.180636
0.000000 0.467201 0.181674
0.000000 0.468208 0.182925
0.000000 0.469337 0.183688
0.000000 0.471077 0.183780
0.000000 0.473457 0.183139
0.000000 0.476600 0.181064
0.000000 0.481422 0.177340
0.000000 0.487892 0.170535
0.141573 0.496803 0.159701
0.234409 0.508659 0.144656
0.320745 0.523644 0.124727
0.405768 0.540734 0.102449
0.493080 0.559411 0.078553
0.576165 0.578637 0.049317
0.641688 0.593622 0.011139
0.695613 0.609247 0.000000
0.739406 0.623163 0.000000
0.776669 0.636194 0.000000
0.810117 0.649989 0.000000
0.839780 0.664607 0.000000
0.867216 0.677333 0.000000
0.891539 0.689448 0.000000
0.912902 0.702632 0.000000
0.932067 0.717311 0.049104
0.951293 0.725429 0.086091
0.968383 0.734157 0.121218
0.983062 0.740780 0.149691
0.996948 0.745327 0.174075
0.000000 0.514336 0.201053
0.000000 0.514366 0.201511
0.000000 0.514611 0.202457
0.000000 0.514916 0.203494
0.000000 0.515312 0.205051
0.000000 0.515801 0.206546
0.000000 0.516442 0.207584
0.000000 0.517266 0.208682
0.000000 0.518547 0.209445
0.000000 0.520256 0.209506
0.000000 0.522789 0.208530
0.000000 0.526207 0.206058
0.000000 0.530968 0.202548
0.120180 0.537682 0.195956
0.218631 0.547143 0.185916
0.300267 0.558923 0.172793
0.379583 0.572717 0.157259
0.462013 0.588617 0.141451
0.540398 0.605615 0.126009
0.617853 0.622950 0.109224
0.679042 0.636530 0.092866
0.729793 0.650935 0.080110
0.770932 0.664302 0.067140
0.805936 0.677516 0.060945
0.835508 0.690272 0.065705
0.862913 0.701350 0.074281
0.887297 0.712703 0.091218
0.908873 0.725338 0.116396
0.928344 0.737942 0.143496
0.946075 0.747890 0.166415
0.962310 0.757076 0.189364
0.977569 0.762539 0.206332
0.991577 0.766812 0.223606
0.000000 0.560052 0.229221
0.000000 0.560082 0.230014
0.000000 0.560021 0.230716
0.000000 0.560021 0.231876
0.000000 0.559960 0.233433
0.000000 0.559930 0.235050
0.000000 0.559960 0.236484
0.000000 0.560296 0.237888
0.000000 0.560723 0.239109
0.000000 0.561486 0.240238
0.000000 0.562890 0.240726
0.000000 0.565209 0.240421
0.000000 0.568566 0.238712
0.140414 0.573907 0.236454
0.226535 0.581018 0.231388
0.297490 0.590265 0.223453
0.366278 0.601678 0.213169
0.440101 0.615442 0.201511
0.510765 0.630518 0.189670
0.585748 0.645899 0.180697
0.657893 0.661524 0.172122
0.714260 0.673365 0.165133
0.760159 0.685939 0.164431
0.797299 0.697963 0.163241
0.829129 0.709804 0.166567
0.857633 0.721096 0.171389
0.882597 0.732448 0.181796
0.904204 0.744015 0.195407
0.923796 0.754421 0.212345
0.941711 0.763607 0.228428
0.957641 0.772976 0.246830
0.972473 0.779904 0.262150
0.986877 0.784482 0.275090
0.000000 0.598871 0.259159
0.000000 0.598566 0.259861
0.000000 0.598260 0.260899
0.000000 0.597803 0.262425
0.000000 0.597284 0.264012
0.000000 0.596735 0.266270
0.000000 0.596185 0.268040
0.000000 0.595911 0.270329
0.000000 0.595819 0.272740
0.000000 0.596002 0.274540
0.000000 0.596796 0.276860
0.000000 0.598413 0.278508
0.104860 0.601434 0.279881
0.186893 0.605554 0.279881
0.248447 0.611017 0.278538
0.308446 0.618463 0.275029
0.368444 0.627741 0.269474
0.430488 0.639216 0.261540
0.493050 0.652399 0.252903
0.560967 0.666682 0.245762
0.629145 0.680812 0.239536
0.694209 0.693599 0.234104
0.744564 0.703395 0.231754
0.786252 0.715145 0.236088
0.821134 0.726375 0.240177
0.851133 0.737026 0.245304
0.877073 0.747799 0.252781
0.899107 0.758419 0.263401
0.919341 0.768032 0.274449
0.937438 0.776608 0.286839
0.953704 0.785580 0.301701
0.969146 0.792020 0.312596
0.983093 0.799008 0.325658
0.000000 0.630518 0.290532
0.000000 0.630091 0.291539
0.000000 0.629694 0.292485
0.000000 0.629175 0.294102
0.000000 0.628504 0.296330
0.000000 0.627863 0.298955
0.000000 0.627253 0.301915
0.000000 0.626612 0.304784
0.000000 0.626490 0.308537
0.000000 0.626642 0.311986
0.000000 0.627436 0.315770
0.101747 0.628779 0.319402
0.175967 0.631312 0.322637
0.232120 0.634760 0.325048
0.280308 0.639521 0.326390
0.329503 0.645655 0.326665
0.381384 0.653529 0.324620
0.433600 0.662776 0.321019
0.487556 0.673823 0.316564
0.546960 0.686152 0.310491
0.607843 0.698360 0.304234
0.668299 0.709895 0.298558
0.726497 0.720516 0.295415
0.772946 0.730129 0.295537
0.811398 0.741238 0.302556
0.843503 0.751492 0.308812
0.870817 0.761624 0.315892
0.893584 0.771328 0.324193
0.914519 0.780362 0.331884
0.932982 0.789029 0.341924
0.949645 0.797208 0.352728
0.965484 0.803799 0.360937
0.979767 0.810300 0.371099
0.000000 0.657465 0.324346
0.000000 0.657191 0.325505
0.000000 0.656794 0.326818
0.000000 0.656306 0.328923
0.000000 0.655879 0.331273
0.000000 0.655421 0.334600
0.000000 0.654994 0.338262
0.000000 0.654627 0.341955
0.000000 0.654810 0.346654
0.000000 0.655238 0.351354
0.118898 0.656275 0.356207
0.181857 0.657862 0.360937
0.231937 0.660121 0.365270
0.276402 0.663111 0.369360
0.319310 0.667140 0.372900
0.359655 0.672389 0.375463
0.402258 0.678981 0.376837
0.446174 0.687037 0.376654
0.492775 0.695918 0.374426
0.542779 0.705592 0.370703
0.595636 0.715724 0.365728
0.649866 0.725917 0.360174
0.704646 0.736233 0.356664
0.757534 0.746181 0.355047
0.800076 0.754879 0.356085
0.834775 0.765103 0.363653
0.863615 0.774929 0.371496
0.887968 0.784176 0.378515
0.909636 0.793027 0.385199
0.928527 0.801724 0.393835
0.945769 0.809293 0.401617
0.961852 0.815793 0.407935
0.976440 0.821683 0.414435
0.000000 0.681880 0.361700
0.000000 0.681727 0.363043
0.000000 0.681544 0.364782
0.000000 0.681239 0.366644
0.000000 0.681178 0.369757
0.000000 0.681056 0.373663
0.000000 0.681025 0.377905
0.000000 0.681147 0.382391
0.082399 0.681727 0.387274
0.152071 0.682521 0.392737
0.204349 0.683986 0.398566
0.248020 0.685847 0.404242
0.287694 0.688319 0.409888
0.325505 0.691432 0.415656
0.360601 0.695125 0.420691
0.394293 0.699550 0.425269
0.428016 0.704738 0.428351
0.466011 0.710750 0.429725
0.505974 0.717678 0.429267
0.547662 0.725154 0.426978
0.592401 0.733364 0.423377
0.640040 0.742397 0.419623
0.689540 0.751888 0.416510
0.738918 0.761410 0.414038
0.786618 0.770443 0.412543
0.825406 0.778439 0.414221
0.856229 0.787991 0.422461
0.882078 0.796719 0.429786
0.904479 0.805478 0.436561
0.924193 0.814328 0.443915
0.942290 0.821714 0.448798
0.958831 0.828428 0.453864
0.973724 0.833799 0.457771
0.000000 0.706020 0.403571
0.000000 0.705989 0.404974
0.000000 0.705959 0.406622
0.000000 0.706203 0.409094
0.000000 0.706477 0.412512
0.019654 0.706783 0.416327
0.103883 0.707118 0.420783
0.158053 0.707820 0.426154
0.202640 0.708797 0.431647
0.242161 0.709987 0.437263
0.277745 0.711757 0.443549
0.311315 0.713741 0.449897
0.341802 0.715938 0.455818
0.370916 0.718441 0.461250
0.400153 0.721309 0.466285
0.428870 0.724697 0.470832
0.458564 0.728695 0.474434
0.489204 0.733303 0.477150
0.523613 0.738643 0.478309
0.559289 0.745022 0.478187
0.597101 0.752193 0.476967
0.638117 0.760159 0.474830
0.681361 0.768490 0.472816
0.726009 0.777157 0.470832
0.770565 0.785885 0.469276
0.813077 0.793881 0.468452
0.847959 0.800931 0.469917
0.875273 0.809567 0.477058
0.898802 0.818143 0.483894
0.919402 0.826352 0.489662
0.938140 0.833799 0.493751
0.955352 0.840513 0.497353
0.970886 0.845640 0.498817
0.080690 0.731685 0.448463
0.102174 0.731868 0.450050
0.121523 0.732052 0.451698
0.146395 0.732357 0.454261
0.173129 0.732753 0.457404
0.201938 0.733181 0.461219
0.230289 0.733791 0.465614
0.258000 0.734646 0.470588
0.285374 0.735714 0.475715
0.312078 0.736965 0.481270
0.337804 0.738308 0.486824
0.363378 0.739803 0.492287
0.388556 0.741451 0.497688
0.413458 0.743435 0.502800
0.438697 0.745754 0.507774
0.464393 0.748470 0.512230
0.490150 0.751766 0.516167
0.516381 0.755764 0.519860
0.544793 0.760220 0.522515
0.575891 0.765621 0.523888
0.608820 0.771847 0.524254
0.643091 0.778836 0.523613
0.680171 0.786465 0.522332
0.719203 0.794278 0.520653
0.759487 0.801968 0.519371
0.799832 0.809415 0.518273
0.837308 0.816403 0.517876
0.868223 0.822995 0.518944
0.892699 0.831296 0.525109
0.914794 0.839048 0.530541
0.934539 0.846159 0.534478
0.951781 0.852445 0.536889
0.967498 0.857664 0.537865
0.229892 0.757229 0.492226
0.237980 0.757382 0.493599
0.246250 0.757565 0.495125
0.257877 0.757809 0.497353
0.272099 0.758083 0.500023
0.288609 0.758572 0.503532
0.306462 0.759152 0.507500
0.326329 0.759854 0.512108
0.346258 0.760647 0.516686
0.367376 0.761654 0.521691
0.388861 0.762722 0.526604
0.410529 0.763943 0.531792
0.432837 0.765591 0.537133
0.455177 0.767422 0.542260
0.477211 0.769619 0.547265
0.499672 0.772244 0.552056
0.522271 0.775265 0.556390
0.545281 0.779019 0.560510
0.568750 0.782925 0.563745
