modules/camera-engine/ios/LUTs/panasonic-warm-village.cube
TITLE "Generated by Resolve"
LUT_3D_SIZE 9
0.0386816 0.0213931 0.0218814
0.076997 0.0217441 0.0227207
0.218616 0.0365454 0.0263676
0.539574 0.0361639 0.0285039
0.738384 0.04065 0.0319677
0.864256 0.0437629 0.033402
0.864256 0.0437629 0.033402
0.864256 0.0437629 0.033402
0.864256 0.0437629 0.033402
0.0413367 0.0329137 0.021622
0.0443275 0.0264286 0.0218509
0.167559 0.033463 0.0244755
0.518486 0.0359503 0.0283207
0.732418 0.0404974 0.0318608
0.864256 0.0437629 0.033402
0.864256 0.0437629 0.033402
0.864256 0.0437629 0.033402
0.864256 0.0437629 0.033402
0.0610666 0.120455 0.0379339
0.0593576 0.111543 0.0353094
0.128817 0.10956 0.0303349
0.500664 0.0990921 0.0213931
0.724804 0.0402991 0.0317082
0.864256 0.0437629 0.033402
0.864256 0.0437629 0.033402
0.864256 0.0437629 0.033402
0.864256 0.0437629 0.033402
0.100496 0.357137 0.0838331
0.0994125 0.349294 0.0827802
0.097734 0.339483 0.0812238
0.444953 0.362295 0.0360113
0.729778 0.319905 0.0247196
0.87335 0.198093 0.0247501
0.8645 0.0486458 0.0304723
0.864256 0.0437629 0.033402
0.864256 0.0437629 0.033402
0.136217 0.611521 0.108675
0.135943 0.609125 0.108492
0.135576 0.606119 0.108217
0.1346 0.597681 0.107607
0.681468 0.603738 0.0485389
0.869459 0.560494 0.0374151
0.897047 0.525277 0.0344549
0.895949 0.507317 0.0329442
0.895491 0.500099 0.0324559
0.151965 0.758907 0.120623
0.151904 0.757839 0.120592
0.151797 0.756466 0.12047
0.151476 0.752834 0.120211
0.439216 0.767788 0.103258
0.819959 0.740627 0.0641947
0.90866 0.720821 0.0656138
0.908354 0.713573 0.0646525
0.908263 0.710903 0.064271
0.155566 0.809644 0.123354
0.155566 0.809644 0.123354
0.155566 0.809644 0.123354
0.155566 0.809644 0.123354
0.155566 0.809644 0.123354
0.782818 0.86334 0.0745098
0.894682 0.819654 0.0726329
0.909209 0.813825 0.0733501
0.90927 0.811841 0.0733349
0.155566 0.809644 0.123354
0.155566 0.809644 0.123354
0.155566 0.809644 0.123354
0.155566 0.809644 0.123354
0.155566 0.809644 0.123354
0.736049 0.857435 0.0744945
0.874922 0.832334 0.0716564
0.908858 0.829786 0.0734874
0.908858 0.829786 0.0734874
0.155566 0.809644 0.123354
0.155566 0.809644 0.123354
0.155566 0.809644 0.123354
0.155566 0.809644 0.123354
0.155566 0.809644 0.123354
0.717464 0.854246 0.0737926
0.868055 0.833631 0.0713817
0.908858 0.829786 0.0734874
0.908858 0.829786 0.0734874
0.0382391 0.0218814 0.0284123
0.0711528 0.0220035 0.0285191
0.209964 0.0377508 0.0326238
0.537057 0.0367285 0.0304265
0.737453 0.0406043 0.0318761
0.864256 0.0437629 0.033402
0.864256 0.0437629 0.033402
0.864256 0.0437629 0.033402
0.864256 0.0437629 0.033402
0.0400854 0.0278172 0.0227207
0.0386816 0.0213931 0.0218814
0.160204 0.0326238 0.0241245
0.514916 0.0359197 0.0282597
0.731411 0.0404822 0.0318303
0.864256 0.0437629 0.033402
0.864256 0.0437629 0.033402
0.864256 0.0437629 0.033402
0.864256 0.0437629 0.033402
0.0597543 0.113329 0.035874
0.057847 0.104326 0.0330968
0.119783 0.100069 0.0291905
0.495308 0.088365 0.0213931
0.723781 0.0402838 0.0317388
0.864256 0.0437629 0.033402
0.864256 0.0437629 0.033402
0.864256 0.0437629 0.033402
0.864256 0.0437629 0.033402
0.0996719 0.350988 0.0830091
0.0983444 0.342931 0.0817884
0.0965744 0.332921 0.0802014
0.4374 0.354833 0.0360876
0.728054 0.312215 0.0245365
0.871946 0.187808 0.0246891
0.864256 0.0437629 0.033402
0.864256 0.0437629 0.033402
0.864256 0.0437629 0.033402
0.135988 0.609583 0.108522
0.135729 0.607187 0.108309
0.135363 0.604227 0.108064
0.134356 0.595544 0.107454
0.679957 0.601892 0.0483711
0.868681 0.558175 0.0371405
0.896864 0.522484 0.034226
0.89575 0.504189 0.0327153
0.895293 0.496956 0.0322423
0.151904 0.758038 0.120592
0.151827 0.756939 0.120531
0.151736 0.755596 0.120439
0.151415 0.751949 0.12015
0.433555 0.766705 0.103868
0.819059 0.739574 0.0640574
0.908629 0.719676 0.0654612
0.908324 0.712367 0.0644694
0.908171 0.709712 0.0641337
0.155566 0.809644 0.123354
0.155566 0.809644 0.123354
0.155566 0.809644 0.123354
0.155566 0.809644 0.123354
0.155566 0.809644 0.123354
0.781506 0.862501 0.0745098
0.894102 0.818936 0.0725719
0.909239 0.812955 0.0733349
0.909285 0.811017 0.0733349
0.155566 0.809644 0.123354
0.155566 0.809644 0.123354
0.155566 0.809644 0.123354
0.155566 0.809644 0.123354
0.155566 0.809644 0.123354
0.734447 0.857176 0.0744488
0.874327 0.832456 0.0716106
0.908858 0.829786 0.0734874
0.908858 0.829786 0.0734874
0.155566 0.809644 0.123354
0.155566 0.809644 0.123354
0.155566 0.809644 0.123354
0.155566 0.809644 0.123354
0.155566 0.809644 0.123354
0.715785 0.853971 0.0737011
0.86746 0.833753 0.0713359
0.908858 0.829786 0.0734874
0.908858 0.829786 0.0734874
0.0356298 0.0240787 0.0704509
0.0601511 0.0277409 0.0759136
0.205188 0.0493935 0.102464
0.550652 0.0676738 0.122698
0.752743 0.0683604 0.114366
0.879499 0.0622873 0.0940871
0.875273 0.0566415 0.0771496
0.873091 0.0542306 0.0691997
0.872328 0.0534371 0.0664683
0.0357214 0.0239414 0.066453
0.0356909 0.023743 0.0657511
0.153994 0.0418555 0.0889143
0.526467 0.0643778 0.113298
0.745571 0.064622 0.10457
0.877089 0.0590219 0.0843366
0.872618 0.053727 0.0675364
0.870451 0.0515602 0.059968
0.869688 0.0507668 0.0572366
0.0587167 0.108537 0.0908522
0.0572366 0.0994888 0.0870832
0.116258 0.104936 0.0959335
0.498863 0.0888228 0.0830396
0.736385 0.059678 0.0920882
0.873838 0.0549172 0.0717327
0.869413 0.0505074 0.0563058
0.86743 0.0482032 0.0484474
0.866758 0.047364 0.045594
0.0873121 0.339467 0.112718
0.0873274 0.331945 0.110964
0.0870222 0.322515 0.108629
0.420188 0.347723 0.0741894
0.726314 0.304402 0.043473
0.870634 0.175921 0.0299992
0.864256 0.0437629 0.033402
0.864256 0.0437629 0.033402
0.864256 0.0437629 0.033402
0.135729 0.607202 0.108309
0.135454 0.604807 0.108141
0.135088 0.601785 0.107897
0.134081 0.59295 0.107271
0.678111 0.599588 0.048127
0.867704 0.555413 0.0368048
0.896635 0.519081 0.0339055
0.895506 0.500313 0.0324559
0.895094 0.492973 0.0320134
0.151827 0.756985 0.120531
0.151751 0.755886 0.120455
0.151583 0.754498 0.120348
0.151339 0.750866 0.120119
0.428321 0.765316 0.104173
0.81799 0.738231 0.06392
0.908553 0.718303 0.0652781
0.908263 0.710979 0.0642863
0.908125 0.708293 0.0639353
0.155566 0.809644 0.123354
0.155566 0.809644 0.123354
0.155566 0.809644 0.123354
0.155566 0.809644 0.123354
0.155566 0.809644 0.123354
0.779828 0.861509 0.0744793
0.89337 0.818006 0.0725109
0.909255 0.811917 0.0733349
0.9093 0.809934 0.0733196
0.155566 0.809644 0.123354
0.155566 0.809644 0.123354
0.155566 0.809644 0.123354
0.155566 0.809644 0.123354
0.155566 0.809644 0.123354
0.732494 0.856855 0.0743877
0.873579 0.832547 0.0715953
0.908858 0.829786 0.0734874
0.908858 0.829786 0.0734874
0.155566 0.809644 0.123354
0.155566 0.809644 0.123354
0.155566 0.809644 0.123354
0.155566 0.809644 0.123354
0.155566 0.809644 0.123354
0.71371 0.853635 0.07364
0.866697 0.833936 0.0713054
0.908858 0.829786 0.0734874
0.908858 0.829786 0.0734874
0.0404669 0.0417182 0.159777
0.0471504 0.042298 0.161685
0.142947 0.0665904 0.214679
0.542351 0.0903487 0.301595
0.75848 0.0954757 0.283696
0.891768 0.0994278 0.266697
0.891737 0.0985122 0.257084
0.891707 0.098024 0.252659
0.891722 0.0978866 0.251026
0.0400549 0.0408942 0.156481
0.0399786 0.0407111 0.155947
0.10692 0.0554665 0.185199
0.517327 0.0885023 0.294621
0.752285 0.0946212 0.277638
0.891783 0.0988937 0.26099
0.891691 0.0979324 0.251682
0.891676 0.0975204 0.247227
0.891676 0.0973831 0.245609
0.0537423 0.103746 0.182681
0.05243 0.0951705 0.178225
0.0898299 0.0991531 0.201251
0.483986 0.100969 0.286702
0.744549 0.0935225 0.269886
0.891737 0.0981765 0.25417
0.891676 0.0973373 0.245045
0.891646 0.0969253 0.240574
0.891615 0.0967727 0.238941
0.0804913 0.29099 0.250736
0.0797284 0.283848 0.248264
0.0786145 0.274647 0.2448
0.372351 0.3794 0.355184
0.72166 0.334722 0.252766
0.888106 0.181735 0.214069
0.891493 0.0956588 0.226688
0.891447 0.0952468 0.222217
0.891417 0.0950942 0.2206
0.106889 0.578302 0.250004
0.106676 0.575586 0.248859
0.106371 0.572137 0.247456
0.105608 0.562875 0.24361
0.658061 0.610086 0.255558
0.865446 0.568917 0.193606
0.898589 0.53106 0.171969
0.89778 0.510552 0.161273
0.897459 0.502586 0.157382
0.12015 0.750179 0.184787
0.120089 0.749126 0.183413
0.120012 0.747845 0.181796
0.119692 0.74432 0.177127
0.418997 0.76614 0.203815
0.814603 0.741833 0.125872
0.908736 0.720928 0.107637
0.9084 0.711955 0.0971084
0.908248 0.70869 0.0932937
0.155566 0.809644 0.123354
0.155566 0.809644 0.123354
0.155566 0.809644 0.123354
0.155566 0.809644 0.123354
0.155566 0.809644 0.123354
0.775433 0.858717 0.074464
0.891371 0.815473 0.0723125
0.909331 0.809064 0.0733196
0.909377 0.807065 0.0733043
0.155566 0.809644 0.123354
0.155566 0.809644 0.123354
0.155566 0.809644 0.123354
0.155566 0.809644 0.123354
0.155566 0.809644 0.123354
0.727184 0.855924 0.0741741
0.871611 0.832959 0.0715038
0.908858 0.829786 0.0734874
0.908858 0.829786 0.0734874
0.155566 0.809644 0.123354
0.155566 0.809644 0.123354
0.155566 0.809644 0.123354
0.155566 0.809644 0.123354
0.155566 0.809644 0.123354
0.708064 0.852689 0.0734417
0.864652 0.834272 0.0712444
0.908858 0.829786 0.0734874
0.908858 0.829786 0.0734874
0.0523079 0.0738079 0.318395
0.0522774 0.0737316 0.317983
0.101915 0.0766766 0.351308
0.431907 0.140322 0.516594
0.726268 0.140124 0.572168
0.878981 0.134951 0.544671
0.879316 0.134157 0.539178
0.879484 0.133822 0.536538
0.87953 0.133684 0.535531
0.0521859 0.0733806 0.315999
0.0521706 0.0733043 0.315648
0.0820325 0.0770123 0.335683
0.404974 0.136477 0.50515
0.719402 0.139788 0.570047
0.879179 0.134508 0.541344
0.879515 0.133715 0.535851
0.879667 0.133303 0.533211
0.879759 0.133181 0.532204
0.0527047 0.0769665 0.316136
0.052018 0.0727855 0.312718
0.0519875 0.072694 0.312276
0.367575 0.130465 0.488838
0.710735 0.139452 0.567361
0.879438 0.133928 0.537408
0.879774 0.133135 0.531884
0.879942 0.132708 0.529152
0.879988 0.13257 0.52813
0.0778363 0.264576 0.396674
0.0767987 0.258808 0.393942
0.0754559 0.251438 0.390387
0.276844 0.346288 0.529854
0.702159 0.316594 0.566842
0.871046 0.133303 0.52755
0.880461 0.131533 0.520592
0.880613 0.131182 0.517815
0.880705 0.13106 0.516793
0.10901 0.506401 0.457969
0.108705 0.503197 0.456764
0.108293 0.499123 0.45539
0.107301 0.490623 0.453208
0.643412 0.635218 0.610864
0.856931 0.593133 0.525429
0.899428 0.555245 0.500664
0.898848 0.53669 0.495537
0.89865 0.529641 0.493568
0.122789 0.719219 0.455268
0.122652 0.717876 0.454719
0.122484 0.716228 0.454047
0.122011 0.711772 0.452201
0.343816 0.738811 0.503517
0.802487 0.773983 0.539528
0.910018 0.760296 0.501579
0.90959 0.75198 0.496284
0.909438 0.748974 0.494362
0.125719 0.791363 0.42417
0.125704 0.791409 0.423621
0.125689 0.791455 0.422934
0.125643 0.791592 0.421057
0.125536 0.791943 0.416388
0.745769 0.876005 0.490562
0.888411 0.858839 0.481682
0.912871 0.853468 0.465965
0.91281 0.851331 0.464591
0.125216 0.792706 0.406241
0.1252 0.792767 0.405585
0.125185 0.792813 0.404913
0.125139 0.792966 0.402899
0.124956 0.793317 0.398032
0.699794 0.879973 0.463371
0.879286 0.889128 0.450721
0.913985 0.879591 0.441871
0.913939 0.879484 0.440543
0.125002 0.793194 0.399496
0.124987 0.793256 0.39884
0.124956 0.793317 0.398032
0.12491 0.7935 0.396002
0.124804 0.793851 0.390829
0.680781 0.876875 0.453147
0.873549 0.890593 0.441871
0.91368 0.878523 0.433066
0.913741 0.878309 0.43154
0.0557412 0.103212 0.505104
0.0557259 0.103166 0.504875
0.062974 0.105638 0.511681
0.345953 0.150317 0.640894
0.664027 0.205539 0.710185
0.862593 0.185687 0.737499
0.862852 0.184695 0.73521
0.862959 0.184268 0.734096
0.863035 0.184024 0.7337
0.0556802 0.102983 0.503578
0.0556802 0.102953 0.503334
0.0556649 0.102892 0.503014
0.289586 0.139574 0.629923
0.656199 0.20499 0.707378
0.862715 0.185107 0.736187
0.862974 0.184115 0.733883
0.863127 0.183673 0.732769
0.863157 0.18352 0.732372
0.0556191 0.102708 0.501701
0.0556039 0.102647 0.501396
0.0555886 0.102602 0.501076
0.226642 0.127169 0.600961
0.646448 0.204196 0.70399
0.859098 0.184833 0.73489
0.863188 0.183444 0.732189
0.863325 0.182925 0.73106
0.863371 0.182788 0.730648
0.0693675 0.235981 0.541985
0.0683757 0.229435 0.539651
0.0671244 0.221225 0.536706
0.184497 0.261509 0.625574
0.622202 0.23064 0.697429
0.84564 0.184527 0.731456
0.863722 0.181582 0.727443
0.863828 0.181109 0.726284
0.863859 0.180972 0.725856
0.108888 0.478782 0.597055
0.108415 0.475868 0.596063
0.107866 0.472282 0.594888
0.106355 0.462303 0.591592
0.603372 0.618006 0.75462
0.848661 0.58851 0.735973
0.89839 0.549432 0.720913
0.896773 0.527092 0.718532
0.895933 0.518105 0.717754
0.135775 0.674815 0.623438
0.135607 0.673304 0.622995
0.135409 0.671397 0.622492
0.134707 0.666133 0.620859
0.287037 0.700084 0.668177
0.797345 0.790539 0.773907
0.91252 0.770718 0.734936
0.912184 0.761959 0.73164
0.912077 0.758679 0.730404
0.142473 0.769055 0.621637
0.142458 0.769085 0.621439
0.142428 0.769131 0.621164
0.14229 0.768063 0.620493
0.141649 0.760616 0.618402
0.712917 0.869566 0.743496
0.886809 0.88217 0.743618
0.916487 0.874708 0.730922
0.916396 0.872389 0.730159
0.141772 0.770062 0.615
0.141756 0.770092 0.614786
0.141741 0.770138 0.614511
0.141695 0.770245 0.613825
0.141482 0.770504 0.612039
0.663493 0.874861 0.726452
0.871321 0.918425 0.725567
0.920165 0.916167 0.719829
0.920485 0.915587 0.719356
0.141604 0.770443 0.612604
0.141512 0.770443 0.612375
0.141497 0.770489 0.6121
0.141436 0.770611 0.611353
0.141238 0.770871 0.609567
0.643824 0.86923 0.720012
0.862272 0.917281 0.722896
0.91516 0.917067 0.716838
0.92047 0.915404 0.715755
0.0605631 0.119844 0.611551
0.0605631 0.119814 0.611353
0.0605173 0.119768 0.611078
0.243961 0.143206 0.696406
0.642527 0.230396 0.771054
0.850538 0.22855 0.823575
0.852354 0.227481 0.822095
0.85243 0.227115 0.821378
0.852461 0.226978 0.821118
0.0604715 0.119646 0.610361
0.0604715 0.119615 0.610147
0.0604562 0.1196 0.609949
0.21033 0.135622 0.681147
0.63447 0.22855 0.768673
0.845319 0.228748 0.821424
0.852445 0.227024 0.82121
0.852537 0.226612 0.820462
0.852552 0.226474 0.820188
0.0604105 0.119402 0.608927
0.0603952 0.119387 0.608728
0.0603799 0.119356 0.608454
0.17557 0.126101 0.666224
0.624323 0.2262 0.765682
0.838315 0.228916 0.818326
0.852567 0.226429 0.820096
0.852644 0.225986 0.819379
0.852674 0.225849 0.81912
0.0640879 0.192752 0.623133
0.0632792 0.184344 0.621149
0.0622568 0.173159 0.618509
0.122072 0.162432 0.654917
0.59353 0.218341 0.757076
0.819959 0.229572 0.81117
0.852888 0.224781 0.817136
0.852964 0.224369 0.816373
0.852995 0.224231 0.816114
0.105714 0.462577 0.671534
0.105241 0.459678 0.670863
0.104662 0.456168 0.670054
0.103044 0.446387 0.66772
0.573083 0.596841 0.820386
0.823987 0.56553 0.825635
0.886137 0.524804 0.820478
0.882902 0.498161 0.817807
0.88159 0.487495 0.816831
0.138796 0.670024 0.707362
0.138537 0.668254 0.706813
0.138247 0.666209 0.706157
0.137423 0.660456 0.704326
0.22681 0.679606 0.729946
0.780804 0.780835 0.860075
0.912383 0.771832 0.852201
0.911925 0.762387 0.848768
0.911742 0.758953 0.847532
0.149752 0.751659 0.70042
0.14963 0.750805 0.700282
0.149554 0.749783 0.700114
0.149233 0.746975 0.699596
0.148562 0.740368 0.698528
0.699962 0.855436 0.843351
0.881743 0.886793 0.86714
0.91809 0.880598 0.857984
0.918029 0.878355 0.857374
0.14963 0.755444 0.696147
0.149615 0.755474 0.69601
0.149599 0.755505 0.695857
0.149493 0.755566 0.695399
0.149401 0.755795 0.694347
0.649821 0.862638 0.819394
0.859388 0.921736 0.855497
0.914687 0.92311 0.850919
0.920195 0.920851 0.850767
0.149432 0.755734 0.694652
0.149416 0.755749 0.694545
0.149401 0.755795 0.694362
0.149371 0.755886 0.693935
0.149279 0.756115 0.692882
0.629099 0.857511 0.812543
0.849577 0.921294 0.852476
0.90956 0.929885 0.846433
0.922087 0.930144 0.844236
0.0606851 0.120165 0.613886
0.0606851 0.120165 0.613886
0.0606851 0.120165 0.613886
0.216541 0.137636 0.687297
0.635767 0.229892 0.772671
0.844678 0.231998 0.826688
0.850752 0.231189 0.82797
0.850752 0.231189 0.82797
0.850752 0.231189 0.82797
0.0606851 0.120165 0.613886
0.0606851 0.120165 0.613886
0.0606851 0.120165 0.613886
0.187472 0.129747 0.6757
0.627527 0.228214 0.770993
0.838239 0.232715 0.824384
0.850752 0.231189 0.82797
0.850752 0.231189 0.82797
0.850752 0.231189 0.82797
0.0606851 0.120165 0.613886
0.0606851 0.120165 0.613886
0.0606851 0.120165 0.613886
0.15787 0.124712 0.663539
0.616693 0.225666 0.768887
0.830365 0.233509 0.821591
0.850752 0.231189 0.82797
0.850752 0.231189 0.82797
0.850752 0.231189 0.82797
0.0613565 0.156924 0.624048
0.0608835 0.146731 0.6215
0.0606241 0.134707 0.61828
0.0890211 0.128908 0.634501
0.584695 0.217762 0.762631
0.80795 0.235874 0.813581
0.850752 0.231189 0.82797
0.850752 0.231189 0.82797
0.850752 0.231189 0.82797
0.104005 0.452613 0.682857
0.103487 0.449653 0.682307
0.102892 0.446006 0.681666
0.101152 0.435874 0.67985
0.557458 0.583947 0.830045
0.810361 0.550912 0.835035
0.881636 0.507271 0.840101
0.877516 0.477607 0.837797
0.875669 0.465461 0.83682
0.139315 0.661189 0.724697
0.139055 0.659434 0.7243
0.138766 0.65742 0.723857
0.137926 0.651682 0.722545
0.191546 0.660243 0.738628
0.773342 0.773999 0.883284
0.90988 0.765927 0.884382
0.910567 0.75639 0.881682
0.910292 0.752789 0.880583
0.15198 0.753567 0.735302
0.151858 0.752834 0.735271
0.151781 0.75198 0.735302
0.151431 0.749569 0.735195
0.150546 0.743526 0.734997
0.692592 0.848997 0.871366
0.876966 0.884016 0.903777
0.917937 0.881605 0.90277
0.91783 0.879316 0.902251
0.152255 0.758083 0.729976
0.152255 0.758038 0.729793
0.152239 0.758007 0.729595
0.152209 0.757916 0.729168
0.152117 0.757656 0.727962
0.641764 0.865904 0.857588
0.853162 0.916274 0.895445
0.911513 0.922621 0.899855
0.920317 0.921492 0.899748
0.152148 0.757717 0.728283
0.152132 0.757702 0.728161
0.152117 0.757656 0.727977
0.152087 0.757549 0.727474
0.15201 0.75729 0.726268
0.620752 0.860929 0.850935
0.843 0.918578 0.891707
0.905562 0.931792 0.896208
0.921477 0.933669 0.893996
0.0606851 0.120165 0.613886
0.0606851 0.120165 0.613886
0.0606851 0.120165 0.613886
0.207904 0.135332 0.683909
0.633387 0.229435 0.772183
0.842847 0.232197 0.826032
0.850752 0.231189 0.82797
0.850752 0.231189 0.82797
0.850752 0.231189 0.82797
0.0606851 0.120165 0.613886
0.0606851 0.120165 0.613886
0.0606851 0.120165 0.613886
0.179492 0.127703 0.672602
0.625071 0.227649 0.770504
0.836393 0.232853 0.823743
0.850752 0.231189 0.82797
0.850752 0.231189 0.82797
0.850752 0.231189 0.82797
0.0606851 0.120165 0.613886
0.0606851 0.120165 0.613886
0.0606851 0.120165 0.613886
0.152361 0.124895 0.661234
0.614069 0.22504 0.768368
0.828534 0.233707 0.820951
0.850752 0.231189 0.82797
0.850752 0.231189 0.82797
0.850752 0.231189 0.82797
0.0606851 0.142275 0.620371
0.0606241 0.132494 0.617639
0.0606851 0.121141 0.614191
0.0789807 0.126284 0.62855
0.581582 0.216938 0.762005
0.806027 0.236088 0.812879
0.850752 0.231189 0.82797
0.850752 0.231189 0.82797
0.850752 0.231189 0.82797
0.103258 0.448295 0.682063
0.10277 0.445304 0.681559
0.102129 0.441596 0.680903
0.100374 0.431373 0.679072
0.551324 0.578561 0.828611
0.807691 0.544869 0.833936
0.880598 0.49929 0.83946
0.876036 0.467979 0.837049
0.874067 0.455161 0.836118
0.138994 0.658778 0.724163
0.138735 0.657023 0.723781
0.13843 0.654917 0.723308
0.13753 0.649119 0.721965
0.176593 0.65243 0.733532
0.77084 0.771359 0.882734
0.908568 0.763195 0.88365
0.910338 0.753521 0.880796
0.910063 0.749889 0.879744
0.151843 0.752575 0.73547
0.15172 0.751873 0.735607
0.151659 0.751034 0.735759
0.151339 0.748714 0.736156
0.150515 0.742809 0.737057
0.68983 0.846372 0.873014
0.875319 0.882109 0.907607
0.917327 0.880171 0.908309
0.917189 0.877867 0.907942
0.152575 0.759045 0.734401
0.152575 0.759045 0.734401
0.152575 0.759045 0.734401
0.152575 0.759045 0.734401
0.152575 0.759045 0.734401
0.638468 0.864759 0.862974
0.851575 0.914977 0.904891
0.910369 0.921798 0.911528
0.920562 0.921355 0.912367
0.152575 0.759045 0.734401
0.152575 0.759045 0.734401
0.152575 0.759045 0.734401
0.152575 0.759045 0.734401
0.152575 0.759045 0.734401
0.617197 0.859983 0.857862
0.841413 0.918135 0.902464
0.903746 0.931334 0.909255
0.921294 0.934264 0.909239
