modules/camera-engine/ios/LUTs/panasonic-food-film.cube
TITLE "Generated by Resolve"
LUT_3D_SIZE 33
0.0841993 0.0840009 0.0777905
0.0841993 0.0840009 0.0777905
0.0841993 0.0840009 0.0777905
0.0850385 0.084062 0.0778363
0.0902724 0.0843519 0.0781415
0.0978561 0.0856489 0.0791791
0.125719 0.0936141 0.0792706
0.173373 0.0995651 0.0787976
0.231434 0.103532 0.0713512
0.301915 0.108629 0.0670176
0.387427 0.117586 0.0776684
0.462837 0.1299 0.0878767
0.530907 0.14107 0.0990311
0.589502 0.147906 0.10837
0.638941 0.156405 0.115282
0.685878 0.163684 0.121508
0.728817 0.168658 0.126299
0.765911 0.172869 0.130526
0.798184 0.178515 0.135729
0.823056 0.183719 0.136385
0.846326 0.189364 0.140764
0.8645 0.193622 0.144427
0.871092 0.195514 0.145129
0.871092 0.195514 0.145129
0.871092 0.195514 0.145129
0.871092 0.195514 0.145129
0.871092 0.195514 0.145129
0.871092 0.195514 0.145129
0.871092 0.195514 0.145129
0.871092 0.195514 0.145129
0.871092 0.195514 0.145129
0.871092 0.195514 0.145129
0.871092 0.195514 0.145129
0.0841993 0.0840009 0.0777905
0.0841993 0.0840009 0.0777905
0.0841993 0.0840009 0.0777905
0.0841993 0.0840009 0.0777905
0.0891585 0.0842908 0.0780804
0.0946975 0.0847486 0.0784619
0.120912 0.0921492 0.0798047
0.165103 0.0986496 0.0787823
0.224537 0.103212 0.0727855
0.294316 0.107912 0.0657359
0.382681 0.116808 0.0768444
0.458824 0.129229 0.0872969
0.528237 0.140658 0.0986038
0.587594 0.147692 0.108064
0.637675 0.156161 0.115099
0.684794 0.163531 0.121386
0.728069 0.168597 0.126223
0.765301 0.172763 0.130419
0.797681 0.178424 0.135653
0.822644 0.183627 0.13637
0.84596 0.189273 0.140673
0.864225 0.193545 0.144396
0.871092 0.195514 0.145129
0.871092 0.195514 0.145129
0.871092 0.195514 0.145129
0.871092 0.195514 0.145129
0.871092 0.195514 0.145129
0.871092 0.195514 0.145129
0.871092 0.195514 0.145129
0.871092 0.195514 0.145129
0.871092 0.195514 0.145129
0.871092 0.195514 0.145129
0.871092 0.195514 0.145129
0.0841993 0.0840009 0.0777905
0.0841993 0.0840009 0.0777905
0.0841993 0.0840009 0.0777905
0.0841993 0.0840009 0.0777905
0.0880293 0.0842298 0.0780194
0.09337 0.084535 0.0783246
0.115526 0.0905776 0.0804761
0.156313 0.0976883 0.0787366
0.217365 0.102861 0.0742504
0.286381 0.107164 0.0644236
0.377844 0.11603 0.0759899
0.454795 0.128573 0.0867018
0.525567 0.14023 0.0981613
0.585611 0.147494 0.107744
0.636362 0.155901 0.114916
0.683696 0.163394 0.121248
0.72726 0.168521 0.126146
0.764706 0.172671 0.130327
0.797177 0.178332 0.135592
0.822248 0.183536 0.136355
0.845563 0.189181 0.140597
0.863966 0.193469 0.144366
0.871092 0.195514 0.145129
0.871092 0.195514 0.145129
0.871092 0.195514 0.145129
0.871092 0.195514 0.145129
0.871092 0.195514 0.145129
0.871092 0.195514 0.145129
0.871092 0.195514 0.145129
0.871092 0.195514 0.145129
0.871092 0.195514 0.145129
0.871092 0.195514 0.145129
0.871092 0.195514 0.145129
0.0841993 0.0840009 0.0777905
0.0841993 0.0840009 0.0777905
0.0841993 0.0840009 0.0777905
0.0841993 0.0840009 0.0777905
0.0869001 0.0841688 0.0779431
0.0922103 0.0844587 0.0782483
0.109453 0.0888533 0.0812543
0.146929 0.0966659 0.0786755
0.209812 0.102464 0.0756237
0.279088 0.106569 0.0641947
0.372305 0.115282 0.0751965
0.450599 0.127886 0.0860914
0.522957 0.139834 0.0977493
0.583642 0.14728 0.107439
0.635019 0.155642 0.114733
0.682551 0.163226 0.121096
0.726467 0.16846 0.126085
0.76405 0.172564 0.13022
0.796674 0.178225 0.135515
0.82182 0.183444 0.136339
0.845182 0.18909 0.140505
0.863691 0.193393 0.144335
0.871092 0.195514 0.145129
0.871092 0.195514 0.145129
0.871092 0.195514 0.145129
0.871092 0.195514 0.145129
0.871092 0.195514 0.145129
0.871092 0.195514 0.145129
0.871092 0.195514 0.145129
0.871092 0.195514 0.145129
0.871092 0.195514 0.145129
0.871092 0.195514 0.145129
0.871092 0.195514 0.145129
0.0843214 0.0873426 0.0779278
0.0843061 0.0869764 0.0779126
0.0842908 0.0866102 0.0778973
0.0842756 0.0862287 0.0778821
0.0856947 0.0858015 0.077821
0.0908064 0.0855879 0.0779583
0.103655 0.0879988 0.0804456
0.13611 0.0957809 0.0785687
0.201297 0.102068 0.0771649
0.271473 0.105959 0.0639506
0.365545 0.114656 0.0745251
0.446204 0.127138 0.085481
0.520516 0.139452 0.0973678
0.581598 0.147066 0.107103
0.633677 0.155383 0.114549
0.681453 0.163088 0.120974
0.725658 0.168383 0.126009
0.763424 0.172457 0.130129
0.79617 0.178134 0.135454
0.821408 0.183352 0.136339
0.844785 0.188998 0.140414
0.863401 0.193301 0.144289
0.871092 0.195514 0.145129
0.871092 0.195514 0.145129
0.871092 0.195514 0.145129
0.871092 0.195514 0.145129
0.871092 0.195514 0.145129
0.871092 0.195514 0.145129
0.871092 0.195514 0.145129
0.871092 0.195514 0.145129
0.871092 0.195514 0.145129
0.871092 0.195514 0.145129
0.871092 0.195514 0.145129
0.0844587 0.0920119 0.0780804
0.0844739 0.0915084 0.0780804
0.0844739 0.0911269 0.0780652
0.0844587 0.0907454 0.0780499
0.0848249 0.0903182 0.0779889
0.0896162 0.0897993 0.0778515
0.0957504 0.0898451 0.0782025
0.119066 0.0956588 0.0796216
0.163378 0.101854 0.0782635
0.229953 0.106371 0.0713817
0.321721 0.112322 0.0692454
0.420447 0.123568 0.0817731
0.518502 0.139147 0.0970626
0.579568 0.146853 0.106783
0.632288 0.155108 0.114351
0.680308 0.162936 0.120821
0.724865 0.168307 0.125933
0.762798 0.172351 0.130037
0.795651 0.178042 0.135378
0.820981 0.183261 0.136324
0.844388 0.188907 0.140337
0.863096 0.19324 0.144244
0.871092 0.195514 0.145129
0.871092 0.195514 0.145129
0.871092 0.195514 0.145129
0.871092 0.195514 0.145129
0.871092 0.195514 0.145129
0.871092 0.195514 0.145129
0.871092 0.195514 0.145129
0.871092 0.195514 0.145129
0.871092 0.195514 0.145129
0.871092 0.195514 0.145129
0.871092 0.195514 0.145129
0.0814832 0.111116 0.0789044
0.0814984 0.109133 0.0783551
0.0817121 0.107424 0.0783093
0.0819409 0.105653 0.0782635
0.0821698 0.103807 0.0782177
0.0874952 0.0985885 0.0777447
0.0930343 0.0971389 0.0777905
0.114107 0.100389 0.0806134
0.147112 0.105318 0.0780041
0.208484 0.10959 0.0757458
0.286717 0.112917 0.0632334
0.391348 0.122255 0.0768749
0.484443 0.136019 0.090135
0.567178 0.146624 0.104158
0.630945 0.154849 0.114168
0.679164 0.162768 0.120684
0.724056 0.168231 0.125856
0.762142 0.172244 0.129931
0.795148 0.177951 0.135317
0.820554 0.183169 0.136309
0.843992 0.188815 0.140246
0.862806 0.193164 0.144183
0.871092 0.195514 0.145129
0.871092 0.195514 0.145129
0.871092 0.195514 0.145129
0.871092 0.195514 0.145129
0.871092 0.195514 0.145129
0.871092 0.195514 0.145129
0.871092 0.195514 0.145129
0.871092 0.195514 0.145129
0.871092 0.195514 0.145129
0.871092 0.195514 0.145129
0.871092 0.195514 0.145129
0.0814679 0.136538 0.0868391
0.0814069 0.135042 0.0863661
0.0813458 0.133501 0.085893
0.0812695 0.131914 0.0853895
0.0812085 0.130282 0.0848707
0.0841993 0.125231 0.0827955
0.0890364 0.12079 0.081117
0.106783 0.118105 0.079408
0.139925 0.122026 0.0808881
0.194568 0.125139 0.0774701
0.265736 0.123461 0.0631418
0.363699 0.132647 0.0747845
0.462287 0.141604 0.0880598
0.549844 0.151888 0.100267
0.614969 0.156161 0.111192
0.673365 0.162921 0.119463
0.723064 0.168139 0.125765
0.761395 0.172122 0.129809
0.794507 0.177829 0.135225
0.820035 0.183062 0.136294
0.843503 0.188708 0.140139
0.862455 0.193072 0.144106
0.871092 0.195514 0.145129
0.871092 0.195514 0.145129
0.871092 0.195514 0.145129
0.871092 0.195514 0.145129
0.871092 0.195514 0.145129
0.871092 0.195514 0.145129
0.871092 0.195514 0.145129
0.871092 0.195514 0.145129
0.871092 0.195514 0.145129
0.871092 0.195514 0.145129
0.871092 0.195514 0.145129
0.0817426 0.182803 0.0986801
0.0817578 0.180499 0.0981155
0.0817884 0.178134 0.0975357
0.0818036 0.175692 0.0969406
0.0818341 0.173236 0.0963302
0.0829633 0.168032 0.0948806
0.0873274 0.156252 0.091249
0.101076 0.150393 0.0876936
0.128573 0.148486 0.0851911
0.182605 0.156069 0.0817273
0.259464 0.154406 0.0777447
0.358663 0.158618 0.0801251
0.450065 0.163424 0.0897688
0.537041 0.168399 0.100175
0.609705 0.172229 0.110353
0.662882 0.17348 0.11931
0.710643 0.171923 0.123461
0.759457 0.172107 0.129396
0.793683 0.177676 0.135119
0.819364 0.18291 0.136263
0.842878 0.188556 0.140002
0.861967 0.19295 0.144015
0.871092 0.195514 0.145129
0.871092 0.195514 0.145129
0.871092 0.195514 0.145129
0.871092 0.195514 0.145129
0.871092 0.195514 0.145129
0.871092 0.195514 0.145129
0.871092 0.195514 0.145129
0.871092 0.195514 0.145129
0.871092 0.195514 0.145129
0.871092 0.195514 0.145129
0.871092 0.195514 0.145129
0.0794537 0.263722 0.121157
0.0794842 0.261707 0.120623
0.0794995 0.259709 0.120073
0.0795148 0.257557 0.119493
0.0795453 0.255467 0.118929
0.0795605 0.253315 0.118349
0.0847486 0.223484 0.109148
0.0953994 0.211536 0.10573
0.122179 0.210254 0.10277
0.172595 0.209018 0.0933242
0.252857 0.210025 0.0891585
0.347539 0.209171 0.0902724
0.431418 0.20235 0.0956741
0.514885 0.1991 0.102663
0.598657 0.199924 0.110552
0.654521 0.197055 0.119478
0.704387 0.19173 0.124102
0.743297 0.184726 0.126833
0.785946 0.180468 0.132433
0.817975 0.183078 0.136019
0.842023 0.188357 0.139803
0.861341 0.192798 0.143893
0.871092 0.195514 0.145129
0.871092 0.195514 0.145129
0.871092 0.195514 0.145129
0.871092 0.195514 0.145129
0.871092 0.195514 0.145129
0.871092 0.195514 0.145129
0.871092 0.195514 0.145129
0.871092 0.195514 0.145129
0.871092 0.195514 0.145129
0.871092 0.195514 0.145129
0.871092 0.195514 0.145129
0.0905013 0.328527 0.144289
0.0900282 0.326848 0.143618
0.0895399 0.325154 0.142947
0.0890516 0.323384 0.142245
0.0885481 0.321614 0.141543
0.0880446 0.319844 0.140841
0.0876631 0.315602 0.13901
0.0907607 0.304967 0.134127
0.108644 0.295888 0.126833
0.15436 0.292882 0.120058
0.231067 0.28983 0.10338
0.321279 0.283009 0.100435
0.410941 0.269215 0.106722
0.49546 0.256367 0.11191
0.581827 0.247608 0.118379
0.639307 0.23473 0.119707
0.687617 0.220645 0.125078
0.736751 0.212589 0.129
0.772595 0.205585 0.131456
0.808484 0.195224 0.134188
0.833082 0.193088 0.136599
0.856291 0.196124 0.141726
0.871092 0.195514 0.145129
0.871092 0.195514 0.145129
0.871092 0.195514 0.145129
0.871092 0.195514 0.145129
0.871092 0.195514 0.145129
0.871092 0.195514 0.145129
0.871092 0.195514 0.145129
0.871092 0.195514 0.145129
0.871092 0.195514 0.145129
0.871092 0.195514 0.145129
0.871092 0.195514 0.145129
0.106264 0.38677 0.167437
0.106004 0.385733 0.167025
0.10573 0.384649 0.166583
0.10547 0.383566 0.16614
0.105211 0.382528 0.165728
0.104936 0.38143 0.165286
0.104662 0.380346 0.164843
0.107164 0.379141 0.164157
0.108873 0.360647 0.152285
0.133425 0.35816 0.145083
0.198718 0.353872 0.128374
0.290562 0.35433 0.115099
0.379736 0.343343 0.114946
0.467536 0.32874 0.124468
0.550225 0.313497 0.129992
0.626307 0.300908 0.134081
0.676753 0.284459 0.133654
0.727733 0.267811 0.137148
0.767559 0.250446 0.137438
0.800519 0.238621 0.138506
0.826642 0.224109 0.138552
0.846311 0.215213 0.139925
0.859861 0.210803 0.141238
0.860975 0.204807 0.140948
0.863157 0.202029 0.141619
0.865553 0.201053 0.142626
0.867445 0.199802 0.143404
0.868788 0.198047 0.144121
0.869871 0.196582 0.144686
0.870939 0.195621 0.145083
0.871092 0.195514 0.145129
0.871092 0.195514 0.145129
0.871092 0.195514 0.145129
0.121157 0.442817 0.190448
0.120943 0.442069 0.190158
0.120729 0.44126 0.189837
0.120516 0.440497 0.189532
0.120287 0.439673 0.189212
0.120073 0.438865 0.188891
0.11986 0.438102 0.188586
0.119585 0.437125 0.188205
0.123369 0.43093 0.18497
0.128634 0.41854 0.172213
0.16788 0.419532 0.159182
0.25037 0.41413 0.134417
0.350683 0.415763 0.128664
0.440299 0.402274 0.13138
0.528817 0.392142 0.145174
0.594385 0.371374 0.149538
0.655741 0.357137 0.149844
0.715557 0.346242 0.153246
0.755169 0.323384 0.152132
0.79266 0.303487 0.151385
0.821103 0.287144 0.149935
0.845121 0.272618 0.14844
0.859434 0.258106 0.148638
0.859678 0.248096 0.147082
0.859937 0.240467 0.145663
0.860182 0.234134 0.144442
0.860426 0.228809 0.143389
0.859678 0.224887 0.142702
0.859068 0.221744 0.142153
0.85861 0.219272 0.141726
0.858671 0.217929 0.141604
0.858824 0.217029 0.141543
0.858946 0.216358 0.141512
0.134493 0.490013 0.208774
0.134325 0.489387 0.20853
0.134157 0.488792 0.208316
0.133989 0.488167 0.208087
0.133791 0.487495 0.207828
0.133623 0.486885 0.207599
0.133455 0.486259 0.20737
0.133227 0.485481 0.20708
0.132937 0.484413 0.206683
0.143893 0.481163 0.201236
0.15082 0.471717 0.186542
0.21001 0.471443 0.161563
0.301106 0.470207 0.143587
0.403143 0.470054 0.141253
0.486656 0.453849 0.144106
0.572519 0.446143 0.157778
0.636454 0.430838 0.164538
0.696712 0.422339 0.170001
0.743435 0.40621 0.170855
0.779904 0.386191 0.169345
0.812177 0.365484 0.166583
0.835019 0.346777 0.161807
0.854414 0.334249 0.16054
0.856321 0.3252 0.159136
0.857221 0.31693 0.157763
0.857954 0.309789 0.156558
0.858381 0.303609 0.155566
0.858579 0.298512 0.154772
0.858717 0.294453 0.154147
0.858839 0.29131 0.153674
0.85893 0.288838 0.153292
0.858991 0.286992 0.153017
0.858991 0.285618 0.152804
0.147372 0.534096 0.221927
0.147234 0.533639 0.221805
0.147112 0.533181 0.221668
0.146975 0.532738 0.221546
0.146822 0.53225 0.221408
0.146715 0.531853 0.221286
0.146609 0.531456 0.22118
0.146456 0.530953 0.221042
0.146258 0.530282 0.220844
0.148013 0.528038 0.219913
0.159762 0.524208 0.21062
0.176593 0.515099 0.191241
0.252277 0.515084 0.164614
0.357244 0.525658 0.155093
0.463981 0.522301 0.157839
0.541192 0.50753 0.160357
0.613169 0.500526 0.169848
0.670741 0.487419 0.178119
0.727779 0.480995 0.185092
0.769482 0.465766 0.186725
0.804913 0.450874 0.185428
0.832029 0.436591 0.183886
0.853132 0.424033 0.182513
0.85626 0.414786 0.180591
0.856306 0.406699 0.178622
0.856336 0.399893 0.176959
0.856352 0.394369 0.175601
0.856367 0.389914 0.174517
0.856397 0.386358 0.173648
0.856397 0.383627 0.172976
0.856428 0.38146 0.172457
0.856428 0.379904 0.172076
0.856428 0.378637 0.171756
0.156909 0.574273 0.233448
0.156847 0.573953 0.233356
0.156771 0.573587 0.233249
0.156695 0.573236 0.233143
0.156619 0.572869 0.233051
0.156542 0.572503 0.232944
0.156466 0.572183 0.232853
0.156374 0.571725 0.232731
0.156252 0.571145 0.232563
0.1561 0.570413 0.232364
0.160555 0.561624 0.228595
0.173953 0.560403 0.216114
0.209628 0.552422 0.187716
0.307927 0.558694 0.165057
0.418082 0.570397 0.163867
0.52369 0.56849 0.170733
0.587655 0.557427 0.172335
0.650355 0.551232 0.180346
0.703349 0.541634 0.189746
0.756954 0.536675 0.197101
0.790921 0.521599 0.201083
0.819776 0.510323 0.202457
0.843976 0.500999 0.202792
0.85182 0.493629 0.201724
0.852415 0.487999 0.200198
0.852903 0.483268 0.198917
0.85333 0.479393 0.197864
0.85362 0.476295 0.197009
0.853864 0.473884 0.196353
0.854063 0.471962 0.195819
0.8542 0.470512 0.195422
0.854307 0.469398 0.195117
0.854368 0.468605 0.194888
0.163836 0.607156 0.242802
0.16379 0.606928 0.242741
0.163745 0.606714 0.242679
0.163684 0.606485 0.242603
0.163638 0.606256 0.242542
0.163592 0.606043 0.242481
0.163546 0.605814 0.242405
0.163485 0.605539 0.242329
0.163409 0.605173 0.242222
0.163302 0.604685 0.242084
0.163165 0.604059 0.241901
0.173739 0.595453 0.233814
0.19556 0.593927 0.214832
0.264652 0.59202 0.182116
0.371923 0.600534 0.172244
0.479545 0.60911 0.17377
0.575418 0.61004 0.181704
0.626841 0.602426 0.18201
0.686824 0.59765 0.189929
0.740001 0.595224 0.202564
0.782834 0.585626 0.210376
0.814679 0.574517 0.213962
0.839185 0.565118 0.215061
0.851392 0.559442 0.215763
0.851453 0.555505 0.215061
0.851499 0.552285 0.214496
0.85153 0.54963 0.214023
0.851575 0.547463 0.213642
0.851606 0.545815 0.213336
0.851591 0.544549 0.213107
0.851621 0.543557 0.21294
0.851652 0.542824 0.212818
0.851652 0.542245 0.212696
0.168902 0.632975 0.249683
0.168856 0.632792 0.249638
0.168811 0.632593 0.249592
0.168765 0.632395 0.249546
0.168734 0.632181 0.249485
0.168688 0.631983 0.249439
0.168643 0.631785 0.249393
0.168597 0.63154 0.249332
0.168521 0.631235 0.249256
0.168429 0.630793 0.249149
0.168307 0.630228 0.249012
0.169528 0.62768 0.24802
0.187106 0.624002 0.237675
0.231006 0.626886 0.205325
0.325948 0.629419 0.183139
0.436255 0.636759 0.18114
0.542641 0.64799 0.185153
0.6112 0.648264 0.190784
0.669154 0.646113 0.195392
0.715801 0.638727 0.198901
0.758907 0.632425 0.207691
0.796231 0.624994 0.215259
0.830488 0.621729 0.220691
0.849042 0.61561 0.222202
0.849241 0.612436 0.221912
0.849409 0.609812 0.221683
0.849546 0.607675 0.221485
0.849668 0.605997 0.221347
0.849729 0.604639 0.22121
0.849821 0.603632 0.221134
0.849851 0.602823 0.221057
0.849882 0.602243 0.220996
0.849943 0.601755 0.220966
0.176333 0.661006 0.254795
0.176272 0.660822 0.254765
0.176226 0.660639 0.254719
0.176181 0.660456 0.254688
0.176135 0.660273 0.254658
0.176074 0.660075 0.254627
0.176028 0.659892 0.254582
0.175967 0.659678 0.254551
0.175891 0.659358 0.25449
0.175784 0.658961 0.254414
0.175647 0.658457 0.254322
0.175463 0.657771 0.2542
0.182193 0.65124 0.251225
0.20795 0.652613 0.231052
0.281971 0.65803 0.194308
0.394476 0.668376 0.18854
0.502815 0.681346 0.192691
0.580377 0.685069 0.197742
0.652537 0.686534 0.203006
0.708522 0.685649 0.20763
0.749294 0.681254 0.209873
0.784329 0.676936 0.215183
0.815213 0.671778 0.222095
0.842771 0.668589 0.226703
0.846052 0.665125 0.226902
0.845853 0.662409 0.226535
0.845655 0.660166 0.22623
0.845487 0.658381 0.225986
0.845411 0.657023 0.225818
0.845319 0.65597 0.225666
0.845243 0.655146 0.225559
0.845182 0.65449 0.225467
0.845136 0.654032 0.225406
0.182254 0.689815 0.263706
0.182223 0.689601 0.263615
0.182177 0.689403 0.263554
0.182132 0.689174 0.263462
0.182101 0.68896 0.263371
0.182055 0.688731 0.263294
0.18201 0.688533 0.263218
0.181964 0.688273 0.263111
0.181888 0.687907 0.262974
0.181811 0.687449 0.262806
0.181689 0.686854 0.262592
0.181552 0.686091 0.262287
0.181353 0.685084 0.261921
0.199512 0.679088 0.252049
0.248829 0.68043 0.216724
0.347082 0.686976 0.192599
0.45919 0.701167 0.196017
0.556252 0.712444 0.202258
0.62208 0.712535 0.206943
0.689158 0.716701 0.211872
0.739681 0.717739 0.216449
0.777218 0.718425 0.219059
0.806577 0.717281 0.222049
0.832074 0.713787 0.227863
0.842603 0.711192 0.230213
0.842634 0.709453 0.230137
0.842664 0.708003 0.230076
0.842695 0.706874 0.23003
0.84271 0.706004 0.229984
0.842725 0.705303 0.229953
0.842725 0.704768 0.229923
0.842741 0.704387 0.229908
0.842786 0.704097 0.229908
0.186648 0.714046 0.270405
0.186618 0.713924 0.27039
0.186587 0.713771 0.270375
0.186572 0.713634 0.270359
0.186542 0.713497 0.270359
0.186511 0.713344 0.270344
0.186481 0.713222 0.270329
0.186465 0.713054 0.270314
0.186419 0.712825 0.270283
0.186358 0.712535 0.270253
0.186297 0.712154 0.270207
0.186206 0.71165 0.270161
0.186084 0.711025 0.2701
0.195315 0.703899 0.264668
0.230442 0.703502 0.236271
0.320897 0.709941 0.204166
0.42298 0.718563 0.197818
0.51693 0.730816 0.204044
0.609216 0.739635 0.21236
0.667964 0.738506 0.215213
0.723903 0.745953 0.219699
0.768277 0.748409 0.223758
0.801923 0.748943 0.226642
0.826215 0.747326 0.22948
0.843214 0.745525 0.232197
0.843168 0.744045 0.232059
0.843137 0.74287 0.231937
0.843061 0.741939 0.231846
0.84303 0.741192 0.231769
0.843015 0.740658 0.231724
0.843 0.740215 0.231678
0.843 0.739895 0.231662
0.843 0.739651 0.231647
0.190494 0.733639 0.272435
0.190463 0.733501 0.272419
0.190448 0.733364 0.272404
0.190417 0.733227 0.272389
0.190387 0.733089 0.272374
0.190356 0.732952 0.272374
0.190326 0.732815 0.272358
0.190295 0.732631 0.272328
0.190249 0.732418 0.272312
0.190188 0.732113 0.272282
0.190112 0.731731 0.272236
0.190021 0.731228 0.27219
0.189899 0.730571 0.272114
0.189822 0.729625 0.271992
0.218311 0.720638 0.253681
0.295964 0.730053 0.212879
0.39855 0.738201 0.204334
0.498482 0.751019 0.207202
0.594888 0.76405 0.216342
0.659709 0.765957 0.221042
0.712215 0.770901 0.227237
0.759609 0.774609 0.23093
0.796567 0.776211 0.23389
0.820706 0.776638 0.236194
0.840223 0.775097 0.238071
0.84332 0.773587 0.23801
0.843214 0.772335 0.237629
0.843091 0.771328 0.237324
0.843015 0.770581 0.237095
0.842969 0.769955 0.236912
0.842924 0.769497 0.236774
0.842893 0.769162 0.236667
0.842878 0.768933 0.236606
0.196063 0.75108 0.271336
0.196002 0.750942 0.271366
0.195941 0.750805 0.271397
0.19588 0.750683 0.271427
0.195819 0.750546 0.271473
0.195743 0.750408 0.271504
0.195682 0.750271 0.27155
0.195605 0.750118 0.27158
0.195499 0.749905 0.271641
0.195361 0.749615 0.271717
0.195178 0.749233 0.271824
0.194965 0.74876 0.271946
0.194659 0.74815 0.272099
0.194293 0.747372 0.272312
0.213138 0.741085 0.264149
0.272572 0.744335 0.223362
0.38323 0.755611 0.209308
0.480629 0.766293 0.211307
0.573831 0.778836 0.217563
0.645396 0.784924 0.224201
0.700008 0.789853 0.230533
0.746319 0.79379 0.236057
0.786145 0.795819 0.239353
0.813092 0.79736 0.241901
0.833097 0.798428 0.244022
0.841993 0.797925 0.244724
0.842039 0.796963 0.24445
0.842115 0.796231 0.244236
0.842176 0.795636 0.244068
0.842206 0.795178 0.243946
0.842237 0.794858 0.243854
0.842268 0.794583 0.243778
0.842283 0.7944 0.243717
0.205554 0.769146 0.26598
0.205493 0.769024 0.266011
0.205417 0.768887 0.266041
0.205356 0.768765 0.266072
0.20528 0.768627 0.266117
0.205219 0.768505 0.266148
0.205142 0.768368 0.266194
0.205066 0.768215 0.266224
0.204944 0.767987 0.266285
0.204807 0.767727 0.266361
0.204623 0.767361 0.266468
0.204288 0.766735 0.266651
0.203861 0.765942 0.266896
0.203296 0.76492 0.267216
0.208743 0.755642 0.270207
0.26125 0.755703 0.237949
0.360723 0.768124 0.213626
0.468238 0.780255 0.215427
0.55584 0.790967 0.218952
0.632303 0.799908 0.227253
0.689067 0.8047 0.232273
0.73579 0.809735 0.238605
0.776303 0.81268 0.242863
0.80705 0.815076 0.245609
0.827787 0.81651 0.247822
0.841703 0.816983 0.249256
0.841703 0.816098 0.249073
0.841657 0.815396 0.24892
0.841657 0.814801 0.248783
0.841657 0.814389 0.248692
0.841657 0.814069 0.248615
0.841657 0.813825 0.248569
0.841657 0.813642 0.248524
0.207401 0.772656 0.265003
0.207401 0.772656 0.265003
0.207401 0.772656 0.265003
0.207401 0.772656 0.265003
0.207401 0.772656 0.265003
0.207401 0.772656 0.265003
0.207401 0.772656 0.265003
0.207401 0.772656 0.265003
0.207401 0.772656 0.265003
0.207401 0.772656 0.265003
0.207401 0.772656 0.265003
0.207401 0.772656 0.265003
0.207401 0.772656 0.265003
0.207401 0.772656 0.265003
0.20882 0.769253 0.265812
0.25243 0.761807 0.247471
0.344457 0.776089 0.217655
0.454154 0.789715 0.21738
0.548882 0.803143 0.222477
0.621271 0.811093 0.228656
0.679805 0.8168 0.23476
0.727123 0.822049 0.239948
0.768048 0.826215 0.24538
0.799969 0.828748 0.248478
0.82295 0.831144 0.25069
0.839841 0.832334 0.25243
0.841917 0.831708 0.252491
0.841932 0.831006 0.252338
0.841886 0.830488 0.252216
0.841886 0.83006 0.252125
0.841886 0.82974 0.252064
0.841886 0.829511 0.252003
0.841886 0.829328 0.251972
0.207401 0.772656 0.265003
0.207401 0.772656 0.265003
0.207401 0.772656 0.265003
0.207401 0.772656 0.265003
0.207401 0.772656 0.265003
0.207401 0.772656 0.265003
0.207401 0.772656 0.265003
0.207401 0.772656 0.265003
0.207401 0.772656 0.265003
0.207401 0.772656 0.265003
0.207401 0.772656 0.265003
0.207401 0.772656 0.265003
0.207401 0.772656 0.265003
0.207401 0.772656 0.265003
0.207401 0.772656 0.265003
0.242481 0.762142 0.252781
0.330114 0.774243 0.219226
0.439994 0.787396 0.216541
0.540337 0.803174 0.222507
0.613321 0.81268 0.228138
0.673182 0.820325 0.23534
0.720729 0.827253 0.24036
0.761837 0.833051 0.246128
0.794446 0.837476 0.250263
0.817685 0.841215 0.252842
0.835859 0.843915 0.254765
0.841733 0.843885 0.255238
0.841779 0.843259 0.255085
0.84181 0.842771 0.254978
0.84184 0.84239 0.254887
0.84181 0.842069 0.25481
0.841825 0.841856 0.254749
0.84184 0.841703 0.254719
0.207401 0.772656 0.265003
0.207401 0.772656 0.265003
0.207401 0.772656 0.265003
0.207401 0.772656 0.265003
0.207401 0.772656 0.265003
0.207401 0.772656 0.265003
0.207401 0.772656 0.265003
0.207401 0.772656 0.265003
0.207401 0.772656 0.265003
0.207401 0.772656 0.265003
0.207401 0.772656 0.265003
0.207401 0.772656 0.265003
0.207401 0.772656 0.265003
0.207401 0.772656 0.265003
0.207401 0.772656 0.265003
0.2336 0.762402 0.258671
0.318013 0.772732 0.22063
0.428885 0.785779 0.216144
0.532891 0.802228 0.222232
0.607034 0.811856 0.227283
0.668193 0.819593 0.234867
0.716075 0.826581 0.239734
0.757504 0.832471 0.245518
0.790951 0.836912 0.249851
0.814359 0.84065 0.252476
0.832792 0.843656 0.254459
0.841703 0.844907 0.255467
0.841703 0.844907 0.255467
