modules/camera-engine/ios/LUTs/panasonic-txd-rag-film-cned2.cube
# Created by Adobe Lightroom plugin Export LUT (1.24.0)
# www.johnrellis.com/lightroom/exportlut.htm
# Photo: 兔小呆 电影动态范围2测试样片 (8).jpg
# Color profile: C:\Program Files (x86)\Common Files\Adobe\Color\Profiles\Recommended\sRGB Color Space Profile.icm
LUT_3D_SIZE 5
DOMAIN_MIN 0.0 0.0 0.0
DOMAIN_MAX 1.0 1.0 1.0
0.057588 0.047486 0.049805
0.168002 0.056001 0.039826
0.497505 0.056977 0.011566
0.891600 0.054047 0.003784
1.000000 0.305486 0.000000
0.035584 0.120729 0.068360
0.138918 0.131777 0.053956
0.511162 0.221042 0.000000
0.888304 0.300755 0.000000
1.000000 0.450568 0.000000
0.000000 0.414435 0.155459
0.000000 0.422675 0.160922
0.441413 0.506950 0.041993
0.842557 0.633692 0.000000
1.000000 0.720180 0.127016
0.000000 0.706020 0.403571
0.202640 0.708797 0.431647
0.458564 0.728695 0.474434
0.770565 0.785885 0.469276
0.970886 0.845640 0.498817
0.553185 0.903655 0.700496
0.592920 0.905028 0.711788
0.679438 0.909758 0.734463
0.789273 0.922545 0.752651
0.932921 0.942809 0.747402
0.104067 0.037354 0.129000
0.178866 0.041993 0.112154
0.504173 0.003723 0.118288
0.877195 0.034760 0.108492
1.000000 0.278935 0.114443
0.000000 0.138796 0.135744
0.158511 0.140688 0.137209
0.509270 0.162417 0.122530
0.884977 0.244236 0.112398
1.000000 0.415625 0.146670
0.000000 0.422766 0.218936
0.000000 0.429908 0.242466
0.463691 0.501518 0.230259
0.838376 0.627924 0.197482
1.000000 0.702663 0.301762
0.000000 0.708492 0.449348
0.276066 0.712459 0.480781
0.497688 0.729763 0.529137
0.777096 0.783810 0.541924
0.970611 0.846952 0.561669
0.543755 0.905913 0.706416
0.589014 0.907500 0.719203
0.684108 0.912200 0.745388
0.793362 0.924041 0.766079
0.935149 0.943694 0.762966
0.192660 0.009186 0.381842
0.381140 0.009186 0.409369
0.599115 0.013245 0.361547
0.921355 0.031342 0.402838
1.000000 0.181827 0.367712
0.000000 0.129854 0.394141
0.223209 0.120302 0.420020
0.597803 0.161929 0.399817
0.886290 0.241489 0.428229
1.000000 0.309453 0.391485
0.000000 0.445045 0.440803
0.000000 0.455055 0.450080
0.484199 0.482918 0.477668
0.819059 0.530755 0.474769
1.000000 0.621057 0.513909
0.000000 0.720027 0.510918
0.092653 0.717861 0.537133
0.549554 0.732815 0.623194
0.783688 0.783200 0.669429
0.973358 0.845670 0.665797
0.440711 0.912871 0.710811
0.525078 0.913603 0.728725
0.678767 0.920653 0.769284
0.803952 0.928771 0.799924
0.940856 0.946380 0.802884
0.255741 0.030030 0.691890
0.453132 0.033906 0.717281
0.851591 0.043458 0.739925
0.964294 0.106508 0.669093
1.000000 0.454170 0.682185
0.052094 0.081819 0.685817
0.293828 0.031250 0.703670
0.812497 0.250401 0.748959
0.933349 0.348302 0.690700
1.000000 0.544396 0.713710
0.000000 0.391821 0.707088
0.000000 0.385504 0.707027
0.555291 0.437507 0.735470
0.867185 0.598932 0.733120
1.000000 0.665156 0.752102
0.000000 0.745388 0.742702
0.000000 0.746670 0.744991
0.261112 0.736049 0.733700
0.773953 0.762783 0.767788
0.990051 0.788083 0.755520
0.000000 0.941253 0.729183
0.000000 0.932921 0.736110
0.462318 0.929381 0.772030
0.809110 0.940124 0.841764
0.951446 0.951965 0.863188
0.363409 0.047730 0.872129
0.555383 0.058930 0.891325
0.948943 0.108644 0.912749
1.000000 0.527184 0.886320
1.000000 0.513878 0.837736
0.198215 0.043183 0.871183
0.480934 0.054719 0.884794
0.906523 0.246281 0.913054
1.000000 0.576135 0.891356
1.000000 0.573999 0.846647
0.000000 0.240391 0.874479
0.000000 0.234043 0.874601
0.689052 0.379400 0.914061
1.000000 0.670253 0.910674
1.000000 0.695216 0.868894
0.000000 0.688380 0.934478
0.000000 0.673945 0.934844
0.000000 0.670741 0.933806
0.842985 0.718563 0.938201
1.000000 0.827054 0.897704
0.000000 0.983032 0.926574
0.000000 0.983032 0.926909
0.000000 0.983032 0.926635
0.486397 0.976715 0.924163
0.976135 0.965270 0.925719
