modules/camera-engine/ios/LUTs/panasonic-warm-village.cube
TITLE "Generated by Resolve"
LUT_3D_SIZE 5
0.0386816 0.0213931 0.0218814
0.218616 0.0365454 0.0263676
0.738384 0.04065 0.0319677
0.864256 0.0437629 0.033402
0.864256 0.0437629 0.033402
0.0610666 0.120455 0.0379339
0.128817 0.10956 0.0303349
0.724804 0.0402991 0.0317082
0.864256 0.0437629 0.033402
0.864256 0.0437629 0.033402
0.136217 0.611521 0.108675
0.135576 0.606119 0.108217
0.681468 0.603738 0.0485389
0.897047 0.525277 0.0344549
0.895491 0.500099 0.0324559
0.155566 0.809644 0.123354
0.155566 0.809644 0.123354
0.155566 0.809644 0.123354
0.894682 0.819654 0.0726329
0.90927 0.811841 0.0733349
0.155566 0.809644 0.123354
0.155566 0.809644 0.123354
0.155566 0.809644 0.123354
0.868055 0.833631 0.0713817
0.908858 0.829786 0.0734874
0.0356298 0.0240787 0.0704509
0.205188 0.0493935 0.102464
0.752743 0.0683604 0.114366
0.875273 0.0566415 0.0771496
0.872328 0.0534371 0.0664683
0.0587167 0.108537 0.0908522
0.116258 0.104936 0.0959335
0.736385 0.059678 0.0920882
0.869413 0.0505074 0.0563058
0.866758 0.047364 0.045594
0.135729 0.607202 0.108309
0.135088 0.601785 0.107897
0.678111 0.599588 0.048127
0.896635 0.519081 0.0339055
0.895094 0.492973 0.0320134
0.155566 0.809644 0.123354
0.155566 0.809644 0.123354
0.155566 0.809644 0.123354
0.89337 0.818006 0.0725109
0.9093 0.809934 0.0733196
0.155566 0.809644 0.123354
0.155566 0.809644 0.123354
0.155566 0.809644 0.123354
0.866697 0.833936 0.0713054
0.908858 0.829786 0.0734874
0.0523079 0.0738079 0.318395
0.101915 0.0766766 0.351308
0.726268 0.140124 0.572168
0.879316 0.134157 0.539178
0.87953 0.133684 0.535531
0.0527047 0.0769665 0.316136
0.0519875 0.072694 0.312276
0.710735 0.139452 0.567361
0.879774 0.133135 0.531884
0.879988 0.13257 0.52813
0.10901 0.506401 0.457969
0.108293 0.499123 0.45539
0.643412 0.635218 0.610864
0.899428 0.555245 0.500664
0.89865 0.529641 0.493568
0.125719 0.791363 0.42417
0.125689 0.791455 0.422934
0.125536 0.791943 0.416388
0.888411 0.858839 0.481682
0.91281 0.851331 0.464591
0.125002 0.793194 0.399496
0.124956 0.793317 0.398032
0.124804 0.793851 0.390829
0.873549 0.890593 0.441871
0.913741 0.878309 0.43154
0.0605631 0.119844 0.611551
0.0605173 0.119768 0.611078
0.642527 0.230396 0.771054
0.852354 0.227481 0.822095
0.852461 0.226978 0.821118
0.0604105 0.119402 0.608927
0.0603799 0.119356 0.608454
0.624323 0.2262 0.765682
0.852567 0.226429 0.820096
0.852674 0.225849 0.81912
0.105714 0.462577 0.671534
0.104662 0.456168 0.670054
0.573083 0.596841 0.820386
0.886137 0.524804 0.820478
0.88159 0.487495 0.816831
0.149752 0.751659 0.70042
0.149554 0.749783 0.700114
0.148562 0.740368 0.698528
0.881743 0.886793 0.86714
0.918029 0.878355 0.857374
0.149432 0.755734 0.694652
0.149401 0.755795 0.694362
0.149279 0.756115 0.692882
0.849577 0.921294 0.852476
0.922087 0.930144 0.844236
0.0606851 0.120165 0.613886
0.0606851 0.120165 0.613886
0.633387 0.229435 0.772183
0.850752 0.231189 0.82797
0.850752 0.231189 0.82797
0.0606851 0.120165 0.613886
0.0606851 0.120165 0.613886
0.614069 0.22504 0.768368
0.850752 0.231189 0.82797
0.850752 0.231189 0.82797
0.103258 0.448295 0.682063
0.102129 0.441596 0.680903
0.551324 0.578561 0.828611
0.880598 0.49929 0.83946
0.874067 0.455161 0.836118
0.151843 0.752575 0.73547
0.151659 0.751034 0.735759
0.150515 0.742809 0.737057
0.875319 0.882109 0.907607
0.917189 0.877867 0.907942
0.152575 0.759045 0.734401
0.152575 0.759045 0.734401
0.152575 0.759045 0.734401
0.841413 0.918135 0.902464
0.921294 0.934264 0.909239
