modules/camera-engine/ios/LUTs/panasonic-forest-green-cool.cube
TITLE "Generated by Resolve"
LUT_3D_SIZE 5
0.00662242 0.00927749 0.00830091
0.122927 0.0170138 0.0136416
0.556695 0.144686 0.0447242
0.825559 0.431373 0.12549
0.826352 0.431846 0.126543
0.0159457 0.101183 0.0487831
0.0653391 0.116533 0.0485542
0.619638 0.188998 0.0573739
0.815442 0.415946 0.122438
0.815641 0.416129 0.122408
0.190356 0.559808 0.447166
0.230365 0.609689 0.4972
0.55108 0.647089 0.431006
0.884657 0.585092 0.225299
0.880705 0.606012 0.22298
0.30988 0.807126 0.774227
0.309392 0.806882 0.773205
0.302419 0.806104 0.764614
0.850614 0.944137 0.784985
0.855421 0.944152 0.789197
0.311299 0.80737 0.77615
0.309865 0.807126 0.774212
0.305272 0.805829 0.762524
0.84361 0.944106 0.778943
0.855421 0.944152 0.789197
0.00534066 0.0239719 0.0801709
0.127977 0.0296483 0.0709697
0.574609 0.135256 0.0619821
0.829389 0.432593 0.13138
0.830274 0.432776 0.132998
0.017258 0.10161 0.0814832
0.0819104 0.10663 0.0935683
0.634501 0.203357 0.0771344
0.826474 0.431998 0.126833
0.827039 0.431983 0.127672
0.198795 0.571084 0.465248
0.224521 0.623362 0.516182
0.567773 0.664912 0.439216
0.883391 0.593133 0.22356
0.877913 0.618357 0.224933
0.311025 0.80737 0.775891
0.310536 0.807126 0.775113
0.302403 0.806104 0.76437
0.852781 0.944137 0.787274
0.855421 0.944152 0.789197
0.312428 0.807614 0.778485
0.311238 0.807355 0.776287
0.302831 0.806088 0.762936
0.843107 0.944076 0.7785
0.855421 0.944152 0.789197
0.0439002 0.243259 0.452537
0.124178 0.248341 0.466712
0.594781 0.0910506 0.377707
0.875135 0.451179 0.190127
0.881453 0.440116 0.193973
0.0391546 0.231968 0.430594
0.0576791 0.264652 0.480415
0.695613 0.114916 0.48925
0.883741 0.209842 0.28423
0.890898 0.197024 0.454597
0.0390021 0.547189 0.54667
0.0426795 0.599527 0.607965
0.626261 0.62089 0.644633
0.922972 0.524056 0.556741
0.927001 0.583764 0.681041
0.319036 0.810559 0.791745
0.321599 0.811673 0.797177
0.311833 0.807446 0.777813
0.857267 0.924651 0.853254
0.867506 0.929335 0.872724
0.330312 0.815335 0.811643
0.330648 0.815274 0.812375
0.313603 0.808316 0.780865
0.828107 0.918517 0.844892
0.864652 0.929137 0.874434
0.12166 0.529015 0.785183
0.121401 0.526879 0.783307
0.333516 0.58407 0.843122
0.968933 0.464485 1
0.899855 0.502571 0.939437
0.121767 0.529534 0.785412
0.121981 0.530983 0.786725
0.414069 0.701778 0.954711
0.865843 0.548775 0.906065
0.842359 0.555169 0.881666
0.1243 0.543847 0.778988
0.127138 0.55761 0.788388
0.337865 0.593439 0.832776
0.870146 0.611902 0.913771
0.869337 0.6486 0.917357
0.0587167 0.963699 0.98529
0.00407416 0.988357 0.998016
0.0659495 0.952285 0.982254
0.906432 0.91986 1
0.916182 0.917876 1
0.000244144 1 0.99794
0.000244144 1 0.99794
0.0538033 0.967407 0.987396
0.903792 0.928588 1
0.924559 0.937591 1
0.122179 0.532311 0.787747
0.122179 0.532601 0.788281
0.332769 0.595468 0.847303
0.842176 0.555261 0.881468
0.842176 0.555261 0.881468
0.122179 0.532311 0.787762
0.122179 0.532326 0.787778
0.429282 0.731167 0.980301
0.842176 0.555261 0.881468
0.842176 0.555261 0.881468
0.126131 0.558526 0.796307
0.128496 0.565866 0.798215
0.332967 0.588373 0.826871
0.844862 0.631815 0.889113
0.852842 0.662272 0.901076
0.000244144 1 0.99794
0.000244144 1 0.99794
0.000244144 1 0.99794
0.899886 0.912703 1
0.915434 0.91986 1
0.000244144 1 0.99794
0.000244144 1 0.99794
0.000244144 1 0.99794
0.884382 0.9308 1
0.928069 0.940383 1
