modules/camera-engine/ios/LUTs/panasonic-camping-vibe.cube
TITLE "Generated by Resolve"
LUT_3D_SIZE 5
0.112444 0.0948653 0.0856031
0.246433 0.133104 0.0891127
0.783261 0.250065 0.0944991
0.869062 0.253834 0.0968795
0.869062 0.253834 0.0968795
0.112444 0.162768 0.0597391
0.14728 0.142412 0.0436408
0.766339 0.248417 0.094316
0.869062 0.253834 0.0968795
0.869062 0.253834 0.0968795
0.173892 0.537881 0.165331
0.172625 0.531746 0.164065
0.671977 0.651713 0.259525
0.870619 0.459358 0.188373
0.87274 0.432319 0.176532
0.207828 0.729763 0.174945
0.207828 0.729763 0.174945
0.207828 0.729763 0.174945
0.916152 0.859907 0.315328
0.924987 0.848066 0.3066
0.207828 0.729763 0.174945
0.207828 0.729763 0.174945
0.207828 0.729763 0.174945
0.898405 0.885237 0.325643
0.924544 0.859464 0.307927
0.0874495 0.0770581 0.124086
0.234714 0.121782 0.132769
0.78706 0.251911 0.113466
0.872877 0.255772 0.105776
0.872389 0.255207 0.102617
0.114824 0.165026 0.128176
0.129992 0.134676 0.108217
0.766705 0.24979 0.102068
0.872496 0.252018 0.100343
0.870039 0.255009 0.100114
0.172885 0.532982 0.164309
0.171633 0.526818 0.163073
0.664668 0.644694 0.256977
0.870893 0.452277 0.18526
0.87361 0.425406 0.173617
0.207828 0.729763 0.174945
0.207828 0.729763 0.174945
0.207828 0.729763 0.174945
0.915358 0.859907 0.316014
0.925185 0.846311 0.305943
0.207828 0.729763 0.174945
0.207828 0.729763 0.174945
0.207828 0.729763 0.174945
0.897017 0.886 0.325673
0.924544 0.859464 0.307927
0.153338 0.306172 0.631678
0.165682 0.30309 0.630457
0.815045 0.377752 0.630976
0.931487 0.368978 0.543755
0.931121 0.368795 0.537499
0.149874 0.303258 0.624247
0.150896 0.304173 0.62269
0.795407 0.37586 0.622492
0.93077 0.368612 0.531228
0.930404 0.368429 0.52488
0.371069 0.659876 0.707683
0.369467 0.654002 0.707988
0.560449 0.630976 0.679622
0.916762 0.437385 0.447974
0.919646 0.415106 0.437324
0.228519 0.745235 0.340032
0.227771 0.744991 0.336446
0.223987 0.743709 0.318227
0.909468 0.86482 0.401694
0.925429 0.847059 0.393408
0.21825 0.740383 0.283665
0.217929 0.740108 0.2813
0.21767 0.738598 0.273548
0.878416 0.890623 0.389242
0.926986 0.865705 0.381979
0.227405 0.375692 0.833692
0.227405 0.375692 0.833524
0.706798 0.370428 0.869276
0.92639 0.415442 0.875654
0.92639 0.415442 0.87512
0.227405 0.375692 0.832624
0.227405 0.375692 0.832441
0.664485 0.367819 0.861799
0.92639 0.415442 0.874571
0.92639 0.415442 0.874022
0.343984 0.586038 0.870344
0.340887 0.576959 0.868238
0.418097 0.517021 0.840726
0.921386 0.461707 0.867826
0.92372 0.44802 0.86743
0.444617 0.864332 0.882109
0.444617 0.863142 0.881926
0.444617 0.857069 0.88098
0.885878 0.895994 0.911269
0.920607 0.890578 0.909743
0.444617 0.866545 0.878584
0.444617 0.866545 0.878401
0.444617 0.866545 0.87744
0.838453 0.919203 0.902937
0.922393 0.923491 0.908385
0.227405 0.375692 0.834821
0.227405 0.375692 0.834821
0.6869 0.369253 0.868544
0.92639 0.415442 0.879637
0.92639 0.415442 0.879637
0.227405 0.375692 0.834821
0.227405 0.375692 0.834821
0.643229 0.366033 0.862196
0.92639 0.415442 0.879637
0.92639 0.415442 0.879637
0.33431 0.563226 0.870726
0.327825 0.55172 0.865766
0.387335 0.494285 0.844709
0.92311 0.450767 0.878386
0.925566 0.438987 0.878355
0.444617 0.861402 0.901152
0.444617 0.860212 0.901152
0.444251 0.853803 0.901839
0.880644 0.892607 0.932799
0.919982 0.88571 0.932311
0.444617 0.866545 0.901152
0.444617 0.866545 0.901152
0.444617 0.866545 0.901152
0.834089 0.920623 0.927916
0.922789 0.923644 0.93518
