modules/camera-engine/ios/LUTs/panasonic-txd-grainy-film.cube
# Created by Adobe Lightroom plugin Export LUT (1.24.0)
# www.johnrellis.com/lightroom/exportlut.htm
# Photo: P1015911 拷贝.jpg
# Color profile: C:\Program Files (x86)\Common Files\Adobe\Color\Profiles\Recommended\sRGB Color Space Profile.icm
LUT_3D_SIZE 33
DOMAIN_MIN 0.0 0.0 0.0
DOMAIN_MAX 1.0 1.0 1.0
0.094728 0.099367 0.084199
0.090150 0.099611 0.084260
0.069490 0.100618 0.084474
0.042756 0.101167 0.084779
0.022278 0.099611 0.085267
0.015412 0.097963 0.085328
0.022858 0.096864 0.084901
0.047486 0.096559 0.084382
0.084077 0.097322 0.083131
0.125124 0.099092 0.081086
0.171511 0.102083 0.077790
0.223606 0.104891 0.072786
0.281224 0.108217 0.065614
0.344884 0.110079 0.055848
0.413764 0.110567 0.041779
0.485603 0.109224 0.023499
0.558160 0.105318 0.002625
0.629175 0.099825 0.000000
0.695399 0.093019 0.000000
0.755795 0.084810 0.000000
0.811398 0.077485 0.000000
0.857847 0.072480 0.000000
0.897002 0.070985 0.000000
0.931731 0.071290 0.000000
0.962921 0.074922 0.000000
0.991119 0.081514 0.000000
1.000000 0.090242 0.000000
1.000000 0.101442 0.000000
1.000000 0.114290 0.000000
1.000000 0.128237 0.000000
1.000000 0.143587 0.000000
1.000000 0.159884 0.000000
1.000000 0.177005 0.000000
0.095521 0.096101 0.083101
0.091432 0.094911 0.083619
0.074037 0.091890 0.084443
0.052644 0.090730 0.084657
0.033112 0.090791 0.084627
0.023651 0.091371 0.084382
0.028199 0.092073 0.083955
0.050111 0.093385 0.082979
0.084504 0.095460 0.081544
0.125032 0.098268 0.078676
0.170535 0.101686 0.074800
0.221836 0.105837 0.069368
0.279149 0.110201 0.061738
0.342748 0.113649 0.051484
0.411231 0.115633 0.037201
0.482918 0.115694 0.018982
0.555169 0.113588 0.000000
0.625940 0.110262 0.000000
0.692500 0.104677 0.000000
0.753933 0.098848 0.000000
0.808896 0.093874 0.000000
0.855161 0.089540 0.000000
0.894621 0.087800 0.000000
0.929564 0.088411 0.000000
0.960876 0.091493 0.000000
0.989105 0.096956 0.000000
1.000000 0.104738 0.000000
1.000000 0.113863 0.000000
1.000000 0.125521 0.000000
1.000000 0.138521 0.000000
1.000000 0.152804 0.000000
1.000000 0.168032 0.000000
1.000000 0.184115 0.000000
0.098848 0.084474 0.079835
0.091890 0.086610 0.079683
0.080964 0.083375 0.082307
0.060151 0.081941 0.083650
0.043153 0.081941 0.083619
0.032319 0.084016 0.083192
0.035370 0.086427 0.082277
0.054902 0.089174 0.080842
0.087129 0.092653 0.078584
0.126162 0.096590 0.075257
0.171023 0.101472 0.071290
0.221836 0.106996 0.065309
0.278935 0.112795 0.057313
0.342138 0.117861 0.046418
0.410285 0.121279 0.031312
0.481483 0.122805 0.013397
0.553582 0.122560 0.000000
0.623926 0.120516 0.000000
0.690608 0.116823 0.000000
0.752346 0.112856 0.000000
0.806424 0.109163 0.000000
0.852262 0.105989 0.000000
0.891386 0.104463 0.000000
0.926085 0.105135 0.000000
0.957305 0.107485 0.000000
0.985718 0.111635 0.000000
1.000000 0.118135 0.000000
1.000000 0.126314 0.000000
1.000000 0.136355 0.000000
1.000000 0.147829 0.000000
1.000000 0.160861 0.000000
1.000000 0.175235 0.000000
1.000000 0.190311 0.000000
0.097688 0.074037 0.075380
0.090547 0.076387 0.075502
0.084321 0.076326 0.075349
0.071534 0.073457 0.078279
0.052399 0.073548 0.079133
0.042969 0.075441 0.078706
0.044953 0.078981 0.077638
0.060578 0.083711 0.076204
0.089693 0.089082 0.073976
0.126802 0.095003 0.070802
0.170352 0.101930 0.066224
0.220157 0.109621 0.060212
0.276738 0.117250 0.051972
0.339239 0.124025 0.040223
0.406897 0.129183 0.024781
0.478096 0.132692 0.006073
0.550500 0.134646 0.000000
0.621546 0.134524 0.000000
0.688258 0.133120 0.000000
0.750820 0.130648 0.000000
0.804196 0.128115 0.000000
0.849729 0.126070 0.000000
0.888914 0.125460 0.000000
0.923857 0.125338 0.000000
0.955383 0.127230 0.000000
0.983886 0.131044 0.000000
1.000000 0.136141 0.000000
1.000000 0.143008 0.000000
1.000000 0.151919 0.000000
1.000000 0.162142 0.000000
1.000000 0.173648 0.000000
1.000000 0.186557 0.000000
1.000000 0.201114 0.000000
0.091981 0.066529 0.070008
0.087465 0.068147 0.070222
0.082124 0.070405 0.069429
0.077089 0.068574 0.070069
0.064759 0.066468 0.072724
0.051026 0.068482 0.073274
0.051789 0.072663 0.072419
0.066163 0.078462 0.070710
0.092287 0.086122 0.068360
0.127291 0.094575 0.064851
0.169558 0.103944 0.060243
0.218540 0.113771 0.053529
0.274388 0.123293 0.044465
0.336553 0.132357 0.031342
0.404028 0.139773 0.016083
0.475166 0.145663 0.000000
0.547234 0.149722 0.000000
0.618128 0.151888 0.000000
0.685878 0.152621 0.000000
0.747585 0.151827 0.000000
0.800443 0.150607 0.000000
0.845914 0.149630 0.000000
0.885283 0.148684 0.000000
0.920745 0.148867 0.000000
0.952636 0.150362 0.000000
0.981537 0.153567 0.000000
1.000000 0.157778 0.000000
1.000000 0.163577 0.000000
1.000000 0.170932 0.000000
1.000000 0.180087 0.000000
1.000000 0.190463 0.000000
1.000000 0.202365 0.000000
1.000000 0.215579 0.000000
0.086244 0.061677 0.065064
0.083070 0.062776 0.065309
0.079835 0.063874 0.065248
0.075044 0.065522 0.064149
0.070405 0.063783 0.065461
0.061738 0.062776 0.066743
0.057862 0.067720 0.066773
0.069429 0.075196 0.065156
0.093843 0.084810 0.062348
0.127565 0.096559 0.058350
0.169039 0.108248 0.053101
0.217563 0.120485 0.045441
0.273045 0.132723 0.034791
0.335027 0.144015 0.021393
0.402716 0.153719 0.005219
0.473732 0.161959 0.000000
0.546075 0.168032 0.000000
0.616815 0.172396 0.000000
0.685115 0.175204 0.000000
0.745693 0.176028 0.000000
0.797971 0.175784 0.000000
0.843229 0.175235 0.000000
0.882750 0.174685 0.000000
0.918334 0.174716 0.000000
0.950347 0.176211 0.000000
0.995148 0.184146 0.000000
1.000000 0.188144 0.000000
1.000000 0.193362 0.000000
1.000000 0.199924 0.000000
1.000000 0.207828 0.000000
1.000000 0.217350 0.000000
1.000000 0.228000 0.000000
1.000000 0.240269 0.000000
0.077790 0.061006 0.060700
0.075776 0.061280 0.060731
0.073854 0.061555 0.060395
0.071138 0.062226 0.060029
0.068238 0.062257 0.059388
0.065309 0.062593 0.059754
0.062806 0.065461 0.060426
0.074739 0.075380 0.058595
0.099214 0.087648 0.055360
0.133150 0.101991 0.050660
0.175937 0.118471 0.043122
0.225650 0.134432 0.033448
0.282353 0.148989 0.021210
0.345647 0.162661 0.006165
0.414191 0.174624 0.000000
0.486122 0.184848 0.000000
0.558495 0.192996 0.000000
0.631128 0.199557 0.000000
0.700801 0.204227 0.000000
0.760525 0.206210 0.000000
0.811643 0.206668 0.000000
0.855619 0.206455 0.000000
0.894102 0.206424 0.000000
0.928740 0.206699 0.000000
0.960021 0.208011 0.000000
0.988434 0.210025 0.000000
1.000000 0.213138 0.000000
1.000000 0.217624 0.000000
1.000000 0.223178 0.000000
1.000000 0.230228 0.000000
1.000000 0.238499 0.000000
1.000000 0.248295 0.000000
1.000000 0.259342 0.000000
0.068177 0.065583 0.057801
0.067536 0.065034 0.057527
0.066407 0.064546 0.056916
0.065278 0.064027 0.056306
0.064332 0.063172 0.055726
0.062928 0.064637 0.055543
0.063539 0.068116 0.054994
0.070588 0.075105 0.054017
0.098878 0.091035 0.050172
0.132113 0.107240 0.044495
0.173648 0.125460 0.036133
0.223453 0.145113 0.024628
0.280735 0.165408 0.009888
0.344671 0.181582 0.000000
0.413611 0.195987 0.000000
0.485756 0.208499 0.000000
0.558892 0.218814 0.000000
0.633539 0.228000 0.000000
0.701076 0.233555 0.000000
0.759731 0.236210 0.000000
0.810147 0.237278 0.000000
0.853635 0.237308 0.000000
0.892088 0.237095 0.000000
0.926757 0.237186 0.000000
0.958007 0.237858 0.000000
0.986358 0.239475 0.000000
1.000000 0.241855 0.000000
1.000000 0.245335 0.000000
1.000000 0.250095 0.000000
1.000000 0.256199 0.000000
1.000000 0.263554 0.000000
1.000000 0.272129 0.000000
1.000000 0.281956 0.000000
0.053956 0.076600 0.056672
0.055024 0.074861 0.055879
0.055573 0.073701 0.054963
0.056062 0.071931 0.053773
0.057282 0.069734 0.052979
0.058747 0.067720 0.052888
0.059571 0.072541 0.052094
0.066499 0.080629 0.050477
0.085878 0.092805 0.047364
0.130739 0.115663 0.039551
0.171939 0.135592 0.030335
0.221073 0.157046 0.017762
0.278355 0.179232 0.001862
0.342962 0.201358 0.000000
0.412482 0.220615 0.000000
0.485054 0.235233 0.000000
0.560327 0.248386 0.000000
0.632654 0.258061 0.000000
0.698421 0.264469 0.000000
0.755917 0.267735 0.000000
0.805692 0.268864 0.000000
0.848875 0.268833 0.000000
0.887205 0.268528 0.000000
0.921782 0.268376 0.000000
0.953216 0.268467 0.000000
0.981872 0.269352 0.000000
1.000000 0.271061 0.000000
1.000000 0.273899 0.000000
1.000000 0.277714 0.000000
1.000000 0.282811 0.000000
1.000000 0.289036 0.000000
1.000000 0.296757 0.000000
1.000000 0.305608 0.000000
0.032929 0.093202 0.057527
0.034791 0.091432 0.056062
0.037751 0.089296 0.054597
0.041382 0.086305 0.053254
0.045441 0.082643 0.052033
0.050202 0.078462 0.051209
0.053925 0.078431 0.051148
0.059785 0.087587 0.049256
0.075532 0.100526 0.045808
0.107790 0.118074 0.039826
0.166995 0.147005 0.026825
0.218814 0.171420 0.013001
0.275853 0.195499 0.000000
0.340734 0.219669 0.000000
0.411902 0.243442 0.000000
0.487495 0.266270 0.000000
0.561975 0.281041 0.000000
0.633265 0.291783 0.000000
0.697841 0.298619 0.000000
0.754299 0.301915 0.000000
0.803189 0.302983 0.000000
0.845731 0.302739 0.000000
0.883940 0.302098 0.000000
0.918761 0.301427 0.000000
0.950347 0.301305 0.000000
0.979126 0.301762 0.000000
1.000000 0.302922 0.000000
1.000000 0.305089 0.000000
1.000000 0.308019 0.000000
1.000000 0.312169 0.000000
1.000000 0.317540 0.000000
1.000000 0.324407 0.000000
1.000000 0.332525 0.000000
0.002899 0.115328 0.061219
0.006897 0.112978 0.059327
0.011261 0.110353 0.057343
0.017762 0.106691 0.054841
0.025299 0.101991 0.052430
0.034485 0.096315 0.050538
0.046052 0.089815 0.050965
0.051606 0.095491 0.050050
0.064454 0.108980 0.046815
0.090883 0.127230 0.041505
0.135622 0.150088 0.031037
0.208408 0.185214 0.011780
0.273075 0.214328 0.000000
0.339300 0.241245 0.000000
0.411353 0.266697 0.000000
0.486122 0.290471 0.000000
0.561181 0.311742 0.000000
0.632776 0.327886 0.000000
0.696651 0.334936 0.000000
0.752560 0.338384 0.000000
0.801175 0.339422 0.000000
0.843839 0.338872 0.000000
0.882139 0.337957 0.000000
0.916686 0.337133 0.000000
0.947997 0.336309 0.000000
0.976440 0.336034 0.000000
1.000000 0.336522 0.000000
1.000000 0.337591 0.000000
1.000000 0.339940 0.000000
1.000000 0.343359 0.000000
1.000000 0.348028 0.000000
1.000000 0.354070 0.000000
1.000000 0.361334 0.000000
0.000000 0.142184 0.067231
0.000000 0.139345 0.065003
0.000000 0.136263 0.062409
0.000000 0.132021 0.059358
0.000000 0.126436 0.056031
0.009705 0.119783 0.052796
0.024414 0.112032 0.050813
0.044038 0.104005 0.052796
0.052338 0.118318 0.050233
0.074098 0.136721 0.045289
0.112551 0.159884 0.036347
0.169497 0.189181 0.020752
0.257450 0.231266 0.000000
0.337743 0.265324 0.000000
0.409369 0.291966 0.000000
0.483864 0.316777 0.000000
0.558343 0.338628 0.000000
0.655116 0.370916 0.000000
0.717128 0.383886 0.000000
0.770291 0.387427 0.000000
0.816068 0.386908 0.000000
0.856291 0.384985 0.000000
0.892576 0.382940 0.000000
0.925444 0.380896 0.000000
0.955444 0.379339 0.000000
0.982849 0.378363 0.000000
1.000000 0.378058 0.000000
1.000000 0.378485 0.000000
1.000000 0.379889 0.000000
1.000000 0.382300 0.000000
1.000000 0.386084 0.000000
1.000000 0.391150 0.000000
1.000000 0.397620 0.000000
0.000000 0.178317 0.077455
0.000000 0.175235 0.074586
0.000000 0.171664 0.071717
0.000000 0.166567 0.067567
0.000000 0.160037 0.063172
0.000000 0.151766 0.058320
0.000000 0.142458 0.054749
0.017365 0.131960 0.053803
0.040589 0.130007 0.055818
0.057679 0.149996 0.051972
0.091798 0.174960 0.044648
0.143771 0.205936 0.030518
0.216342 0.243229 0.005859
0.323583 0.292332 0.000000
0.420966 0.330053 0.000000
0.497017 0.356023 0.000000
0.572564 0.378546 0.000000
0.643488 0.396735 0.000000
0.706508 0.410040 0.000000
0.760922 0.419562 0.000000
0.807797 0.424964 0.000000
0.849210 0.423133 0.000000
0.886259 0.420935 0.000000
0.919677 0.418555 0.000000
0.949889 0.416388 0.000000
0.977295 0.414801 0.000000
1.000000 0.413642 0.000000
1.000000 0.413428 0.000000
1.000000 0.414099 0.000000
1.000000 0.415991 0.000000
1.000000 0.419135 0.000000
1.000000 0.423590 0.000000
1.000000 0.429328 0.000000
0.000000 0.213993 0.088777
0.000000 0.210575 0.085634
0.000000 0.206516 0.082338
0.000000 0.200992 0.077607
0.000000 0.193851 0.072297
0.000000 0.185336 0.066590
0.000000 0.175448 0.061433
0.000000 0.164218 0.057618
0.018402 0.151003 0.060334
0.040650 0.160281 0.060487
0.068055 0.185397 0.055055
0.112886 0.216007 0.044678
0.176608 0.252811 0.024140
0.263371 0.295354 0.000000
0.384924 0.347997 0.000000
0.494057 0.387396 0.000000
0.568902 0.410315 0.000000
0.639185 0.428382 0.000000
0.701259 0.441321 0.000000
0.755581 0.450355 0.000000
0.802762 0.456764 0.000000
0.844602 0.461891 0.000000
0.881712 0.461769 0.000000
0.915099 0.458869 0.000000
0.945251 0.455970 0.000000
0.972656 0.453590 0.000000
0.997589 0.451972 0.000000
1.000000 0.451148 0.000000
1.000000 0.451179 0.000000
1.000000 0.452369 0.000000
1.000000 0.454780 0.000000
1.000000 0.458534 0.000000
1.000000 0.463355 0.000000
0.000000 0.255161 0.102693
0.000000 0.251530 0.099367
0.000000 0.247349 0.095583
0.000000 0.241520 0.090700
0.000000 0.233860 0.084779
0.000000 0.224582 0.078096
0.000000 0.213199 0.071595
0.000000 0.200259 0.065736
0.000000 0.185885 0.062104
0.025238 0.169711 0.068513
0.043519 0.193698 0.065370
0.082094 0.223758 0.058595
0.137301 0.259709 0.044556
0.212924 0.301152 0.016846
0.312535 0.347143 0.000000
0.444587 0.401587 0.000000
0.561028 0.440497 0.000000
0.630884 0.458961 0.000000
0.692866 0.471809 0.000000
0.747158 0.480598 0.000000
0.794858 0.486885 0.000000
0.837003 0.491493 0.000000
0.874479 0.495399 0.000000
0.907897 0.498512 0.000000
0.938384 0.495247 0.000000
0.966064 0.492348 0.000000
0.991302 0.490364 0.000000
1.000000 0.489082 0.000000
1.000000 0.488594 0.000000
1.000000 0.489357 0.000000
1.000000 0.491127 0.000000
1.000000 0.494209 0.000000
1.000000 0.498451 0.000000
0.000000 0.298436 0.118685
0.000000 0.294804 0.115175
0.000000 0.290623 0.111299
0.000000 0.284520 0.105745
0.000000 0.276493 0.099001
0.000000 0.266361 0.091524
0.000000 0.254337 0.083925
0.000000 0.240452 0.076448
0.000000 0.224643 0.070954
0.000000 0.207187 0.071321
0.022034 0.201968 0.075441
0.050660 0.231449 0.071382
0.100191 0.266545 0.062684
0.167422 0.307012 0.044800
0.255528 0.352300 0.011017
0.366186 0.400763 0.000000
0.505333 0.455787 0.000000
0.625483 0.492164 0.000000
0.686946 0.504875 0.000000
0.740841 0.513298 0.000000
0.788571 0.519127 0.000000
0.830747 0.523400 0.000000
0.868437 0.526879 0.000000
0.902342 0.530083 0.000000
0.932860 0.533471 0.000000
0.960693 0.533989 0.000000
0.986206 0.531792 0.000000
1.000000 0.530297 0.000000
1.000000 0.529625 0.000000
1.000000 0.529808 0.000000
1.000000 0.531243 0.000000
1.000000 0.533867 0.000000
1.000000 0.537652 0.000000
0.000000 0.344213 0.136995
0.000000 0.340429 0.133181
0.000000 0.335851 0.128939
0.000000 0.329870 0.123171
0.000000 0.321416 0.116274
0.000000 0.311162 0.107790
0.000000 0.298589 0.098939
0.000000 0.284123 0.090333
0.000000 0.267796 0.082673
0.000000 0.249485 0.077241
0.000000 0.228885 0.082399
0.019409 0.239353 0.084047
0.062745 0.274113 0.078767
0.124971 0.313939 0.069062
0.204593 0.358556 0.048798
0.304601 0.406806 0.009339
0.424353 0.456367 0.000000
0.564508 0.507897 0.000000
0.681453 0.538964 0.000000
0.734829 0.546868 0.000000
0.782376 0.552575 0.000000
0.824765 0.556481 0.000000
0.862516 0.559625 0.000000
0.896361 0.562341 0.000000
0.926635 0.565026 0.000000
0.953979 0.567864 0.000000
0.978576 0.571160 0.000000
1.000000 0.569451 0.000000
1.000000 0.568109 0.000000
1.000000 0.567803 0.000000
1.000000 0.568750 0.000000
1.000000 0.570855 0.000000
1.000000 0.574212 0.000000
0.000000 0.388128 0.156588
0.000000 0.384375 0.152499
0.000000 0.379980 0.148379
0.000000 0.373663 0.142214
0.000000 0.365484 0.134554
0.000000 0.355352 0.125765
0.000000 0.342931 0.116182
0.000000 0.328557 0.106294
0.000000 0.311803 0.097139
0.000000 0.302342 0.092561
0.000000 0.280552 0.088899
0.000000 0.256382 0.097047
0.018708 0.287205 0.095949
0.082765 0.326879 0.090822
0.160800 0.371221 0.080781
0.254826 0.419226 0.061799
0.365637 0.469001 0.023896
0.490791 0.517266 0.000000
0.625910 0.561425 0.000000
0.737240 0.587335 0.000000
0.783230 0.592004 0.000000
0.824155 0.594995 0.000000
0.860716 0.597253 0.000000
0.893675 0.599084 0.000000
0.923369 0.601129 0.000000
0.950134 0.603510 0.000000
0.974334 0.606195 0.000000
0.996155 0.609430 0.000000
1.000000 0.611261 0.000000
1.000000 0.610376 0.000000
1.000000 0.610529 0.026246
1.000000 0.611902 0.058778
1.000000 0.614435 0.086336
0.000000 0.441901 0.183902
0.000000 0.438117 0.179660
0.000000 0.433722 0.174990
0.000000 0.427161 0.168399
0.000000 0.418677 0.160098
0.000000 0.408148 0.150271
0.000000 0.395758 0.139651
0.000000 0.381170 0.128481
0.000000 0.364477 0.117494
0.000000 0.345403 0.107759
0.000000 0.323919 0.099916
0.000000 0.300053 0.101595
0.000000 0.289769 0.107515
0.030426 0.328588 0.106477
0.110750 0.372107 0.102266
0.199680 0.419532 0.093446
0.301701 0.468635 0.078706
0.416938 0.517235 0.053895
0.540764 0.561212 0.016083
0.666651 0.598260 0.000000
0.773098 0.621576 0.054536
0.814359 0.624842 0.046448
0.851225 0.627222 0.046174
0.884428 0.629206 0.052857
0.914305 0.631098 0.063203
0.941131 0.633204 0.076814
0.965270 0.635554 0.090944
0.987121 0.638392 0.105135
1.000000 0.641749 0.119539
1.000000 0.646082 0.135103
1.000000 0.647242 0.149660
1.000000 0.648402 0.164553
1.000000 0.650538 0.180667
0.000000 0.487373 0.210391
0.000000 0.483619 0.205905
0.000000 0.479377 0.200992
0.000000 0.473457 0.194461
0.000000 0.465522 0.185916
0.000000 0.455451 0.175784
0.000000 0.443641 0.164340
0.000000 0.429511 0.152132
0.000000 0.413031 0.139803
0.000000 0.394263 0.127932
0.000000 0.372930 0.117556
0.000000 0.349432 0.109895
0.000000 0.323064 0.116793
0.000000 0.333410 0.120760
0.057038 0.376104 0.120760
0.148806 0.422614 0.118776
0.246555 0.471351 0.113680
0.354498 0.519860 0.106355
0.470344 0.564477 0.098390
0.589990 0.602930 0.093172
0.707210 0.635187 0.092317
0.803311 0.654902 0.153109
0.842863 0.657710 0.159335
0.875700 0.659602 0.163027
0.905241 0.661128 0.168612
0.931853 0.662837 0.176089
0.955932 0.664851 0.184512
0.977783 0.667506 0.194614
0.997772 0.670741 0.205417
1.000000 0.674861 0.217777
1.000000 0.679774 0.231296
1.000000 0.684474 0.245335
1.000000 0.686275 0.258732
0.000000 0.532403 0.239811
0.000000 0.528832 0.235355
0.000000 0.524926 0.230594
0.000000 0.519432 0.223758
0.000000 0.512047 0.215244
0.000000 0.502739 0.204746
0.000000 0.491585 0.192874
0.000000 0.477974 0.179751
0.000000 0.462348 0.166018
0.000000 0.444282 0.152529
0.000000 0.423743 0.140017
0.000000 0.400641 0.129213
0.000000 0.375006 0.125429
0.000000 0.346288 0.133394
0.000000 0.380285 0.136934
0.096376 0.426093 0.139345
0.194858 0.474311 0.140688
0.298497 0.522728 0.141848
0.408789 0.567895 0.144808
0.522667 0.607324 0.151614
0.635950 0.640772 0.162142
0.743465 0.668940 0.176394
0.828794 0.685878 0.230686
0.866880 0.688502 0.243992
0.896117 0.690242 0.248966
0.922606 0.692103 0.255314
0.946502 0.694240 0.263249
0.968261 0.696803 0.271885
0.988128 0.699947 0.281651
1.000000 0.703822 0.292363
1.000000 0.708309 0.303655
1.000000 0.713497 0.316686
1.000000 0.719265 0.330846
0.000000 0.577142 0.273228
0.000000 0.574182 0.269017
0.000000 0.570611 0.264469
0.000000 0.565637 0.257816
0.000000 0.558892 0.249058
0.000000 0.550439 0.238499
0.000000 0.539940 0.226108
0.000000 0.527581 0.212497
0.000000 0.513207 0.198154
0.000000 0.496376 0.183200
0.000000 0.476875 0.168521
0.000000 0.454963 0.155154
0.000000 0.430121 0.143984
0.000000 0.402289 0.145693
0.000000 0.386908 0.152407
0.032258 0.433143 0.158816
0.148623 0.481880 0.165896
0.252811 0.531121 0.174441
0.360418 0.576806 0.185885
0.470283 0.616785 0.201175
0.579339 0.650813 0.219974
0.683558 0.679377 0.241032
0.779294 0.703548 0.263676
0.853910 0.718654 0.315373
0.889555 0.721431 0.334234
0.915129 0.723476 0.339696
0.938384 0.725643 0.346227
0.959533 0.728115 0.353460
0.979004 0.731136 0.361669
0.996918 0.734707 0.370855
1.000000 0.738888 0.380987
1.000000 0.743587 0.392432
1.000000 0.748898 0.405158
0.000000 0.622827 0.313298
0.000000 0.620294 0.309239
0.000000 0.617182 0.304753
0.000000 0.612909 0.298344
0.000000 0.607233 0.290043
0.000000 0.599817 0.279759
0.000000 0.590845 0.267674
0.000000 0.580041 0.254124
0.000000 0.567102 0.238834
0.000000 0.551720 0.222660
0.000000 0.533562 0.205997
0.000000 0.512657 0.189822
0.000000 0.489113 0.175174
0.000000 0.462562 0.163333
0.000000 0.432502 0.169772
0.000000 0.441077 0.177249
0.098726 0.488899 0.187808
0.207767 0.536797 0.200076
0.313176 0.581292 0.215549
0.418616 0.620508 0.234501
0.523339 0.654536 0.256046
0.624506 0.683528 0.280430
0.719203 0.708248 0.306157
0.804776 0.729702 0.332525
0.871183 0.744137 0.381384
0.904692 0.747524 0.404395
0.927611 0.749966 0.410101
0.948608 0.752682 0.416449
0.967956 0.755703 0.423590
0.985840 0.759274 0.431830
1.000000 0.763302 0.441138
1.000000 0.767819 0.451514
1.000000 0.772824 0.463111
0.000000 0.660365 0.351049
0.000000 0.660792 0.350439
0.000000 0.658106 0.346227
0.000000 0.654444 0.340215
0.000000 0.649317 0.332128
0.000000 0.642878 0.322393
0.000000 0.634974 0.310552
0.000000 0.625483 0.297124
0.000000 0.614252 0.282078
0.000000 0.601007 0.265873
0.000000 0.585534 0.248417
0.000000 0.567224 0.230655
0.000000 0.545922 0.213169
0.000000 0.521416 0.197330
0.000000 0.493538 0.190982
0.000000 0.462165 0.195499
0.033265 0.496284 0.207736
0.166232 0.543694 0.223911
0.273136 0.587610 0.243534
0.376959 0.626673 0.266117
0.478676 0.660548 0.291386
0.576562 0.689601 0.318303
0.668574 0.714321 0.346441
0.752895 0.735897 0.374731
0.828214 0.754971 0.402350
0.886595 0.768887 0.446906
0.917693 0.772732 0.471351
0.938354 0.775479 0.476081
0.957458 0.778439 0.481422
0.975189 0.781674 0.487404
0.991608 0.785245 0.494484
1.000000 0.789151 0.502434
1.000000 0.793484 0.511772
0.000000 0.694301 0.390082
0.000000 0.692561 0.386999
0.000000 0.690425 0.383215
0.000000 0.687373 0.377783
0.000000 0.683131 0.370581
0.000000 0.677790 0.361761
0.000000 0.671168 0.351049
0.000000 0.663294 0.338842
0.000000 0.653864 0.324804
0.000000 0.642512 0.308995
0.000000 0.629206 0.291814
0.000000 0.613550 0.273686
0.000000 0.595422 0.255222
0.000000 0.574487 0.237095
0.000000 0.550591 0.220523
0.000000 0.522332 0.220157
0.000000 0.502770 0.225040
0.122652 0.549371 0.244114
0.236027 0.592493 0.266270
0.338994 0.630884 0.291356
0.438300 0.664515 0.318761
0.533562 0.693629 0.347814
0.623651 0.718715 0.377996
0.706752 0.740597 0.408118
0.781613 0.759976 0.437293
0.847776 0.777371 0.464393
0.899626 0.790951 0.502495
0.928740 0.795071 0.526757
0.947692 0.798245 0.531090
0.965301 0.801572 0.536248
0.981659 0.805081 0.542168
0.996826 0.808865 0.549218
1.000000 0.812833 0.557305
0.000000 0.724880 0.430152
0.000000 0.723323 0.427314
0.000000 0.721523 0.423926
0.000000 0.718990 0.419196
0.000000 0.715572 0.412909
0.000000 0.711208 0.405035
0.000000 0.705776 0.395544
0.000000 0.699092 0.384283
0.000000 0.691157 0.371405
0.000000 0.681636 0.356817
0.000000 0.670497 0.340734
0.000000 0.657435 0.323339
0.000000 0.642390 0.305150
0.000000 0.625055 0.286564
0.000000 0.605188 0.268406
0.000000 0.581842 0.254093
0.000000 0.553857 0.254948
0.082307 0.558282 0.265507
0.206516 0.599969 0.290105
0.310369 0.637659 0.317632
0.408240 0.670954 0.347570
0.501915 0.699916 0.379126
0.589685 0.725093 0.411200
0.670436 0.747036 0.442847
0.743771 0.766445 0.472633
0.809049 0.783932 0.499641
0.866392 0.799863 0.523796
0.912383 0.813046 0.555718
0.939696 0.817472 0.579583
0.957061 0.820981 0.584009
0.973205 0.824521 0.589166
0.988190 0.828122 0.595209
1.000000 0.831846 0.602197
0.000000 0.754391 0.474708
0.000000 0.753170 0.472206
0.000000 0.751705 0.469337
0.000000 0.749691 0.465431
0.000000 0.746883 0.459968
0.000000 0.743221 0.453071
0.000000 0.738735 0.444770
0.000000 0.733242 0.434730
0.000000 0.726680 0.423377
0.000000 0.718929 0.410437
0.000000 0.709895 0.396124
0.000000 0.699336 0.380438
0.000000 0.687129 0.363561
0.000000 0.672938 0.345708
0.000000 0.656580 0.327489
0.000000 0.637720 0.309148
0.000000 0.615198 0.300420
0.058778 0.588769 0.299016
0.194888 0.613642 0.320470
