modules/camera-engine/ios/LUTs/panasonic-forest-green-cool.cube
TITLE "Generated by Resolve"
LUT_3D_SIZE 9
0.00662242 0.00927749 0.00830091
0.0263676 0.0112612 0.0100404
0.122927 0.0170138 0.0136416
0.304845 0.0264591 0.013901
0.556695 0.144686 0.0447242
0.811017 0.404425 0.12488
0.825559 0.431373 0.12549
0.826047 0.431861 0.126238
0.826352 0.431846 0.126543
0.00761425 0.0192416 0.0117342
0.0112001 0.0147402 0.00976577
0.106355 0.0223087 0.014725
0.325719 0.0295109 0.0124056
0.608957 0.18114 0.0543984
0.823392 0.428901 0.123354
0.824964 0.431174 0.124376
0.825238 0.431403 0.124895
0.825528 0.431388 0.1252
0.0159457 0.101183 0.0487831
0.017792 0.107271 0.0489204
0.0653391 0.116533 0.0485542
0.335317 0.0864729 0.037705
0.619638 0.188998 0.0573739
0.814404 0.413916 0.122454
0.815442 0.415946 0.122438
0.814817 0.414939 0.122576
0.815641 0.416129 0.122408
0.0552834 0.270558 0.176974
0.0650797 0.293843 0.193088
0.0692149 0.287953 0.18265
0.263127 0.327153 0.206744
0.697795 0.311543 0.164721
0.811536 0.411276 0.120089
0.813474 0.412329 0.122713
0.814481 0.414115 0.123278
0.815213 0.415534 0.123262
0.190356 0.559808 0.447166
0.214115 0.598245 0.486473
0.230365 0.609689 0.4972
0.252216 0.602457 0.486656
0.55108 0.647089 0.431006
0.878981 0.59469 0.223423
0.884657 0.585092 0.225299
0.883757 0.591562 0.223545
0.880705 0.606012 0.22298
0.291951 0.781735 0.731121
0.294347 0.791302 0.744427
0.294331 0.794476 0.748531
0.291676 0.796155 0.748241
0.36463 0.788083 0.736629
0.803784 0.948714 0.496895
0.779904 0.71313 0.451575
0.759274 0.703059 0.473213
0.729015 0.697459 0.507454
0.30988 0.807126 0.774227
0.309865 0.807111 0.774197
0.309392 0.806882 0.773205
0.30724 0.806378 0.769802
0.302419 0.806104 0.764614
0.642817 0.849439 0.817716
0.850614 0.944137 0.784985
0.855421 0.944152 0.789181
0.855421 0.944152 0.789197
0.31107 0.80737 0.775906
0.310811 0.80737 0.775662
0.309865 0.807126 0.774197
0.307012 0.806378 0.769574
0.302953 0.806088 0.763897
0.650736 0.858198 0.821561
0.844343 0.944121 0.779263
0.855421 0.944152 0.789197
0.855421 0.944152 0.789197
0.311299 0.80737 0.77615
0.310811 0.80737 0.775891
0.309865 0.807126 0.774212
0.30634 0.806378 0.768643
0.305272 0.805829 0.762524
0.656672 0.866636 0.824598
0.84361 0.944106 0.778943
0.855421 0.944152 0.789197
0.855421 0.944152 0.789197
0.00679026 0.00952163 0.0122683
0.0263676 0.0129397 0.0183719
0.122988 0.020264 0.0249638
0.305089 0.0350805 0.0289311
0.555169 0.145953 0.0535897
0.813809 0.407584 0.126421
0.826627 0.4318 0.127077
0.827192 0.432013 0.127901
0.827466 0.432242 0.12842
0.00689708 0.0153506 0.0124666
0.0102693 0.0106813 0.0100404
0.114076 0.0167391 0.0153506
0.333654 0.0356146 0.0184634
0.619486 0.190158 0.0653391
0.825208 0.431388 0.124865
0.826047 0.43183 0.126207
0.826612 0.431815 0.126802
0.826581 0.432059 0.127016
0.0174563 0.10222 0.0564736
0.0171206 0.108476 0.0538338
0.0684062 0.116457 0.0529488
0.347189 0.0839551 0.0358434
0.629862 0.196796 0.060853
0.816617 0.418311 0.122606
0.820951 0.425498 0.122667
0.822705 0.428 0.123354
0.822736 0.427771 0.123156
0.0568246 0.282307 0.191867
0.0653849 0.308522 0.209369
0.0760052 0.299626 0.194797
0.275288 0.337713 0.21619
0.707897 0.321981 0.168658
0.81857 0.427359 0.116442
0.812512 0.411124 0.122972
0.815061 0.415244 0.12311
0.815503 0.416632 0.123095
0.195438 0.571923 0.461173
0.217502 0.610056 0.500877
0.230198 0.622232 0.511818
0.262287 0.615198 0.501457
0.562249 0.660899 0.436622
0.878889 0.60116 0.226764
0.884337 0.590921 0.22565
0.882261 0.598779 0.222736
0.878309 0.615671 0.225193
0.293614 0.78529 0.736599
0.295552 0.793469 0.748516
0.295506 0.796613 0.752102
0.29308 0.797818 0.751354
0.361059 0.790494 0.73994
0.804028 0.94905 0.502968
0.759915 0.703456 0.472282
0.741665 0.698207 0.493095
0.723018 0.701137 0.521233
0.310353 0.807141 0.774929
0.310338 0.807126 0.774899
0.309636 0.807111 0.773693
0.307454 0.806378 0.77026
0.302205 0.806104 0.764157
0.648219 0.856352 0.820508
0.852781 0.944137 0.787427
0.855421 0.944152 0.789197
0.855421 0.944152 0.789197
0.311315 0.80737 0.776165
0.311055 0.80737 0.775906
0.310338 0.807126 0.774685
0.307225 0.806378 0.769802
0.303883 0.806088 0.763424
0.653941 0.862165 0.823224
0.845609 0.943893 0.780392
0.855421 0.944152 0.789197
0.855421 0.944152 0.789197
0.311543 0.807385 0.776623
0.311284 0.80737 0.776135
0.310109 0.807126 0.774685
0.306554 0.806378 0.768902
0.305058 0.806073 0.76228
0.658534 0.870298 0.82562
0.84506 0.943877 0.780484
0.855421 0.944152 0.789197
0.855421 0.944152 0.789197
0.00534066 0.0239719 0.0801709
0.0432593 0.0360113 0.0610208
0.127977 0.0296483 0.0709697
0.319402 0.0329595 0.06421
0.574609 0.135256 0.0619821
0.817441 0.41001 0.130831
0.829389 0.432593 0.13138
0.829923 0.432807 0.132174
0.830274 0.432776 0.132998
0.00389105 0.0279393 0.0621653
0.00682078 0.0228122 0.0785687
0.122545 0.0294041 0.0678721
0.358267 0.0354009 0.0565957
0.639094 0.197436 0.0795758
0.828199 0.43241 0.129152
0.829038 0.432624 0.130526
0.829374 0.432593 0.131365
0.829679 0.432563 0.131914
0.017258 0.10161 0.0814832
0.0183413 0.110018 0.0891127
0.0819104 0.10663 0.0935683
0.350607 0.0782788 0.058732
0.634501 0.203357 0.0771344
0.82565 0.43151 0.125536
0.826474 0.431998 0.126833
0.82678 0.431968 0.127428
0.827039 0.431983 0.127672
0.0673228 0.282094 0.208591
0.0729381 0.31249 0.228153
0.0677501 0.313542 0.215381
0.279896 0.337911 0.223713
0.70753 0.321447 0.172915
0.822629 0.434882 0.115465
0.819867 0.423255 0.123659
0.82298 0.428153 0.124147
0.821393 0.427466 0.12256
0.198795 0.571084 0.465248
0.219883 0.609949 0.505211
0.224521 0.623362 0.516182
0.257267 0.619623 0.506722
0.567773 0.664912 0.439216
0.878645 0.60264 0.225864
0.883391 0.593133 0.22356
0.881575 0.601694 0.222721
0.877913 0.618357 0.224933
0.295048 0.785672 0.738643
0.296727 0.794034 0.750332
0.296681 0.797162 0.754086
0.29427 0.798123 0.752361
0.350378 0.792477 0.742321
0.804303 0.948928 0.505745
0.755993 0.701808 0.477058
0.736843 0.6972 0.497246
0.722622 0.701198 0.522179
0.311025 0.80737 0.775891
0.311025 0.80737 0.775876
0.310536 0.807126 0.775113
0.308141 0.806622 0.771176
0.302403 0.806104 0.76437
0.648463 0.85597 0.82031
0.852781 0.944137 0.787274
0.855421 0.944152 0.789197
0.855421 0.944152 0.789197
0.311986 0.807599 0.777569
0.311955 0.807385 0.777508
0.311025 0.80737 0.776089
0.308141 0.806607 0.770962
0.303426 0.806088 0.763653
0.652445 0.858991 0.822477
0.84416 0.944106 0.779095
0.855421 0.944152 0.789197
0.855421 0.944152 0.789197
0.312428 0.807614 0.778485
0.312184 0.807599 0.777981
0.311238 0.807355 0.776287
0.307668 0.806607 0.770474
0.302831 0.806088 0.762936
0.655879 0.864866 0.824125
0.843107 0.944076 0.7785
0.855421 0.944152 0.789197
0.855421 0.944152 0.789197
0.0118715 0.0879988 0.213321
0.0372931 0.0906539 0.220722
0.173754 0.116014 0.168673
0.329335 0.0479744 0.164599
0.577447 0.0958267 0.106554
0.829877 0.424002 0.143648
0.838529 0.44152 0.142794
0.839994 0.443732 0.144549
0.84181 0.445792 0.146624
0.0107881 0.086244 0.204471
0.0149538 0.090898 0.219471
0.150408 0.1299 0.21883
0.381247 0.0532235 0.194491
0.648753 0.14641 0.0987869
0.843305 0.448142 0.148623
0.845197 0.450278 0.15079
0.846815 0.452415 0.153094
0.84918 0.454887 0.156603
0.0145876 0.117708 0.189837
0.0165255 0.126436 0.219562
0.0527199 0.122133 0.249165
0.381689 0.0644694 0.201022
0.666453 0.178485 0.099794
0.841016 0.445197 0.145922
0.843 0.447623 0.148165
0.845457 0.450523 0.151324
0.847669 0.453468 0.154467
0.0251011 0.270253 0.261646
0.0174716 0.297917 0.290349
0.0144808 0.302144 0.293828
0.329137 0.31931 0.322927
0.693492 0.320592 0.261677
0.840284 0.453208 0.137118
0.836088 0.43917 0.140261
0.838254 0.442435 0.142977
0.841962 0.448631 0.147341
0.211032 0.559777 0.471687
0.231205 0.598184 0.510704
0.233951 0.610529 0.520287
0.224994 0.613108 0.507164
0.574075 0.66247 0.456367
0.881544 0.589837 0.314931
0.884428 0.5823 0.30222
0.884627 0.587274 0.328954
0.881834 0.601678 0.356191
0.297749 0.783948 0.739681
0.299672 0.792996 0.75227
0.29987 0.796094 0.756039
0.297642 0.796826 0.75407
0.333471 0.793805 0.743587
0.805295 0.948882 0.508659
0.766262 0.706874 0.471489
0.742428 0.69778 0.491829
0.731548 0.701778 0.524422
0.312612 0.807614 0.77908
0.313054 0.807828 0.779751
0.312779 0.807828 0.779202
0.310597 0.807309 0.775265
0.303105 0.806104 0.765087
0.642298 0.848203 0.817029
0.851911 0.944152 0.786267
0.855421 0.944152 0.789197
0.855421 0.944152 0.789807
0.314244 0.808316 0.782391
0.314656 0.80853 0.783246
0.314137 0.808286 0.78201
0.311254 0.807324 0.776196
0.302876 0.806104 0.764828
0.645106 0.849515 0.818082
0.83801 0.944076 0.77409
0.855421 0.944152 0.789197
0.855421 0.944152 0.789197
0.315557 0.809003 0.784863
0.315953 0.809003 0.785687
0.314809 0.808713 0.783536
0.311223 0.807324 0.776394
0.302342 0.806104 0.76434
0.649058 0.853147 0.820325
0.833173 0.944045 0.770199
0.855421 0.944152 0.789197
0.855421 0.944152 0.789197
0.0439002 0.243259 0.452537
0.0495155 0.24271 0.45275
0.124178 0.248341 0.466712
0.386023 0.268833 0.395163
0.594781 0.0910506 0.377707
0.858625 0.392294 0.188876
0.875135 0.451179 0.190127
0.877668 0.447318 0.191745
0.881453 0.440116 0.193973
0.043946 0.243397 0.452613
0.0478676 0.254017 0.466514
0.101793 0.269917 0.491844
0.412619 0.305089 0.471427
0.676417 0.108949 0.466743
0.893996 0.358572 0.187213
0.892958 0.342184 0.183337
0.884001 0.220203 0.171481
0.885634 0.205188 0.355657
0.0391546 0.231968 0.430594
0.0474708 0.254749 0.463706
0.0576791 0.264652 0.480415
0.358007 0.295308 0.518975
0.695613 0.114916 0.48925
0.881956 0.212787 0.207584
0.883741 0.209842 0.28423
0.886305 0.204761 0.383001
0.890898 0.197024 0.454597
0.0552529 0.290349 0.438743
0.0651102 0.317143 0.474723
0.0676127 0.323079 0.492439
0.23978 0.341161 0.548516
0.702693 0.204562 0.524163
0.894224 0.364248 0.188815
0.893523 0.354894 0.186206
0.882078 0.214893 0.194171
0.887419 0.205875 0.399161
0.0390021 0.547189 0.54667
0.0421607 0.587884 0.593988
0.0426795 0.599527 0.607965
0.0405432 0.593683 0.599054
0.626261 0.62089 0.644633
0.909804 0.567987 0.597787
0.922972 0.524056 0.556741
0.926177 0.547021 0.634043
0.927001 0.583764 0.681041
0.309056 0.780545 0.750622
0.311635 0.791424 0.766629
0.312062 0.795407 0.771481
0.309697 0.795453 0.768353
0.317189 0.792279 0.751705
0.804746 0.909422 0.703731
0.89398 0.816403 0.676249
0.905699 0.835966 0.696529
0.910323 0.850538 0.723095
0.319036 0.810559 0.791745
0.321218 0.811475 0.796185
0.321599 0.811673 0.797177
0.319417 0.810666 0.792386
0.311833 0.807446 0.777813
0.720424 0.869993 0.873243
0.857267 0.924651 0.853254
0.868635 0.928313 0.865919
0.867506 0.929335 0.872724
0.324559 0.812848 0.802457
0.327565 0.814023 0.80705
0.327245 0.813764 0.806683
0.32224 0.811826 0.798169
0.312932 0.807919 0.779782
0.725444 0.871336 0.87747
0.834913 0.920195 0.847547
0.864393 0.929412 0.877058
0.86421 0.929503 0.878187
0.330312 0.815335 0.811643
0.332662 0.816007 0.815427
0.330648 0.815274 0.812375
0.323903 0.812482 0.801175
0.313603 0.808316 0.780865
0.728054 0.872511 0.879347
0.828107 0.918517 0.844892
0.864454 0.929198 0.875059
0.864652 0.929137 0.874434
0.103853 0.443946 0.69601
0.103273 0.441505 0.693324
0.105196 0.428656 0.679622
0.214771 0.431952 0.69308
0.549401 0.38732 0.613123
0.932097 0.162005 0.810742
0.954498 0.144411 0.788098
0.955474 0.146014 0.804791
0.956863 0.148226 0.825116
0.104845 0.447135 0.700069
0.106874 0.456825 0.710826
0.1075 0.456748 0.710979
0.231708 0.468437 0.732738
0.57908 0.401816 0.673198
0.968841 0.200137 0.905653
0.970733 0.21355 0.917266
0.974227 0.234852 0.935302
0.978698 0.264195 0.957397
0.103822 0.443839 0.695781
0.107637 0.460441 0.714794
0.1084 0.463645 0.718593
0.191028 0.478782 0.740826
0.572946 0.402197 0.696635
0.974945 0.235218 0.938277
0.977066 0.251987 0.949477
0.980041 0.278111 0.965103
0.979538 0.307774 0.977935
0.0986648 0.42739 0.671672
0.104448 0.449531 0.696971
0.107164 0.460182 0.710597
0.127993 0.471153 0.726223
0.463706 0.388434 0.744991
0.971557 0.218158 0.92192
0.972534 0.224216 0.926833
0.976394 0.247715 0.945434
0.980102 0.281086 0.966934
0.138506 0.526711 0.698421
0.146548 0.551156 0.724895
0.148104 0.556069 0.733898
0.141543 0.547967 0.739895
0.529335 0.686046 0.907973
0.959777 0.541405 0.946242
0.964935 0.504936 0.936385
0.961212 0.534585 0.948699
0.9552 0.576852 0.961929
0.163638 0.815442 0.872084
0.150835 0.838346 0.899596
0.141024 0.847684 0.911162
0.129335 0.849119 0.912139
0.0863355 0.846555 0.907713
0.823621 0.8374 0.913191
0.912917 0.828321 0.901778
0.913466 0.834638 0.911559
0.914031 0.844358 0.924681
0.353002 0.82591 0.845441
0.35993 0.833555 0.863096
0.361089 0.836637 0.869749
0.359777 0.833005 0.861738
0.345693 0.821958 0.834424
0.7514 0.891188 0.932097
0.888273 0.931868 0.978546
0.904173 0.925429 0.981079
0.90518 0.925383 0.9832
0.341314 0.845655 0.891295
0.305226 0.859968 0.917052
0.305211 0.860121 0.917296
0.341222 0.845228 0.889921
0.349691 0.824338 0.841031
0.731487 0.886763 0.927169
0.887297 0.934737 0.991806
0.902419 0.938338 0.995132
0.902983 0.938354 0.995377
0.265721 0.873457 0.93814
0.192096 0.892226 0.962295
0.239521 0.880766 0.947768
0.325399 0.852049 0.903334
0.351919 0.825803 0.844785
0.729839 0.887083 0.927657
0.88484 0.933928 0.991394
0.901137 0.938552 0.994598
0.902464 0.938552 0.995026
0.12166 0.529015 0.785183
0.121599 0.52874 0.784939
0.121401 0.526879 0.783307
0.12697 0.52491 0.782071
0.333516 0.58407 0.843122
0.775433 0.46125 0.790906
0.968933 0.464485 1
0.938537 0.487617 0.98143
0.899855 0.502571 0.939437
0.121767 0.529641 0.785504
0.121859 0.530327 0.786175
0.121859 0.530343 0.786389
0.12755 0.533578 0.789609
0.409537 0.693217 0.948119
0.848402 0.530495 0.883009
0.867079 0.540352 0.906111
0.865888 0.546685 0.90576
0.859388 0.54992 0.90074
0.121767 0.529534 0.785412
0.121889 0.530648 0.78645
0.121981 0.530983 0.786725
0.127123 0.533867 0.78999
0.414069 0.701778 0.954711
0.867063 0.54229 0.906371
0.865843 0.548775 0.906065
0.84979 0.552056 0.889998
0.842359 0.555169 0.881666
0.120912 0.523598 0.779721
0.121279 0.528313 0.783383
0.12195 0.530831 0.785901
0.122469 0.53164 0.787594
0.404639 0.706752 0.955657
0.867918 0.538476 0.906767
0.867262 0.541695 0.906508
0.866209 0.546777 0.906172
0.858869 0.550072 0.900023
0.1243 0.543847 0.778988
0.126421 0.554452 0.785183
0.127138 0.55761 0.788388
0.126543 0.558602 0.793347
0.337865 0.593439 0.832776
0.782528 0.612009 0.827298
0.870146 0.611902 0.913771
0.871885 0.625071 0.917235
0.869337 0.6486 0.917357
0.170779 0.705272 0.834195
0.163485 0.731655 0.852155
0.159106 0.741375 0.860258
0.165133 0.731014 0.853223
0.200946 0.68629 0.827268
0.798108 0.833951 0.997925
0.915084 0.822217 0.990555
0.915434 0.828489 0.992248
0.915587 0.839078 0.994659
0.0587167 0.963699 0.98529
0.032929 0.984253 0.995132
0.00407416 0.988357 0.998016
0.0305028 0.984482 0.995911
0.0659495 0.952285 0.982254
0.722683 0.902617 0.99089
0.906432 0.91986 1
0.916625 0.917678 1
0.916182 0.917876 1
0.000167849 1 0.99794
0.000244144 1 0.997925
0.000244144 1 0.99794
0.00015259 0.998917 0.997955
0.058732 0.961929 0.985718
0.615381 0.885115 0.957839
0.908522 0.92871 1
0.922316 0.935439 1
0.922591 0.935836 1
0.000244144 1 0.99794
0.000244144 1 0.99794
0.000244144 1 0.99794
0.000213626 1 0.99794
0.0538033 0.967407 0.987396
0.618082 0.88539 0.957931
0.903792 0.928588 1
0.922332 0.935439 1
0.924559 0.937591 1
0.122179 0.532311 0.787747
0.122179 0.532311 0.787747
0.122179 0.532647 0.788296
0.123247 0.535149 0.791074
0.332174 0.59321 0.845396
0.628016 0.511025 0.707668
0.842176 0.555261 0.881468
0.842176 0.555261 0.881468
0.842176 0.555261 0.881468
0.122179 0.532311 0.787747
0.122179 0.532311 0.787747
0.122179 0.532357 0.787823
0.127291 0.535668 0.791455
0.420951 0.731609 0.980774
0.819364 0.55288 0.854124
0.842176 0.555261 0.881468
0.842176 0.555261 0.881468
0.842176 0.555261 0.881468
0.122179 0.532311 0.787762
0.122179 0.532311 0.787747
0.122179 0.532311 0.787778
0.126818 0.535409 0.791196
0.426352 0.730251 0.979507
0.842176 0.555261 0.881468
0.842176 0.555261 0.881468
0.842176 0.555261 0.881468
0.842176 0.555261 0.881468
0.122438 0.534142 0.788769
0.122438 0.534615 0.789014
0.122438 0.533837 0.788754
0.122652 0.533455 0.788876
0.417441 0.733974 0.980117
0.842176 0.555261 0.881468
0.842176 0.555261 0.881453
0.842176 0.555291 0.881453
0.842176 0.555337 0.881453
0.125612 0.555993 0.794934
0.127581 0.562631 0.79707
0.127977 0.564446 0.797742
0.127459 0.561898 0.797498
0.328054 0.571115 0.81297
0.743053 0.619226 0.786801
0.843961 0.62707 0.887526
0.846555 0.638498 0.891371
0.851225 0.657099 0.898543
0.197894 0.654887 0.812451
0.208103 0.676081 0.821347
0.211963 0.684459 0.825696
0.210346 0.680018 0.82385
0.198367 0.658534 0.815396
0.771344 0.83212 1
0.907439 0.831464 0.985351
0.909529 0.836652 0.988037
0.910704 0.844587 0.991241
0.000244144 1 0.99794
0.000244144 1 0.99794
0.000244144 1 0.99794
0.000244144 1 0.99794
0.000244144 1 0.99794
0.681804 0.863752 0.970443
0.903517 0.915373 1
0.915022 0.920623 1
0.915084 0.920378 1
0.000244144 1 0.99794
0.000244144 1 0.99794
0.000244144 1 0.99794
0.000244144 1 0.99794
0.000244144 1 0.99794
0.506218 0.93048 1
0.905165 0.927626 1
0.923949 0.935851 1
0.924331 0.936187 1
0.000244144 1 0.99794
0.000244144 1 0.99794
0.000244144 1 0.99794
0.000244144 1 0.99794
0.000244144 1 0.99794
0.496681 0.938354 1
0.896742 0.929183 1
0.925109 0.937255 1
0.927291 0.939559 1
0.122179 0.532311 0.787747
0.122179 0.532311 0.787747
0.122179 0.532601 0.788281
0.123171 0.535149 0.790845
0.332769 0.595468 0.847303
0.633036 0.512383 0.700053
0.842176 0.555261 0.881468
0.842176 0.555261 0.881468
0.842176 0.555261 0.881468
0.122179 0.532311 0.787747
0.122179 0.532311 0.787747
0.122179 0.532357 0.787823
0.127581 0.535821 0.791608
0.421683 0.730175 0.980438
0.823346 0.553796 0.859144
0.842176 0.555261 0.881468
0.842176 0.555261 0.881468
0.842176 0.555261 0.881468
0.122179 0.532311 0.787762
0.122179 0.532311 0.787747
0.122179 0.532326 0.787778
0.127245 0.535378 0.791165
0.429282 0.731167 0.980301
0.842176 0.555261 0.881468
0.842176 0.555261 0.881468
0.842176 0.555261 0.881468
0.842176 0.555261 0.881468
0.122438 0.534142 0.788785
0.122438 0.53463 0.789014
0.122438 0.533852 0.78851
0.122667 0.533471 0.78912
0.418341 0.73373 0.980636
0.842176 0.555261 0.881453
0.842176 0.555276 0.881453
0.842176 0.555306 0.881453
0.842176 0.555383 0.881453
0.126131 0.558526 0.796307
0.127993 0.564187 0.797925
0.128496 0.565866 0.798215
0.127672 0.563027 0.797726
0.332967 0.588373 0.826871
0.756222 0.625589 0.800061
0.844862 0.631815 0.889113
0.847745 0.644114 0.893187
0.852842 0.662272 0.901076
0.192432 0.649012 0.81236
0.205859 0.67277 0.821149
0.21149 0.683467 0.825986
0.210971 0.681834 0.824994
0.201007 0.661112 0.816495
0.775876 0.834287 1
0.907835 0.834714 0.986343
0.909422 0.839261 0.988617
0.910582 0.846433 0.991638
0.000244144 1 0.99794
0.000244144 1 0.99794
0.000244144 1 0.99794
0.000244144 1 0.99794
0.000244144 1 0.99794
0.678157 0.849683 0.959823
0.899886 0.912703 1
0.915358 0.920027 1
0.915434 0.91986 1
0.000244144 1 0.99794
0.000244144 1 0.99794
0.000244144 1 0.99794
0.000244144 1 0.99794
0.000244144 1 0.99794
0.460319 0.846265 0.936385
0.897551 0.926787 1
0.923323 0.935195 1
0.924392 0.936263 1
0.000244144 1 0.99794
0.000244144 1 0.99794
0.000244144 1 0.99794
0.000244144 1 0.99794
0.000244144 1 0.99794
0.433722 0.845243 0.9337
0.884382 0.9308 1
0.925017 0.937163 1
0.928069 0.940383 1
