modules/camera-engine/ios/LUTs/panasonic-dusk-atmosphere.cube
TITLE "Generated by Resolve"
LUT_3D_SIZE 33
0.0808118 0.073228 0.0694133
0.0808118 0.073228 0.0694133
0.0808118 0.073228 0.0694133
0.105913 0.0737469 0.0699321
0.158068 0.0805982 0.0727703
0.213138 0.0919966 0.0757
0.259968 0.104128 0.0802625
0.314794 0.117174 0.085832
0.373724 0.130983 0.0895247
0.435477 0.138888 0.0924086
0.493538 0.147463 0.0944228
0.552895 0.154284 0.0953689
0.615076 0.162631 0.0987716
0.679271 0.170245 0.103197
0.736996 0.175204 0.107073
0.798413 0.184375 0.113268
0.842115 0.18674 0.117189
0.893187 0.19292 0.122621
0.942824 0.198566 0.127794
0.989258 0.203464 0.132494
1 0.205005 0.13402
1 0.205005 0.13402
1 0.205005 0.13402
1 0.205005 0.13402
1 0.205005 0.13402
1 0.205005 0.13402
1 0.205005 0.13402
1 0.205005 0.13402
1 0.205005 0.13402
1 0.205005 0.13402
1 0.205005 0.13402
1 0.205005 0.13402
1 0.205005 0.13402
0.0808118 0.073228 0.0694133
0.0808118 0.073228 0.0694133
0.0808118 0.073228 0.0694133
0.0923476 0.0733654 0.0695354
0.136492 0.076173 0.071046
0.193835 0.0878004 0.0745403
0.242771 0.099794 0.0785382
0.299245 0.11342 0.0843671
0.360815 0.12871 0.0888533
0.426581 0.137301 0.0919356
0.48632 0.146715 0.094377
0.547356 0.153552 0.0953384
0.610208 0.161944 0.0982681
0.675624 0.169894 0.103029
0.73402 0.174792 0.106783
0.796094 0.184054 0.113054
0.841123 0.186831 0.117052
0.891569 0.192721 0.122454
0.941375 0.198398 0.127642
0.987961 0.203342 0.132372
1 0.205005 0.13402
1 0.205005 0.13402
1 0.205005 0.13402
1 0.205005 0.13402
1 0.205005 0.13402
1 0.205005 0.13402
1 0.205005 0.13402
1 0.205005 0.13402
1 0.205005 0.13402
1 0.205005 0.13402
1 0.205005 0.13402
1 0.205005 0.13402
1 0.205005 0.13402
0.0808118 0.073228 0.0694133
0.0808118 0.073228 0.0694133
0.0808118 0.073228 0.0694133
0.0809033 0.073228 0.0694133
0.115419 0.0741436 0.0703288
0.17203 0.0835431 0.0737163
0.225391 0.095201 0.0768749
0.282124 0.109361 0.0825513
0.347265 0.12549 0.0879988
0.41648 0.135866 0.0914321
0.478981 0.145983 0.0943465
0.541634 0.152804 0.0952621
0.605234 0.161242 0.0977493
0.671885 0.169528 0.102846
0.730983 0.174365 0.106462
0.793744 0.183719 0.11284
0.840146 0.186938 0.11693
0.889937 0.192523 0.122286
0.939895 0.19823 0.127489
0.986618 0.20322 0.132235
1 0.205005 0.13402
1 0.205005 0.13402
1 0.205005 0.13402
1 0.205005 0.13402
1 0.205005 0.13402
1 0.205005 0.13402
1 0.205005 0.13402
1 0.205005 0.13402
1 0.205005 0.13402
1 0.205005 0.13402
1 0.205005 0.13402
1 0.205005 0.13402
1 0.205005 0.13402
0.0808118 0.073228 0.0694133
0.0808118 0.073228 0.0694133
0.0808118 0.073228 0.0694133
0.0808118 0.073228 0.0694133
0.101152 0.0735943 0.0697642
0.150744 0.0790265 0.0721294
0.206241 0.0902724 0.0751049
0.26392 0.105074 0.0806592
0.332998 0.121782 0.087068
0.405249 0.134524 0.0909133
0.471321 0.144991 0.0942092
0.535744 0.152026 0.095201
0.600122 0.160525 0.0972152
0.668101 0.169177 0.102678
0.727886 0.173938 0.106142
0.791348 0.183383 0.112627
0.839124 0.18706 0.116793
0.888258 0.192309 0.122103
0.938415 0.198062 0.127321
0.985275 0.203082 0.132113
1 0.205005 0.13402
1 0.205005 0.13402
1 0.205005 0.13402
1 0.205005 0.13402
1 0.205005 0.13402
1 0.205005 0.13402
1 0.205005 0.13402
1 0.205005 0.13402
1 0.205005 0.13402
1 0.205005 0.13402
1 0.205005 0.13402
1 0.205005 0.13402
1 0.205005 0.13402
0.0796979 0.0933547 0.0675517
0.0805982 0.0911116 0.0689403
0.0810407 0.0883497 0.0696422
0.0809644 0.0850233 0.0695506
0.0874952 0.0817121 0.0694438
0.126879 0.0800336 0.0703136
0.184985 0.088304 0.0739147
0.245716 0.100572 0.0788128
0.318166 0.118013 0.0860609
0.39321 0.133165 0.0903944
0.463401 0.143862 0.0939651
0.529564 0.151263 0.0950179
0.595117 0.159854 0.096788
0.664118 0.16875 0.10248
0.724773 0.173541 0.105852
0.788907 0.183032 0.112413
0.838056 0.187213 0.116701
0.886564 0.192111 0.12192
0.936889 0.197894 0.127169
0.983902 0.202945 0.131975
1 0.205005 0.13402
1 0.205005 0.13402
1 0.205005 0.13402
1 0.205005 0.13402
1 0.205005 0.13402
1 0.205005 0.13402
1 0.205005 0.13402
1 0.205005 0.13402
1 0.205005 0.13402
1 0.205005 0.13402
1 0.205005 0.13402
1 0.205005 0.13402
1 0.205005 0.13402
0.0727703 0.115343 0.0381933
0.0719005 0.110216 0.037583
0.0710002 0.104982 0.0369726
0.0700694 0.0992294 0.0363317
0.0691386 0.0932326 0.0356603
0.102312 0.0964523 0.0555123
0.156054 0.102632 0.0666056
0.220508 0.113924 0.0730907
0.293919 0.127031 0.0809949
0.373938 0.139773 0.0871138
0.453391 0.143801 0.0924544
0.523201 0.1505 0.0948043
0.590021 0.159152 0.0963149
0.660136 0.168338 0.102281
0.721721 0.173205 0.105638
0.786389 0.18265 0.1122
0.836973 0.18735 0.116594
0.884855 0.191897 0.121736
0.935363 0.197711 0.127016
0.982528 0.202808 0.131838
1 0.205005 0.13402
1 0.205005 0.13402
1 0.205005 0.13402
1 0.205005 0.13402
1 0.205005 0.13402
1 0.205005 0.13402
1 0.205005 0.13402
1 0.205005 0.13402
1 0.205005 0.13402
1 0.205005 0.13402
1 0.205005 0.13402
1 0.205005 0.13402
1 0.205005 0.13402
0.0800946 0.156283 0.0493935
0.0792554 0.151446 0.047776
0.0783856 0.14638 0.0460517
0.0774395 0.1411 0.0441291
0.0764477 0.135546 0.0421302
0.0885176 0.127611 0.0387732
0.128908 0.121614 0.0417639
0.188251 0.125551 0.0512093
0.255421 0.135836 0.0632181
0.345144 0.148333 0.0703136
0.430274 0.157397 0.0777905
0.512535 0.158877 0.0854963
0.584527 0.159136 0.09514
0.656168 0.167941 0.102098
0.718654 0.172854 0.105409
0.783841 0.182269 0.111986
0.835874 0.187503 0.116487
0.883162 0.191684 0.121569
0.933852 0.197543 0.126848
0.981155 0.202686 0.131701
1 0.205005 0.13402
1 0.205005 0.13402
1 0.205005 0.13402
1 0.205005 0.13402
1 0.205005 0.13402
1 0.205005 0.13402
1 0.205005 0.13402
1 0.205005 0.13402
1 0.205005 0.13402
1 0.205005 0.13402
1 0.205005 0.13402
1 0.205005 0.13402
1 0.205005 0.13402
0.0860456 0.20116 0.0709087
0.0857252 0.197513 0.0699016
0.0853742 0.19379 0.068864
0.085008 0.18996 0.0677806
0.0844434 0.184833 0.0646677
0.0838331 0.178973 0.0603799
0.112337 0.167086 0.0502632
0.175784 0.166827 0.0614786
0.236393 0.169497 0.0649119
0.319219 0.176532 0.0702525
0.400565 0.181155 0.0730144
0.484825 0.180926 0.0773327
0.571069 0.178256 0.0831617
0.646815 0.173495 0.0942245
0.714855 0.172396 0.105119
0.780697 0.181842 0.111788
0.834516 0.187655 0.11635
0.881086 0.191424 0.12134
0.932006 0.19733 0.126665
0.979492 0.202518 0.131548
1 0.205005 0.13402
1 0.205005 0.13402
1 0.205005 0.13402
1 0.205005 0.13402
1 0.205005 0.13402
1 0.205005 0.13402
1 0.205005 0.13402
1 0.205005 0.13402
1 0.205005 0.13402
1 0.205005 0.13402
1 0.205005 0.13402
1 0.205005 0.13402
1 0.205005 0.13402
0.0879377 0.244907 0.0800946
0.0878157 0.241794 0.0794842
0.0877089 0.238636 0.0788739
0.0875715 0.235355 0.0782483
0.0874342 0.231998 0.0776226
0.0872969 0.22858 0.0769818
0.0978256 0.22356 0.0750744
0.139406 0.214557 0.0658427
0.237324 0.224979 0.0774395
0.3093 0.220859 0.0762036
0.381216 0.219364 0.0779889
0.453712 0.215976 0.0770275
0.542062 0.212802 0.0790723
0.626978 0.205447 0.0858778
0.704067 0.192859 0.0943618
0.775631 0.182315 0.110491
0.832715 0.187869 0.116167
0.878325 0.191089 0.12105
0.929534 0.197055 0.126406
0.977264 0.202304 0.131334
1 0.205005 0.13402
1 0.205005 0.13402
1 0.205005 0.13402
1 0.205005 0.13402
1 0.205005 0.13402
1 0.205005 0.13402
1 0.205005 0.13402
1 0.205005 0.13402
1 0.205005 0.13402
1 0.205005 0.13402
1 0.205005 0.13402
1 0.205005 0.13402
1 0.205005 0.13402
0.0920729 0.288808 0.0904097
0.0917678 0.286229 0.0896773
0.0914321 0.283574 0.0889143
0.0911116 0.280842 0.0881208
0.0907607 0.278035 0.0872969
0.0904555 0.275319 0.0865492
0.0901961 0.272892 0.0860151
0.112825 0.266255 0.0821851
0.173312 0.257862 0.0737926
0.303944 0.284367 0.0939803
0.36582 0.269017 0.0880751
0.44004 0.265003 0.0881514
0.515404 0.259144 0.0868086
0.599786 0.248035 0.0847791
0.681132 0.237263 0.0882887
0.753445 0.219608 0.0957961
0.824002 0.203159 0.108858
0.874647 0.190631 0.120653
0.926268 0.196689 0.12607
0.974334 0.202014 0.131044
1 0.205005 0.13402
1 0.205005 0.13402
1 0.205005 0.13402
1 0.205005 0.13402
1 0.205005 0.13402
1 0.205005 0.13402
1 0.205005 0.13402
1 0.205005 0.13402
1 0.205005 0.13402
1 0.205005 0.13402
1 0.205005 0.13402
1 0.205005 0.13402
1 0.205005 0.13402
0.0952316 0.335836 0.0978714
0.0950942 0.333822 0.0975509
0.0949569 0.331762 0.0972305
0.0948196 0.329656 0.0968948
0.0946822 0.32752 0.0965591
0.0945296 0.325338 0.0962081
0.0943923 0.323156 0.0958572
0.0942092 0.3205 0.0954452
0.133227 0.307332 0.0876936
0.228061 0.313146 0.0861982
0.363622 0.342702 0.108125
0.424933 0.320378 0.102586
0.499947 0.308583 0.0961776
0.576089 0.296544 0.0905165
0.657359 0.285649 0.0916304
0.731304 0.26949 0.0899519
0.801724 0.253666 0.0961624
0.854398 0.231815 0.105272
0.916548 0.206683 0.120684
0.970459 0.201633 0.130648
1 0.205005 0.13402
1 0.205005 0.13402
1 0.205005 0.13402
1 0.205005 0.13402
1 0.205005 0.13402
1 0.205005 0.13402
1 0.205005 0.13402
1 0.205005 0.13402
1 0.205005 0.13402
1 0.205005 0.13402
1 0.205005 0.13402
1 0.205005 0.13402
1 0.205005 0.13402
0.102831 0.387915 0.104982
0.102647 0.386496 0.104829
0.102419 0.384939 0.104646
0.102083 0.383154 0.104417
0.101762 0.381353 0.104173
0.101442 0.379522 0.103929
0.101106 0.377691 0.103685
0.10071 0.375448 0.103395
0.100175 0.372488 0.102998
0.163607 0.354604 0.0918441
0.28394 0.370809 0.0967727
0.423255 0.397833 0.119646
0.483131 0.368322 0.110857
0.560067 0.356359 0.105837
0.636194 0.340566 0.100938
0.713146 0.324865 0.0972
0.781277 0.308125 0.0958267
0.84358 0.292088 0.0980697
0.892653 0.273121 0.104097
0.946059 0.247944 0.112795
0.996323 0.220157 0.126345
1 0.205005 0.13402
1 0.205005 0.13402
1 0.205005 0.13402
1 0.205005 0.13402
1 0.205005 0.13402
1 0.205005 0.13402
1 0.205005 0.13402
1 0.205005 0.13402
1 0.205005 0.13402
1 0.205005 0.13402
1 0.205005 0.13402
1 0.205005 0.13402
0.111177 0.442283 0.111101
0.110964 0.440894 0.110948
0.110765 0.43946 0.110796
0.110552 0.438025 0.110643
0.110338 0.436561 0.110491
0.110124 0.43508 0.110338
0.109895 0.4336 0.110185
0.109636 0.431815 0.109987
0.109285 0.429435 0.109743
0.116228 0.424216 0.108217
0.194675 0.40354 0.0914626
0.354421 0.438804 0.1122
0.481331 0.448707 0.125795
0.545068 0.422614 0.121263
0.617945 0.405539 0.117357
0.693034 0.391119 0.113771
0.762387 0.368673 0.106981
0.828092 0.349889 0.0997024
0.876051 0.333944 0.101015
0.925597 0.317098 0.104295
0.973312 0.298955 0.10927
0.980056 0.276875 0.112474
0.985824 0.251347 0.116777
0.994354 0.226551 0.123598
1 0.208515 0.132189
1 0.205005 0.13402
1 0.205005 0.13402
1 0.205005 0.13402
1 0.205005 0.13402
1 0.205005 0.13402
1 0.205005 0.13402
1 0.205005 0.13402
1 0.205005 0.13402
0.119097 0.499748 0.11664
0.11899 0.498802 0.116564
0.118898 0.49781 0.116487
0.118746 0.496605 0.116381
0.118578 0.495384 0.116274
0.11841 0.494163 0.116167
0.118257 0.492927 0.11606
0.118059 0.491447 0.115923
0.117784 0.489448 0.115755
0.117433 0.486809 0.115526
0.142275 0.4795 0.111528
0.238849 0.456977 0.0946975
0.424323 0.502144 0.125093
0.537865 0.499962 0.134493
0.6056 0.47689 0.128435
0.673869 0.456825 0.12546
0.742763 0.440284 0.121447
0.808423 0.41912 0.115587
0.861326 0.399069 0.109117
0.91104 0.385107 0.108629
0.956359 0.370504 0.109789
0.96698 0.352667 0.108949
0.969238 0.335897 0.108522
0.970459 0.319921 0.108309
0.973877 0.305364 0.108492
0.975692 0.293599 0.11014
0.978256 0.283558 0.111482
0.980529 0.275074 0.112749
0.98233 0.267811 0.113848
0.983734 0.261753 0.11487
0.984848 0.256855 0.11574
0.985565 0.252995 0.116457
0.986053 0.250004 0.117037
0.126406 0.558206 0.122683
0.126284 0.557229 0.12256
0.126162 0.556237 0.122423
0.126024 0.55523 0.122301
0.125902 0.554208 0.122164
0.125765 0.553185 0.122042
0.125643 0.552178 0.12192
0.12549 0.550942 0.121752
0.125277 0.549279 0.121538
0.125002 0.547112 0.121263
0.124636 0.544244 0.120912
0.177569 0.530297 0.111788
0.297337 0.517037 0.104555
0.488304 0.564675 0.139681
0.594446 0.558541 0.144991
0.662745 0.534432 0.13872
0.72755 0.511269 0.134951
0.791028 0.492378 0.131258
0.847913 0.471687 0.123384
0.895781 0.460395 0.123751
0.940658 0.448371 0.12459
0.959335 0.434119 0.123384
0.960464 0.417853 0.120089
0.961807 0.403189 0.116823
0.962798 0.39173 0.114061
0.963943 0.381964 0.111727
0.964752 0.373922 0.11075
0.965408 0.367422 0.110185
0.965927 0.362219 0.109728
0.966354 0.358144 0.109377
0.96669 0.354986 0.109102
0.96698 0.352651 0.108949
0.967224 0.350973 0.108888
0.135698 0.617121 0.129137
0.135515 0.616327 0.129076
0.135332 0.615518 0.129015
0.135134 0.614694 0.128954
0.134951 0.61387 0.128893
0.134768 0.613046 0.128817
0.134585 0.612222 0.128756
0.13434 0.6112 0.128679
0.134051 0.609888 0.128573
0.13373 0.608225 0.12845
0.133288 0.606043 0.128283
0.132723 0.603204 0.128069
0.219883 0.583856 0.115175
0.370932 0.585046 0.117861
0.553918 0.626047 0.151736
0.652644 0.612238 0.151263
0.719875 0.589075 0.145068
0.778683 0.56762 0.142672
0.836378 0.545693 0.135988
0.88452 0.534279 0.135042
0.929381 0.523934 0.1355
0.95816 0.513024 0.135348
0.958267 0.50074 0.133516
0.958099 0.489723 0.131823
0.957732 0.48014 0.130266
0.957336 0.472068 0.128939
0.957443 0.465537 0.127977
0.95761 0.460304 0.127245
0.957748 0.456153 0.12665
0.957992 0.452979 0.126253
0.958206 0.450523 0.125933
0.958358 0.448661 0.125704
0.95848 0.447257 0.125536
0.143496 0.670756 0.132143
0.14345 0.67013 0.132128
0.143389 0.669505 0.132097
0.143343 0.668864 0.132082
0.143297 0.668223 0.132067
0.143236 0.667582 0.132036
0.143191 0.666941 0.132021
0.14313 0.666148 0.132006
0.143038 0.66511 0.131975
0.142931 0.663737 0.13193
0.142779 0.661936 0.131868
0.142611 0.659632 0.131792
0.142367 0.656672 0.131685
0.263676 0.635554 0.113954
0.445624 0.653727 0.132479
0.618585 0.683284 0.161151
0.703548 0.664408 0.159228
0.769207 0.645197 0.152193
0.825406 0.623758 0.148486
0.872801 0.608713 0.145068
0.917388 0.599771 0.145754
0.95639 0.591211 0.146395
0.957443 0.581155 0.145281
0.957259 0.571939 0.143908
0.957153 0.563958 0.142733
0.957107 0.55726 0.141756
0.957076 0.551766 0.140963
0.957275 0.547066 0.140261
0.957427 0.543374 0.139696
0.957549 0.540505 0.139269
0.957641 0.538277 0.138918
0.957717 0.536614 0.138674
0.957778 0.535332 0.138491
0.147753 0.723247 0.13434
0.147707 0.722637 0.13431
0.147646 0.722026 0.134279
0.147601 0.721416 0.134249
0.147539 0.720806 0.134218
0.147478 0.72018 0.134188
0.147433 0.719554 0.134157
0.147356 0.718807 0.134112
0.147265 0.717784 0.134066
0.147158 0.716472 0.134005
0.147005 0.714733 0.133913
0.146822 0.712581 0.133791
0.146609 0.709926 0.133654
0.163165 0.703044 0.13106
0.315648 0.681819 0.110323
0.537255 0.717952 0.14902
0.677455 0.73579 0.171817
0.752102 0.714565 0.16582
0.815122 0.697597 0.15671
0.866163 0.683253 0.156924
0.911421 0.674189 0.156146
0.951095 0.666178 0.155871
0.965698 0.658076 0.154971
0.964736 0.650004 0.153628
0.963912 0.642863 0.15256
0.963211 0.636835 0.151644
0.962646 0.631968 0.150927
0.962203 0.628077 0.150347
0.961837 0.624994 0.149889
0.961578 0.622629 0.149538
0.961364 0.620829 0.149264
0.961212 0.61944 0.149065
0.961089 0.618402 0.148913
0.153292 0.773083 0.141619
0.153231 0.772595 0.141527
0.15317 0.772091 0.141421
0.153109 0.771588 0.141314
0.153048 0.771084 0.141207
0.152987 0.770581 0.141115
0.152911 0.770077 0.141009
0.152834 0.769451 0.140887
0.152728 0.768643 0.140719
0.152605 0.767559 0.140505
0.152422 0.766171 0.14023
0.152193 0.76434 0.139879
0.151888 0.762005 0.139422
0.151522 0.75906 0.138857
0.238865 0.741192 0.126909
0.402335 0.736141 0.121065
0.614694 0.778027 0.164889
0.726421 0.77847 0.17258
0.796201 0.760098 0.167895
0.855085 0.748119 0.161593
0.901656 0.740764 0.163973
0.943221 0.734325 0.164309
0.973892 0.728313 0.164477
0.973663 0.722026 0.163882
0.973007 0.716365 0.163287
0.972366 0.711574 0.162768
0.971878 0.707698 0.162356
0.971466 0.704601 0.16202
0.97116 0.702174 0.161776
0.970916 0.700298 0.161563
0.970718 0.698833 0.16141
0.970581 0.697749 0.161303
0.970474 0.696925 0.161212
0.155337 0.815137 0.140963
0.155352 0.814771 0.141024
0.155352 0.814389 0.1411
0.155367 0.814023 0.141192
0.155383 0.813642 0.141283
0.155398 0.81326 0.141375
0.155413 0.812879 0.141466
0.155428 0.812421 0.141573
0.155444 0.81181 0.141726
0.155474 0.811002 0.141909
0.155505 0.809934 0.142153
0.15555 0.80856 0.142473
0.155612 0.806806 0.142885
0.155688 0.804578 0.14342
0.155749 0.801801 0.143984
0.305974 0.778454 0.123323
0.503838 0.795316 0.137026
0.681697 0.825086 0.171099
0.775174 0.8168 0.174563
0.835218 0.801328 0.167575
0.884794 0.794217 0.165011
0.927993 0.789105 0.165423
0.964187 0.784573 0.165957
0.975174 0.779934 0.16614
0.975097 0.775479 0.166155
0.975036 0.771771 0.166171
0.97499 0.76875 0.166171
0.974945 0.766339 0.166186
0.974914 0.764446 0.166201
0.974884 0.762951 0.166217
0.974868 0.761837 0.166217
0.974853 0.760967 0.166232
0.974838 0.760327 0.166232
0.157702 0.851164 0.143328
0.157687 0.850828 0.143313
0.157656 0.850462 0.143282
0.157641 0.850111 0.143252
0.15761 0.849744 0.143236
0.157595 0.849378 0.143206
0.157565 0.849027 0.143191
0.157534 0.848585 0.14316
0.157504 0.848005 0.143114
0.157443 0.847242 0.143069
0.157382 0.846235 0.143008
0.15729 0.844923 0.142916
0.157183 0.843259 0.142809
0.157046 0.841154 0.142672
0.156878 0.838529 0.142489
0.214557 0.82652 0.136355
0.375021 0.810483 0.116442
0.613001 0.849867 0.158404
0.74432 0.864836 0.177981
0.814557 0.846555 0.173144
0.867582 0.838178 0.169345
0.911269 0.833402 0.169375
0.948669 0.82916 0.169497
0.975341 0.825437 0.16965
0.975357 0.821851 0.169345
0.97528 0.81883 0.168963
0.975219 0.816373 0.168673
0.975174 0.81442 0.168429
0.975128 0.812894 0.168246
0.975097 0.811719 0.168093
0.975067 0.810819 0.167987
0.975052 0.810132 0.167895
0.975036 0.809613 0.167834
0.159792 0.882948 0.145449
0.159777 0.882628 0.145418
0.159747 0.882292 0.145403
0.159731 0.881956 0.145373
0.159701 0.881621 0.145357
0.159686 0.881285 0.145327
0.159655 0.880949 0.145312
0.15964 0.880537 0.145281
0.159594 0.880003 0.145251
0.159548 0.879286 0.145205
0.159487 0.878355 0.145129
0.159411 0.877134 0.145052
0.159304 0.875578 0.144945
0.159182 0.87361 0.144823
0.159014 0.871183 0.144656
0.158831 0.868238 0.144457
0.315999 0.848127 0.126589
0.513146 0.861616 0.134691
0.698222 0.892058 0.171359
0.794232 0.891752 0.182513
0.851469 0.875731 0.173053
0.893263 0.87068 0.170764
0.931884 0.866606 0.170733
0.963348 0.863142 0.170825
0.973892 0.860044 0.170809
0.973968 0.857359 0.170703
0.974044 0.855192 0.170611
0.974105 0.853452 0.17055
0.974151 0.852094 0.170489
0.974182 0.851057 0.170443
0.974212 0.850248 0.170413
0.974227 0.849638 0.170382
0.974258 0.84918 0.170367
0.161578 0.910185 0.14725
0.161563 0.90988 0.147234
0.161547 0.909575 0.147219
0.161517 0.909255 0.147189
0.161501 0.908934 0.147173
0.161486 0.908614 0.147143
0.161456 0.908309 0.147127
0.16144 0.907912 0.147097
0.161395 0.907408 0.147066
0.161349 0.906737 0.147021
0.161303 0.905852 0.14696
0.161227 0.904707 0.146883
0.16112 0.903243 0.146792
0.160998 0.901381 0.14667
0.160861 0.899092 0.146517
0.160678 0.89633 0.146334
0.246052 0.883421 0.136721
0.416907 0.869825 0.119417
0.648859 0.91371 0.164553
0.771206 0.924681 0.183886
0.834104 0.908782 0.178882
0.87657 0.901915 0.172839
0.916426 0.8981 0.172686
0.948837 0.894759 0.172625
0.972839 0.891981 0.172656
0.972961 0.889494 0.172503
0.973053 0.887495 0.172381
0.973098 0.885908 0.17229
0.973144 0.884672 0.172213
0.973175 0.883711 0.172152
0.973205 0.882979 0.172107
0.97322 0.882429 0.172076
0.973251 0.882002 0.172045
0.162387 0.922347 0.148058
0.162387 0.922347 0.148058
0.162387 0.922347 0.148058
0.162387 0.922347 0.148058
0.162387 0.922347 0.148058
0.162387 0.922347 0.148058
0.162387 0.922347 0.148058
0.162387 0.922347 0.148058
0.162387 0.922347 0.148058
0.162387 0.922347 0.148058
0.162387 0.922347 0.148058
0.162387 0.922347 0.148058
0.162387 0.922347 0.148058
0.162387 0.922347 0.148058
0.162387 0.922347 0.148058
0.162219 0.919707 0.147875
0.162005 0.916609 0.147677
0.358999 0.891539 0.120607
0.598886 0.927474 0.156252
0.745403 0.946334 0.180911
0.818372 0.935546 0.182116
0.864256 0.925566 0.174212
0.903639 0.921889 0.17322
0.93666 0.918959 0.17322
0.962982 0.916548 0.173327
0.972519 0.914504 0.173373
0.972503 0.912795 0.173358
0.972488 0.911437 0.173342
0.972473 0.910369 0.173327
0.972457 0.909545 0.173327
0.972457 0.908919 0.173312
0.972457 0.908446 0.173312
0.972442 0.90808 0.173312
0.162387 0.922347 0.148058
0.162387 0.922347 0.148058
0.162387 0.922347 0.148058
0.162387 0.922347 0.148058
0.162387 0.922347 0.148058
0.162387 0.922347 0.148058
0.162387 0.922347 0.148058
0.162387 0.922347 0.148058
0.162387 0.922347 0.148058
0.162387 0.922347 0.148058
0.162387 0.922347 0.148058
0.162387 0.922347 0.148058
0.162387 0.922347 0.148058
0.162387 0.922347 0.148058
0.162387 0.922347 0.148058
0.162387 0.922347 0.148058
0.162387 0.922347 0.148058
0.322148 0.904524 0.128878
0.54786 0.929412 0.145495
0.716945 0.958984 0.177005
0.804578 0.958068 0.184909
0.854871 0.945037 0.176242
0.892668 0.941024 0.173632
0.926436 0.938109 0.173526
0.953277 0.935714 0.173556
0.972763 0.933776 0.173617
0.972747 0.932143 0.173602
0.972717 0.930831 0.173571
0.972717 0.929808 0.173571
0.972702 0.92903 0.173556
0.972686 0.92842 0.173541
0.972686 0.927962 0.173541
0.972686 0.927626 0.173541
0.162387 0.922347 0.148058
0.162387 0.922347 0.148058
0.162387 0.922347 0.148058
0.162387 0.922347 0.148058
0.162387 0.922347 0.148058
0.162387 0.922347 0.148058
0.162387 0.922347 0.148058
0.162387 0.922347 0.148058
0.162387 0.922347 0.148058
0.162387 0.922347 0.148058
0.162387 0.922347 0.148058
0.162387 0.922347 0.148058
0.162387 0.922347 0.148058
0.162387 0.922347 0.148058
0.162387 0.922347 0.148058
0.162387 0.922347 0.148058
0.162387 0.922347 0.148058
0.285649 0.90811 0.135424
0.489433 0.916823 0.133165
0.69073 0.955535 0.173053
0.791516 0.962356 0.185992
0.84593 0.950591 0.17792
0.883238 0.949187 0.173861
0.917754 0.949081 0.173739
0.945129 0.949081 0.173754
0.966583 0.949111 0.173816
0.972961 0.947555 0.173816
0.972946 0.946288 0.1738
0.97293 0.945296 0.173785
0.972915 0.944533 0.17377
0.9729 0.943954 0.173754
0.9729 0.943511 0.173754
0.9729 0.943175 0.173754
0.162387 0.922347 0.148058
0.162387 0.922347 0.148058
0.162387 0.922347 0.148058
0.162387 0.922347 0.148058
0.162387 0.922347 0.148058
0.162387 0.922347 0.148058
0.162387 0.922347 0.148058
0.162387 0.922347 0.148058
0.162387 0.922347 0.148058
0.162387 0.922347 0.148058
0.162387 0.922347 0.148058
0.162387 0.922347 0.148058
0.162387 0.922347 0.148058
0.162387 0.922347 0.148058
0.162387 0.922347 0.148058
0.162387 0.922347 0.148058
0.162387 0.922347 0.148058
0.241154 0.913024 0.138994
0.436255 0.905165 0.123308
0.66714 0.952499 0.169421
0.779538 0.963882 0.185824
0.837339 0.951736 0.17937
0.875319 0.949233 0.173907
0.91046 0.949096 0.173754
0.938262 0.949081 0.173739
0.960021 0.949126 0.173785
0.972976 0.949172 0.173831
0.972976 0.949172 0.173831
0.972976 0.949172 0.173831
0.972976 0.949172 0.173831
0.972976 0.949172 0.173831
0.972976 0.949172 0.173831
0.972976 0.949172 0.173831
0.162387 0.922347 0.148058
0.162387 0.922347 0.148058
0.162387 0.922347 0.148058
0.162387 0.922347 0.148058
0.162387 0.922347 0.148058
0.162387 0.922347 0.148058
0.162387 0.922347 0.148058
0.162387 0.922347 0.148058
0.162387 0.922347 0.148058
