modules/camera-engine/ios/LUTs/panasonic-camping-vibe.cube
TITLE "Generated by Resolve"
LUT_3D_SIZE 33
0.112444 0.0948653 0.0856031
0.112444 0.0948653 0.0856031
0.112444 0.0948653 0.0856031
0.115938 0.0945449 0.0851606
0.134478 0.0960708 0.0844129
0.15729 0.102892 0.0860609
0.17821 0.110613 0.0874037
0.209247 0.119402 0.0870069
0.246433 0.133104 0.0891127
0.295872 0.151293 0.0921798
0.366491 0.172137 0.0961166
0.44303 0.196002 0.0970016
0.521416 0.208148 0.0958877
0.594766 0.22063 0.0928054
0.664317 0.231647 0.0913252
0.724514 0.241886 0.0913558
0.783261 0.250065 0.0944991
0.821225 0.250233 0.0952773
0.862989 0.258991 0.0992447
0.871733 0.257282 0.0974289
0.869062 0.253834 0.0968795
0.869062 0.253834 0.0968795
0.869062 0.253834 0.0968795
0.869062 0.253834 0.0968795
0.869062 0.253834 0.0968795
0.869062 0.253834 0.0968795
0.869062 0.253834 0.0968795
0.869062 0.253834 0.0968795
0.869062 0.253834 0.0968795
0.869062 0.253834 0.0968795
0.869062 0.253834 0.0968795
0.869062 0.253834 0.0968795
0.869062 0.253834 0.0968795
0.112444 0.0948653 0.0856031
0.112444 0.0948653 0.0856031
0.112444 0.0948653 0.0856031
0.114 0.0948043 0.0855268
0.123735 0.0948959 0.0846723
0.149722 0.0999619 0.0853895
0.16965 0.107652 0.0870069
0.200183 0.116899 0.0871901
0.237995 0.129763 0.0884871
0.28571 0.148028 0.0914931
0.356878 0.169818 0.0959487
0.43537 0.19382 0.0967727
0.516609 0.207889 0.0962844
0.589593 0.219791 0.092958
0.661357 0.231159 0.0915084
0.721736 0.241337 0.0910201
0.781674 0.250019 0.0943618
0.819959 0.250187 0.0952773
0.862074 0.258854 0.0991531
0.872496 0.257755 0.0975052
0.869062 0.253834 0.0968795
0.869062 0.253834 0.0968795
0.869062 0.253834 0.0968795
0.869062 0.253834 0.0968795
0.869062 0.253834 0.0968795
0.869062 0.253834 0.0968795
0.869062 0.253834 0.0968795
0.869062 0.253834 0.0968795
0.869062 0.253834 0.0968795
0.869062 0.253834 0.0968795
0.869062 0.253834 0.0968795
0.869062 0.253834 0.0968795
0.869062 0.253834 0.0968795
0.112444 0.0948653 0.0856031
0.112444 0.0948653 0.0856031
0.112444 0.0948653 0.0856031
0.112459 0.0948653 0.0856031
0.117754 0.0944533 0.0849012
0.141344 0.097261 0.0845502
0.161959 0.104753 0.0864576
0.190707 0.114275 0.0873732
0.229343 0.126268 0.0877546
0.276646 0.144793 0.0909743
0.347127 0.1673 0.0956893
0.427695 0.191272 0.0965744
0.511727 0.207675 0.0967269
0.583856 0.218753 0.0931563
0.658381 0.23064 0.0916457
0.719051 0.240833 0.0907149
0.779858 0.249866 0.0944076
0.818662 0.250141 0.0953078
0.861128 0.258717 0.0990768
0.873259 0.258137 0.0976425
0.869062 0.253834 0.0968795
0.869062 0.253834 0.0968795
0.869062 0.253834 0.0968795
0.869062 0.253834 0.0968795
0.869062 0.253834 0.0968795
0.869062 0.253834 0.0968795
0.869062 0.253834 0.0968795
0.869062 0.253834 0.0968795
0.869062 0.253834 0.0968795
0.869062 0.253834 0.0968795
0.869062 0.253834 0.0968795
0.869062 0.253834 0.0968795
0.869062 0.253834 0.0968795
0.112444 0.0948653 0.0856031
0.112444 0.0948653 0.0856031
0.112444 0.0948653 0.0856031
0.112444 0.0948653 0.0856031
0.115267 0.0946822 0.0853742
0.13051 0.0955673 0.0844587
0.154604 0.101854 0.0858167
0.180453 0.111269 0.0874037
0.220401 0.122621 0.0869306
0.267735 0.141482 0.0904555
0.337606 0.164355 0.0951095
0.419684 0.188525 0.0962997
0.506767 0.207446 0.0971695
0.578164 0.217716 0.0933242
0.655268 0.230137 0.0918288
0.716594 0.240375 0.090547
0.778027 0.249744 0.0944381
0.817319 0.25008 0.0952773
0.860182 0.258579 0.0989853
0.874006 0.258518 0.0977646
0.869062 0.253834 0.0968795
0.869062 0.253834 0.0968795
0.869062 0.253834 0.0968795
0.869062 0.253834 0.0968795
0.869062 0.253834 0.0968795
0.869062 0.253834 0.0968795
0.869062 0.253834 0.0968795
0.869062 0.253834 0.0968795
0.869062 0.253834 0.0968795
0.869062 0.253834 0.0968795
0.869062 0.253834 0.0968795
0.869062 0.253834 0.0968795
0.869062 0.253834 0.0968795
0.100328 0.0847181 0.0648966
0.10312 0.0872358 0.069749
0.105928 0.0897536 0.0746166
0.108629 0.0921798 0.0793011
0.111192 0.0935378 0.0822003
0.118578 0.0934615 0.0820478
0.145586 0.0983139 0.0839857
0.171115 0.108171 0.0870832
0.211322 0.119966 0.0869764
0.259358 0.138231 0.0899519
0.327855 0.161318 0.0944839
0.411643 0.185794 0.0961929
0.500786 0.206928 0.0974441
0.572396 0.216663 0.0934768
0.652125 0.229603 0.0916457
0.714092 0.239902 0.0903792
0.776181 0.249607 0.0944839
0.815976 0.250004 0.0952621
0.859205 0.258442 0.098909
0.874815 0.258915 0.0978714
0.869062 0.253834 0.0968795
0.869062 0.253834 0.0968795
0.869062 0.253834 0.0968795
0.869062 0.253834 0.0968795
0.869062 0.253834 0.0968795
0.869062 0.253834 0.0968795
0.869062 0.253834 0.0968795
0.869062 0.253834 0.0968795
0.869062 0.253834 0.0968795
0.869062 0.253834 0.0968795
0.869062 0.253834 0.0968795
0.869062 0.253834 0.0968795
0.869062 0.253834 0.0968795
0.0878004 0.0787671 0.00968948
0.0867933 0.075227 0.00910964
0.0857862 0.0717327 0.00854505
0.0847791 0.0681926 0.00798047
0.0876173 0.070985 0.0197147
0.0957809 0.0751354 0.034165
0.120394 0.0836805 0.0510109
0.149294 0.0951247 0.0700999
0.191089 0.111635 0.0764935
0.242267 0.131075 0.083299
0.315679 0.157321 0.0920577
0.403708 0.183124 0.0962234
0.494087 0.206195 0.0975814
0.567147 0.215656 0.0936599
0.648875 0.229099 0.0915084
0.711559 0.239429 0.0901961
0.774365 0.249454 0.0944839
0.814618 0.249958 0.0952773
0.858198 0.258289 0.0988479
0.875563 0.259312 0.0979934
0.869062 0.253834 0.0968795
0.869062 0.253834 0.0968795
0.869062 0.253834 0.0968795
0.869062 0.253834 0.0968795
0.869062 0.253834 0.0968795
0.869062 0.253834 0.0968795
0.869062 0.253834 0.0968795
0.869062 0.253834 0.0968795
0.869062 0.253834 0.0968795
0.869062 0.253834 0.0968795
0.869062 0.253834 0.0968795
0.869062 0.253834 0.0968795
0.869062 0.253834 0.0968795
0.0948348 0.100435 0.0141451
0.0939956 0.0979324 0.0137331
0.0931411 0.0953689 0.0133211
0.0922408 0.0927138 0.0128939
0.0913252 0.0899367 0.012314
0.0924544 0.0869306 0.0115206
0.102449 0.0841688 0.0139773
0.132494 0.0894789 0.0282902
0.166735 0.098909 0.0399786
0.215839 0.117952 0.0546273
0.284474 0.144503 0.0724804
0.385809 0.1738 0.085771
0.486534 0.205432 0.0971237
0.562661 0.214664 0.0937667
0.645579 0.22858 0.0913863
0.708965 0.238972 0.0900282
0.772549 0.249332 0.0945296
0.813275 0.249882 0.0952468
0.857069 0.258106 0.0988174
0.876356 0.259709 0.0981308
0.869062 0.253834 0.0968795
0.869062 0.253834 0.0968795
0.869062 0.253834 0.0968795
0.869062 0.253834 0.0968795
0.869062 0.253834 0.0968795
0.869062 0.253834 0.0968795
0.869062 0.253834 0.0968795
0.869062 0.253834 0.0968795
0.869062 0.253834 0.0968795
0.869062 0.253834 0.0968795
0.869062 0.253834 0.0968795
0.869062 0.253834 0.0968795
0.869062 0.253834 0.0968795
0.102861 0.12697 0.0295415
0.102052 0.124239 0.0278325
0.101244 0.121431 0.0261082
0.100404 0.118563 0.0243381
0.0995346 0.115572 0.0224765
0.0986954 0.112688 0.020737
0.102876 0.108904 0.0187991
0.123674 0.107103 0.0268254
0.160861 0.114 0.0451209
0.202029 0.124361 0.0530098
0.261128 0.144579 0.0681621
0.360876 0.172976 0.0754101
0.467582 0.199619 0.0819257
0.553521 0.210285 0.0860304
0.641611 0.227955 0.0912184
0.705821 0.238422 0.0898451
0.770031 0.249012 0.0944839
0.81178 0.249821 0.0952316
0.85568 0.257862 0.0987869
0.877302 0.260212 0.0982834
0.869062 0.253834 0.0968795
0.869062 0.253834 0.0968795
0.869062 0.253834 0.0968795
0.869062 0.253834 0.0968795
0.869062 0.253834 0.0968795
0.869062 0.253834 0.0968795
0.869062 0.253834 0.0968795
0.869062 0.253834 0.0968795
0.869062 0.253834 0.0968795
0.869062 0.253834 0.0968795
0.869062 0.253834 0.0968795
0.869062 0.253834 0.0968795
0.869062 0.253834 0.0968795
0.112444 0.162768 0.0597391
0.11194 0.159228 0.0561685
0.111376 0.155856 0.0528115
0.110643 0.15314 0.0502632
0.109911 0.150423 0.0476997
0.109148 0.147601 0.0450294
0.109957 0.144381 0.0416114
0.111666 0.139879 0.037995
0.14728 0.142412 0.0436408
0.212955 0.155993 0.0753338
0.252735 0.164736 0.0743572
0.337942 0.181445 0.0810254
0.433341 0.201801 0.0823224
0.532525 0.216892 0.083772
0.637263 0.226535 0.0800183
0.702388 0.237552 0.0888991
0.766339 0.248417 0.094316
0.809781 0.249744 0.0952316
0.853849 0.257542 0.0987411
0.878279 0.260731 0.0984665
0.869062 0.253834 0.0968795
0.869062 0.253834 0.0968795
0.869062 0.253834 0.0968795
0.869062 0.253834 0.0968795
0.869062 0.253834 0.0968795
0.869062 0.253834 0.0968795
0.869062 0.253834 0.0968795
0.869062 0.253834 0.0968795
0.869062 0.253834 0.0968795
0.869062 0.253834 0.0968795
0.869062 0.253834 0.0968795
0.869062 0.253834 0.0968795
0.869062 0.253834 0.0968795
0.116701 0.2065 0.0889754
0.116686 0.204318 0.0881819
0.11667 0.202121 0.0874037
0.116655 0.199817 0.0865644
0.11664 0.197559 0.0857557
0.116609 0.195193 0.0849012
0.116579 0.192874 0.0840162
0.119905 0.18854 0.0811475
0.12961 0.18674 0.069688
0.195911 0.197131 0.0794842
0.270558 0.210147 0.0940566
0.334661 0.21117 0.0907301
0.418311 0.220447 0.0932326
0.4916 0.226658 0.087953
0.596078 0.238056 0.0865644
0.689204 0.242725 0.086305
0.759945 0.246235 0.0859693
0.807095 0.249577 0.0951705
0.851423 0.257145 0.0986954
0.878294 0.260822 0.0986648
0.869062 0.253834 0.0968795
0.869062 0.253834 0.0968795
0.869062 0.253834 0.0968795
0.869062 0.253834 0.0968795
0.869062 0.253834 0.0968795
0.869062 0.253834 0.0968795
0.869062 0.253834 0.0968795
0.869062 0.253834 0.0968795
0.869062 0.253834 0.0968795
0.869062 0.253834 0.0968795
0.869062 0.253834 0.0968795
0.869062 0.253834 0.0968795
0.869062 0.253834 0.0968795
0.117174 0.246311 0.102846
0.117098 0.244816 0.102296
0.117006 0.24332 0.101732
0.116915 0.241779 0.101167
0.116823 0.240192 0.100572
0.116732 0.238621 0.0999924
0.116655 0.237018 0.0993973
0.11664 0.234745 0.0986191
0.124269 0.228183 0.0952926
0.143648 0.222919 0.0841535
0.245686 0.252399 0.103838
0.357931 0.267231 0.11635
0.410269 0.256718 0.110491
0.481971 0.262379 0.110582
0.559182 0.261463 0.101381
0.657389 0.256413 0.0892042
0.746624 0.262318 0.0907912
0.807172 0.256062 0.0897993
0.847089 0.25655 0.0951705
0.878386 0.260975 0.0989395
0.869062 0.253834 0.0968795
0.869062 0.253834 0.0968795
0.869062 0.253834 0.0968795
0.869062 0.253834 0.0968795
0.869062 0.253834 0.0968795
0.869062 0.253834 0.0968795
0.869062 0.253834 0.0968795
0.869062 0.253834 0.0968795
0.869062 0.253834 0.0968795
0.869062 0.253834 0.0968795
0.869062 0.253834 0.0968795
0.869062 0.253834 0.0968795
0.869062 0.253834 0.0968795
0.12195 0.279866 0.118135
0.121782 0.278706 0.117586
0.121599 0.277516 0.117006
0.121401 0.27631 0.116442
0.121218 0.275059 0.115846
0.121035 0.273823 0.115251
0.120836 0.272572 0.114656
0.120607 0.271061 0.113924
0.120317 0.269093 0.112993
0.130007 0.261952 0.10695
0.161501 0.259907 0.0966049
0.309483 0.315908 0.133898
0.41944 0.328832 0.143603
0.474128 0.310918 0.14023
0.54725 0.303166 0.126925
0.623026 0.2972 0.116457
0.713283 0.285863 0.105852
0.787686 0.279484 0.0986801
0.838926 0.272129 0.095552
0.874983 0.270741 0.0965133
0.871244 0.258427 0.0948043
0.869062 0.253834 0.0968795
0.869062 0.253834 0.0968795
0.869062 0.253834 0.0968795
0.869062 0.253834 0.0968795
0.869062 0.253834 0.0968795
0.869062 0.253834 0.0968795
0.869062 0.253834 0.0968795
0.869062 0.253834 0.0968795
0.869062 0.253834 0.0968795
0.869062 0.253834 0.0968795
0.869062 0.253834 0.0968795
0.869062 0.253834 0.0968795
0.124743 0.326024 0.131212
0.124697 0.324895 0.130907
0.124636 0.323735 0.130602
0.124575 0.32253 0.130266
0.124514 0.321355 0.129961
0.124453 0.320134 0.129641
0.124392 0.318914 0.12932
0.124315 0.317449 0.128939
0.124224 0.315465 0.12842
0.125338 0.312642 0.127642
0.144656 0.305089 0.122744
0.209155 0.313405 0.115084
0.39173 0.386252 0.158465
0.491676 0.391684 0.172457
0.539391 0.35523 0.158465
0.612207 0.343572 0.142855
0.68571 0.321996 0.124666
0.764584 0.313039 0.11696
0.819623 0.29723 0.10309
0.863386 0.288594 0.0997482
0.882811 0.284688 0.100206
0.878447 0.276265 0.0972305
0.873564 0.270695 0.0961624
0.871382 0.261616 0.095201
0.870008 0.254108 0.0956893
0.869062 0.253834 0.0968795
0.869062 0.253834 0.0968795
0.869062 0.253834 0.0968795
0.869062 0.253834 0.0968795
0.869062 0.253834 0.0968795
0.869062 0.253834 0.0968795
0.869062 0.253834 0.0968795
0.869062 0.253834 0.0968795
0.137362 0.376822 0.142184
0.137194 0.37612 0.142061
0.136843 0.375006 0.141833
0.136507 0.373892 0.141604
0.136172 0.372778 0.141375
0.135836 0.371649 0.141146
0.135485 0.370489 0.140902
0.135058 0.3691 0.140612
0.134493 0.367269 0.140246
0.133776 0.364874 0.139742
0.136538 0.360143 0.138705
0.157519 0.346838 0.128161
0.245533 0.366278 0.130114
0.471916 0.462242 0.187793
0.562356 0.446036 0.190982
0.606378 0.412345 0.181384
0.67129 0.382834 0.161013
0.739544 0.367788 0.151263
0.802396 0.342412 0.132982
0.848447 0.327138 0.121294
0.884321 0.313909 0.107515
0.884215 0.30692 0.106432
0.884672 0.300618 0.105104
0.884382 0.294331 0.103044
0.883131 0.287785 0.101106
0.880415 0.281971 0.0992447
0.877195 0.277256 0.0977798
0.878798 0.276005 0.0970932
0.876875 0.274723 0.0966201
0.874281 0.273472 0.0963302
0.873732 0.27219 0.0962234
0.87364 0.271153 0.0961929
0.873533 0.270329 0.0961624
0.150622 0.427955 0.150484
0.150393 0.427054 0.150347
0.150164 0.426154 0.150225
0.149935 0.425238 0.150088
0.149691 0.424292 0.149935
0.149462 0.423377 0.149813
0.149218 0.422431 0.149676
0.148928 0.421271 0.149493
0.148547 0.419776 0.149279
0.148028 0.417777 0.148974
0.147372 0.415167 0.148592
0.156558 0.412238 0.148363
0.174807 0.396872 0.132265
0.296666 0.430457 0.14696
0.547982 0.527794 0.209049
0.626413 0.497978 0.20502
0.668345 0.459052 0.195911
0.725231 0.439582 0.194781
0.779873 0.414572 0.174777
0.827436 0.385412 0.156451
0.868391 0.361212 0.138643
0.881361 0.346349 0.121904
0.882033 0.338231 0.118212
0.882567 0.330861 0.114794
0.88249 0.324361 0.111833
0.883635 0.319005 0.109392
0.88484 0.314733 0.107515
0.884428 0.312337 0.107164
0.884092 0.31043 0.106889
0.884047 0.308949 0.106691
0.884153 0.30779 0.106538
0.884215 0.30692 0.106432
0.884276 0.306233 0.10634
0.163012 0.483589 0.157412
0.162951 0.483131 0.157382
0.162875 0.482658 0.157336
0.162783 0.482109 0.15729
0.162615 0.4813 0.157214
0.162448 0.480446 0.157122
0.16228 0.479637 0.157031
0.162066 0.47863 0.156924
0.161776 0.477287 0.156771
0.161425 0.475563 0.156588
0.160952 0.473259 0.156344
0.160311 0.470268 0.156024
0.178668 0.466484 0.154345
0.208576 0.446937 0.134386
0.375204 0.50782 0.175235
0.610788 0.588022 0.233188
0.68368 0.556695 0.228916
0.72462 0.523445 0.219089
0.76846 0.48484 0.203922
0.814252 0.465751 0.201358
0.849577 0.438209 0.180972
0.875135 0.41149 0.167773
0.876158 0.399542 0.162615
0.877409 0.390021 0.156527
0.878401 0.382193 0.150668
0.879118 0.37586 0.145357
0.879652 0.370611 0.140917
0.880034 0.366369 0.137346
0.880354 0.363058 0.134569
0.880598 0.360464 0.132387
0.880735 0.35848 0.130785
0.880812 0.356985 0.12961
0.880842 0.35584 0.128725
0.173892 0.537881 0.165331
0.173754 0.537194 0.165194
0.173602 0.536522 0.165042
0.173465 0.535805 0.164904
0.173312 0.535119 0.164752
0.173175 0.534401 0.164599
0.173022 0.533715 0.164462
0.172839 0.532845 0.164279
0.172625 0.531746 0.164065
0.17232 0.530251 0.16376
0.171923 0.528313 0.163378
0.17142 0.52578 0.162875
0.170764 0.522545 0.162219
0.204196 0.517388 0.158343
0.233982 0.485954 0.137331
0.469886 0.582986 0.202258
0.671977 0.651713 0.259525
0.748837 0.619501 0.252064
0.784115 0.581552 0.239445
0.810468 0.546761 0.231693
0.841123 0.518151 0.222599
0.869886 0.489937 0.201389
0.871015 0.477913 0.196078
0.870802 0.467994 0.191974
0.870619 0.459358 0.188373
0.870878 0.452522 0.185382
0.871199 0.447044 0.182925
0.871458 0.442649 0.180957
0.871824 0.439384 0.179553
0.87216 0.436835 0.178454
0.872404 0.434928 0.177646
0.872587 0.433463 0.177035
0.87274 0.432319 0.176532
0.189349 0.589593 0.173541
0.18909 0.58909 0.173495
0.188815 0.588556 0.173449
0.18854 0.588006 0.173404
0.188266 0.587472 0.173373
0.187991 0.586923 0.173327
0.187732 0.586389 0.173281
0.187381 0.585718 0.173236
0.186954 0.584848 0.173159
0.186358 0.583688 0.173068
0.185611 0.582177 0.172961
0.184848 0.580514 0.172839
0.183902 0.578393 0.172671
0.185061 0.574853 0.172381
0.226658 0.564111 0.165164
0.285496 0.549905 0.152331
0.535668 0.646983 0.226093
0.731258 0.701839 0.276127
0.798901 0.671168 0.266392
0.832593 0.641749 0.254215
0.851682 0.608957 0.244678
0.869551 0.57792 0.236347
0.87657 0.561532 0.22974
0.875959 0.552728 0.226261
0.875425 0.545098 0.223239
0.874662 0.538308 0.220706
0.873976 0.532753 0.218662
0.873457 0.528298 0.216999
0.873045 0.524834 0.215717
0.872877 0.522469 0.214725
0.872755 0.520638 0.213947
0.872663 0.519265 0.213367
0.872587 0.518242 0.21294
0.19971 0.626917 0.173526
0.19968 0.626581 0.173556
0.199649 0.62623 0.173587
0.199619 0.625895 0.173617
0.199588 0.625544 0.173648
0.199557 0.625177 0.173678
0.199527 0.624826 0.173709
0.199496 0.624399 0.173754
0.199435 0.623819 0.1738
0.199374 0.623072 0.173877
0.199283 0.622095 0.173968
0.199176 0.620829 0.174075
0.199054 0.619242 0.174197
0.198901 0.617288 0.17435
0.21178 0.61236 0.169238
0.251698 0.606088 0.159838
0.378378 0.622492 0.17557
0.628458 0.707256 0.25127
0.786145 0.749615 0.293004
0.831052 0.717906 0.287724
0.864042 0.694514 0.272709
0.884535 0.666194 0.260945
0.896483 0.64773 0.257847
0.894224 0.639384 0.255238
0.892271 0.631968 0.252796
0.890654 0.625711 0.250721
0.889326 0.62063 0.249012
0.888273 0.616617 0.247669
0.887449 0.613443 0.246601
0.886809 0.610986 0.245762
0.886336 0.609125 0.245136
0.885954 0.607645 0.244633
0.885664 0.606577 0.244266
0.202899 0.662013 0.172091
0.202869 0.661616 0.172091
0.202823 0.661189 0.172091
0.202777 0.660746 0.172091
0.202731 0.660304 0.172091
0.202686 0.659861 0.172091
0.20264 0.659434 0.172091
0.202579 0.6589 0.172076
0.202518 0.658198 0.172076
0.202426 0.657282 0.172076
0.202304 0.656077 0.172076
0.202136 0.654505 0.172076
0.201984 0.652934 0.172091
0.201816 0.65098 0.172091
0.201587 0.648569 0.172107
0.238453 0.64094 0.173373
0.270176 0.635966 0.161868
0.486137 0.686275 0.201877
0.708431 0.761456 0.275746
0.824872 0.787793 0.307912
0.861585 0.75729 0.2981
0.891188 0.738231 0.283009
0.911681 0.723705 0.275837
0.916686 0.715084 0.276112
0.915251 0.709529 0.274922
0.913863 0.704799 0.273732
0.912718 0.700938 0.27277
0.911818 0.697871 0.271992
0.911116 0.695506 0.271412
0.910582 0.69366 0.270939
0.910094 0.692134 0.270527
0.909697 0.690944 0.270191
0.909392 0.690013 0.269917
0.208759 0.693172 0.181674
0.208682 0.692882 0.181521
0.208606 0.692592 0.181369
0.20853 0.692287 0.181216
0.208453 0.691981 0.181064
0.208377 0.691691 0.180911
0.208301 0.691371 0.180743
0.208209 0.691005 0.180575
0.208087 0.690517 0.180331
0.207919 0.689891 0.180011
0.207721 0.689067 0.179614
0.207446 0.687984 0.179049
0.207095 0.68661 0.178378
0.206668 0.684871 0.177508
0.206119 0.682704 0.17641
0.215961 0.677852 0.172992
0.26743 0.665629 0.171893
0.321309 0.666773 0.157702
0.578317 0.74432 0.233356
0.766232 0.805173 0.294362
0.851057 0.812634 0.306249
0.884215 0.791272 0.30901
0.90602 0.773465 0.288472
0.921889 0.765499 0.280064
0.921675 0.761715 0.279438
0.921492 0.758511 0.279179
0.921355 0.755932 0.278965
0.921233 0.753857 0.278798
0.921141 0.752255 0.278676
0.92108 0.750988 0.278614
0.921035 0.750057 0.278614
0.920989 0.749325 0.278614
0.920958 0.748775 0.278614
0.209339 0.713359 0.179431
0.209415 0.713252 0.179675
0.209506 0.713146 0.179934
0.209598 0.713024 0.180163
0.209674 0.712917 0.180438
0.209766 0.712795 0.180697
0.209857 0.712688 0.180941
0.209964 0.712551 0.181262
0.210086 0.712352 0.181643
0.210285 0.712123 0.182208
0.210498 0.711788 0.182849
0.210788 0.711345 0.183703
0.211154 0.710796 0.184787
0.211612 0.710094 0.186145
0.212177 0.709224 0.187839
0.212589 0.707881 0.189212
0.248524 0.696971 0.177432
0.284886 0.694362 0.168978
0.423087 0.71284 0.17789
0.682292 0.79707 0.265873
0.813672 0.835828 0.300023
0.881071 0.832944 0.306493
0.900832 0.80885 0.300633
0.918669 0.799756 0.294072
0.924804 0.79617 0.291371
0.924575 0.794018 0.290562
0.924315 0.792157 0.289799
0.924117 0.790677 0.289204
0.923964 0.789532 0.288731
0.923842 0.788632 0.288365
0.923751 0.787961 0.28809
0.923674 0.787442 0.287892
0.923613 0.78706 0.287739
0.207828 0.724514 0.174945
0.207828 0.724376 0.174945
0.207828 0.724239 0.174945
0.207828 0.724102 0.174945
0.207828 0.723964 0.174945
0.207828 0.723827 0.174945
0.207828 0.72369 0.174945
0.207828 0.723537 0.174945
0.207828 0.723308 0.174945
0.207828 0.723018 0.174945
0.207828 0.722637 0.174945
0.207828 0.722148 0.174945
0.207828 0.721523 0.174945
0.207828 0.720729 0.174945
0.207828 0.719738 0.174945
0.207828 0.718563 0.174945
0.227558 0.717403 0.17705
0.280659 0.712901 0.180987
0.318227 0.709346 0.160113
0.565011 0.770047 0.219059
0.760815 0.834562 0.28249
0.855756 0.858473 0.311727
0.896849 0.846174 0.313619
0.911589 0.825742 0.302907
0.926177 0.819623 0.297581
0.926131 0.817884 0.297215
0.926116 0.81648 0.296925
0.926101 0.815366 0.296696
0.926085 0.814496 0.296513
0.92607 0.81384 0.296376
0.92607 0.813321 0.296269
0.926055 0.81294 0.296193
0.926055 0.812634 0.296132
0.207828 0.729763 0.174945
0.207828 0.729763 0.174945
0.207828 0.729763 0.174945
0.207828 0.729763 0.174945
0.207828 0.729763 0.174945
0.207828 0.729763 0.174945
0.207828 0.729763 0.174945
0.207828 0.729763 0.174945
0.207828 0.729763 0.174945
0.207828 0.729763 0.174945
0.207828 0.729763 0.174945
0.207828 0.729763 0.174945
0.207828 0.729763 0.174945
0.207828 0.729763 0.174945
0.207828 0.729763 0.174945
0.207828 0.728618 0.174945
0.207828 0.727275 0.174945
0.259419 0.728985 0.178866
0.295125 0.721492 0.164965
0.432609 0.741878 0.175906
0.686519 0.825147 0.25919
0.818524 0.860685 0.299351
0.888075 0.876051 0.325246
0.90605 0.853986 0.317556
0.92079 0.841779 0.306752
0.925948 0.837476 0.30251
0.926055 0.836118 0.301976
0.926101 0.834974 0.301595
0.926131 0.834028 0.301289
0.926162 0.833295 0.301076
0.926177 0.832746 0.300908
0.926192 0.832319 0.300771
0.926192 0.832013 0.300679
0.207828 0.729763 0.174945
0.207828 0.729763 0.174945
0.207828 0.729763 0.174945
0.207828 0.729763 0.174945
0.207828 0.729763 0.174945
0.207828 0.729763 0.174945
0.207828 0.729763 0.174945
0.207828 0.729763 0.174945
0.207828 0.729763 0.174945
0.207828 0.729763 0.174945
0.207828 0.729763 0.174945
0.207828 0.729763 0.174945
0.207828 0.729763 0.174945
0.207828 0.729763 0.174945
0.207828 0.729763 0.174945
0.207828 0.729763 0.174945
0.207828 0.729763 0.174945
0.248951 0.730037 0.176547
0.289586 0.728878 0.171252
0.371054 0.733486 0.163043
0.635828 0.816617 0.241459
0.785443 0.862013 0.290501
0.871626 0.884947 0.31957
0.903822 0.876875 0.325185
0.916152 0.859907 0.315328
0.92459 0.852476 0.307973
0.92459 0.851728 0.307973
0.924712 0.850706 0.307607
0.924804 0.849851 0.307286
0.924865 0.84921 0.307042
0.924926 0.848722 0.306844
0.924956 0.848356 0.306722
0.924987 0.848066 0.3066
0.207828 0.729763 0.174945
0.207828 0.729763 0.174945
0.207828 0.729763 0.174945
0.207828 0.729763 0.174945
0.207828 0.729763 0.174945
0.207828 0.729763 0.174945
0.207828 0.729763 0.174945
0.207828 0.729763 0.174945
0.207828 0.729763 0.174945
0.207828 0.729763 0.174945
0.207828 0.729763 0.174945
0.207828 0.729763 0.174945
0.207828 0.729763 0.174945
0.207828 0.729763 0.174945
0.207828 0.729763 0.174945
0.207828 0.729763 0.174945
0.207828 0.729763 0.174945
0.238697 0.729641 0.176486
0.280461 0.729732 0.175311
0.336324 0.727596 0.159457
0.593881 0.802548 0.225925
0.759472 0.857588 0.282658
0.855543 0.883925 0.312856
0.89752 0.885725 0.325673
0.912291 0.870451 0.318532
0.923247 0.860563 0.310155
0.924544 0.858717 0.307927
0.924544 0.858137 0.307927
0.924559 0.857694 0.307942
0.924559 0.857359 0.307942
0.924559 0.857084 0.307942
0.924559 0.856886 0.307942
0.924559 0.856733 0.307942
0.207828 0.729763 0.174945
0.207828 0.729763 0.174945
0.207828 0.729763 0.174945
0.207828 0.729763 0.174945
0.207828 0.729763 0.174945
0.207828 0.729763 0.174945
0.207828 0.729763 0.174945
0.207828 0.729763 0.174945
0.207828 0.729763 0.174945
0.207828 0.729763 0.174945
0.207828 0.729763 0.174945
0.207828 0.729763 0.174945
0.207828 0.729763 0.174945
0.207828 0.729763 0.174945
0.207828 0.729763 0.174945
0.207828 0.729763 0.174945
0.207828 0.729763 0.174945
0.225071 0.729793 0.175082
0.278782 0.729427 0.178851
