modules/camera-engine/ios/LUTs/panasonic-fresh-cuisine.cube
TITLE "Generated by Resolve"
LUT_3D_SIZE 33
0.103975 0.101106 0.080766
0.103975 0.101106 0.080766
0.103975 0.101106 0.080766
0.113405 0.103792 0.0781109
0.144701 0.110658 0.0776684
0.189746 0.121309 0.0794385
0.225681 0.133593 0.0783398
0.26508 0.147875 0.0796826
0.319387 0.163806 0.0822766
0.37435 0.173266 0.0836347
0.429526 0.185748 0.0860914
0.488762 0.205936 0.088426
0.549157 0.220356 0.0906691
0.606394 0.227787 0.08925
0.671733 0.238453 0.0919814
0.727382 0.24242 0.0885176
0.779126 0.249836 0.0910201
0.820127 0.252766 0.092958
0.856809 0.259922 0.0947738
0.889754 0.259388 0.0960403
0.895491 0.257481 0.0958877
0.895491 0.257481 0.0958877
0.895491 0.257481 0.0958877
0.895491 0.257481 0.0958877
0.895491 0.257481 0.0958877
0.895491 0.257481 0.0958877
0.895491 0.257481 0.0958877
0.895491 0.257481 0.0958877
0.895491 0.257481 0.0958877
0.895491 0.257481 0.0958877
0.895491 0.257481 0.0958877
0.895491 0.257481 0.0958877
0.895491 0.257481 0.0958877
0.103975 0.101106 0.080766
0.103975 0.101106 0.080766
0.103975 0.101106 0.080766
0.108141 0.102358 0.0798199
0.128069 0.107271 0.0769818
0.174914 0.116915 0.0786297
0.212985 0.129183 0.0789044
0.251942 0.143603 0.0789807
0.307378 0.160433 0.0816358
0.365698 0.172366 0.0835584
0.423041 0.183459 0.0858473
0.483009 0.204715 0.0882887
0.544549 0.219318 0.090547
0.602899 0.22739 0.0893263
0.668437 0.237827 0.0917525
0.725277 0.24242 0.088716
0.777401 0.249439 0.0908217
0.818936 0.25275 0.0930037
0.85565 0.259648 0.0946212
0.888884 0.259586 0.0961013
0.895491 0.257481 0.0958877
0.895491 0.257481 0.0958877
0.895491 0.257481 0.0958877
0.895491 0.257481 0.0958877
0.895491 0.257481 0.0958877
0.895491 0.257481 0.0958877
0.895491 0.257481 0.0958877
0.895491 0.257481 0.0958877
0.895491 0.257481 0.0958877
0.895491 0.257481 0.0958877
0.895491 0.257481 0.0958877
0.895491 0.257481 0.0958877
0.895491 0.257481 0.0958877
0.103975 0.101106 0.080766
0.103975 0.101106 0.080766
0.103975 0.101106 0.080766
0.10399 0.101122 0.080766
0.117861 0.104936 0.0770123
0.158053 0.113161 0.0778363
0.199039 0.124392 0.0798352
0.240452 0.138979 0.0782635
0.294942 0.156817 0.0810559
0.356603 0.171466 0.0835126
0.416327 0.181079 0.0855573
0.476692 0.203418 0.0881971
0.539895 0.218296 0.0904402
0.599374 0.226993 0.0894331
0.664897 0.237156 0.0914626
0.723171 0.242512 0.0890669
0.775586 0.249027 0.0906233
0.817746 0.252735 0.0930495
0.85449 0.259342 0.0944686
0.887999 0.2598 0.0961624
0.895491 0.257481 0.0958877
0.895491 0.257481 0.0958877
0.895491 0.257481 0.0958877
0.895491 0.257481 0.0958877
0.895491 0.257481 0.0958877
0.895491 0.257481 0.0958877
0.895491 0.257481 0.0958877
0.895491 0.257481 0.0958877
0.895491 0.257481 0.0958877
0.895491 0.257481 0.0958877
0.895491 0.257481 0.0958877
0.895491 0.257481 0.0958877
0.895491 0.257481 0.0958877
0.103975 0.101106 0.080766
0.103975 0.101106 0.080766
0.103975 0.101106 0.080766
0.103975 0.101106 0.080766
0.111543 0.103304 0.0788128
0.13817 0.109361 0.0774701
0.184634 0.119615 0.0791333
0.228351 0.134508 0.0782177
0.282017 0.152987 0.0805371
0.347036 0.170275 0.0833906
0.409293 0.178683 0.0851911
0.470298 0.202121 0.0881056
0.535103 0.21709 0.0902419
0.595804 0.226581 0.0895094
0.661311 0.236469 0.0911574
0.721019 0.242603 0.0894179
0.773693 0.2486 0.090425
0.816526 0.252735 0.0930495
0.853315 0.259022 0.0943008
0.887098 0.259983 0.0962234
0.895491 0.257481 0.0958877
0.895491 0.257481 0.0958877
0.895491 0.257481 0.0958877
0.895491 0.257481 0.0958877
0.895491 0.257481 0.0958877
0.895491 0.257481 0.0958877
0.895491 0.257481 0.0958877
0.895491 0.257481 0.0958877
0.895491 0.257481 0.0958877
0.895491 0.257481 0.0958877
0.895491 0.257481 0.0958877
0.895491 0.257481 0.0958877
0.895491 0.257481 0.0958877
0.107118 0.116762 0.0825818
0.106569 0.113848 0.0822309
0.106081 0.111452 0.0819409
0.105592 0.109071 0.0816052
0.107424 0.107576 0.0808728
0.123812 0.109575 0.0772106
0.168582 0.116823 0.0784466
0.215366 0.130007 0.0787366
0.268299 0.148836 0.0798505
0.336721 0.168063 0.0830396
0.401389 0.17705 0.0845808
0.463859 0.200381 0.0879225
0.530282 0.2159 0.0900587
0.592081 0.226169 0.089601
0.657694 0.235798 0.0908675
0.718822 0.242695 0.0897536
0.771756 0.248142 0.0902113
0.815274 0.25272 0.0930495
0.852125 0.258686 0.0941329
0.886198 0.260212 0.0962844
0.895491 0.257481 0.0958877
0.895491 0.257481 0.0958877
0.895491 0.257481 0.0958877
0.895491 0.257481 0.0958877
0.895491 0.257481 0.0958877
0.895491 0.257481 0.0958877
0.895491 0.257481 0.0958877
0.895491 0.257481 0.0958877
0.895491 0.257481 0.0958877
0.895491 0.257481 0.0958877
0.895491 0.257481 0.0958877
0.895491 0.257481 0.0958877
0.895491 0.257481 0.0958877
0.11136 0.144167 0.08748
0.110903 0.140612 0.0867018
0.110445 0.137011 0.0859083
0.109987 0.13341 0.0850996
0.109529 0.129809 0.0843061
0.119799 0.129168 0.0815595
0.152071 0.1337 0.0817578
0.200061 0.139788 0.0831769
0.250065 0.151598 0.0818799
0.322988 0.169482 0.0844129
0.392538 0.176379 0.0843214
0.457633 0.197757 0.0875868
0.525353 0.214679 0.0898756
0.588342 0.225772 0.0897231
0.654017 0.235096 0.0905623
0.716609 0.242802 0.0901045
0.769787 0.247684 0.0899977
0.814023 0.252705 0.0930495
0.850935 0.25835 0.0939651
0.885283 0.26041 0.0963455
0.895491 0.257481 0.0958877
0.895491 0.257481 0.0958877
0.895491 0.257481 0.0958877
0.895491 0.257481 0.0958877
0.895491 0.257481 0.0958877
0.895491 0.257481 0.0958877
0.895491 0.257481 0.0958877
0.895491 0.257481 0.0958877
0.895491 0.257481 0.0958877
0.895491 0.257481 0.0958877
0.895491 0.257481 0.0958877
0.895491 0.257481 0.0958877
0.895491 0.257481 0.0958877
0.113695 0.174533 0.0986496
0.113451 0.170336 0.0967727
0.113222 0.166094 0.0948959
0.112978 0.161608 0.0929122
0.112688 0.157794 0.0915541
0.117418 0.156085 0.0895705
0.136919 0.154223 0.0855879
0.188922 0.162005 0.0884413
0.238972 0.163531 0.0868086
0.307012 0.178943 0.0900893
0.377218 0.189014 0.0882887
0.443748 0.197742 0.0882429
0.519844 0.213581 0.0896773
0.584665 0.22533 0.0898146
0.650339 0.234409 0.0902724
0.714443 0.242893 0.0904555
0.767849 0.247242 0.0897993
0.812772 0.252705 0.0930495
0.849744 0.258015 0.0937972
0.884367 0.260624 0.0964218
0.895491 0.257481 0.0958877
0.895491 0.257481 0.0958877
0.895491 0.257481 0.0958877
0.895491 0.257481 0.0958877
0.895491 0.257481 0.0958877
0.895491 0.257481 0.0958877
0.895491 0.257481 0.0958877
0.895491 0.257481 0.0958877
0.895491 0.257481 0.0958877
0.895491 0.257481 0.0958877
0.895491 0.257481 0.0958877
0.895491 0.257481 0.0958877
0.895491 0.257481 0.0958877
0.114702 0.198886 0.107607
0.114549 0.196933 0.106889
0.114427 0.194965 0.106203
0.114275 0.192905 0.10544
0.114199 0.190463 0.104616
0.114168 0.1879 0.103716
0.127626 0.190875 0.100435
0.161227 0.191562 0.0962234
0.252674 0.205371 0.105714
0.301137 0.200656 0.09897
0.363073 0.20589 0.0977493
0.425315 0.21146 0.0935988
0.502449 0.215396 0.0911269
0.58056 0.228519 0.0928817
0.645792 0.23357 0.0899214
0.711757 0.243 0.0908522
0.765515 0.246708 0.0895552
0.811261 0.252689 0.0930495
0.848264 0.257618 0.0935683
0.883268 0.260899 0.0965133
0.895491 0.257481 0.0958877
0.895491 0.257481 0.0958877
0.895491 0.257481 0.0958877
0.895491 0.257481 0.0958877
0.895491 0.257481 0.0958877
0.895491 0.257481 0.0958877
0.895491 0.257481 0.0958877
0.895491 0.257481 0.0958877
0.895491 0.257481 0.0958877
0.895491 0.257481 0.0958877
0.895491 0.257481 0.0958877
0.895491 0.257481 0.0958877
0.895491 0.257481 0.0958877
0.117449 0.220645 0.117006
0.11722 0.219074 0.116289
0.11696 0.217456 0.115541
0.116716 0.215824 0.114763
0.116442 0.214115 0.113985
0.116213 0.212421 0.113237
0.118364 0.212039 0.110384
0.138293 0.216159 0.103456
0.203693 0.229145 0.106432
0.313924 0.250065 0.121584
0.360052 0.242084 0.115572
0.418357 0.240208 0.112032
0.485664 0.23592 0.104875
0.557855 0.231754 0.0948653
0.636454 0.236851 0.0923934
0.707881 0.243732 0.0915999
0.762341 0.245991 0.089189
0.809232 0.252674 0.0930495
0.846342 0.257069 0.0933089
0.881788 0.261204 0.0965896
0.895491 0.257481 0.0958877
0.895491 0.257481 0.0958877
0.895491 0.257481 0.0958877
0.895491 0.257481 0.0958877
0.895491 0.257481 0.0958877
0.895491 0.257481 0.0958877
0.895491 0.257481 0.0958877
0.895491 0.257481 0.0958877
0.895491 0.257481 0.0958877
0.895491 0.257481 0.0958877
0.895491 0.257481 0.0958877
0.895491 0.257481 0.0958877
0.895491 0.257481 0.0958877
0.121004 0.247654 0.128176
0.120821 0.24596 0.12752
0.120638 0.244251 0.126879
0.120439 0.242512 0.126207
0.120241 0.240711 0.125521
0.120043 0.238895 0.124834
0.119829 0.237049 0.124132
0.124941 0.239155 0.118791
0.150652 0.233875 0.102037
0.250736 0.266896 0.117815
0.376593 0.301457 0.143603
0.416037 0.278798 0.133379
0.473167 0.269657 0.126345
0.540185 0.260105 0.117296
0.621317 0.25861 0.107591
0.687312 0.251026 0.0932631
0.756313 0.25095 0.090074
0.80647 0.252689 0.0929885
0.843854 0.256428 0.0930343
0.879805 0.261509 0.0966354
0.895491 0.257481 0.0958877
0.895491 0.257481 0.0958877
0.895491 0.257481 0.0958877
0.895491 0.257481 0.0958877
0.895491 0.257481 0.0958877
0.895491 0.257481 0.0958877
0.895491 0.257481 0.0958877
0.895491 0.257481 0.0958877
0.895491 0.257481 0.0958877
0.895491 0.257481 0.0958877
0.895491 0.257481 0.0958877
0.895491 0.257481 0.0958877
0.895491 0.257481 0.0958877
0.125292 0.282124 0.140093
0.125139 0.28072 0.139696
0.125002 0.279271 0.139315
0.124849 0.27776 0.138903
0.12462 0.276173 0.138338
0.124376 0.274571 0.137743
0.124132 0.272923 0.137133
0.123827 0.270939 0.136416
0.131502 0.272618 0.127077
0.176837 0.269734 0.108736
0.323232 0.325689 0.14284
0.430854 0.341619 0.161288
0.470741 0.311208 0.140841
0.525444 0.301625 0.138872
0.593927 0.287495 0.123156
0.667826 0.279469 0.115633
0.737392 0.2766 0.10193
0.799558 0.266041 0.0952468
0.83975 0.257694 0.0929427
0.877211 0.261997 0.0967117
0.895491 0.257481 0.0958877
0.895491 0.257481 0.0958877
0.895491 0.257481 0.0958877
0.895491 0.257481 0.0958877
0.895491 0.257481 0.0958877
0.895491 0.257481 0.0958877
0.895491 0.257481 0.0958877
0.895491 0.257481 0.0958877
0.895491 0.257481 0.0958877
0.895491 0.257481 0.0958877
0.895491 0.257481 0.0958877
0.895491 0.257481 0.0958877
0.895491 0.257481 0.0958877
0.129076 0.320775 0.146731
0.128939 0.319478 0.146563
0.128801 0.318135 0.146365
0.128649 0.316793 0.146181
0.128496 0.315389 0.145968
0.128359 0.314031 0.145754
0.128206 0.312642 0.145556
0.128023 0.310948 0.145312
0.127779 0.308675 0.144961
0.142779 0.301045 0.125338
0.213733 0.310643 0.120897
0.397452 0.384878 0.167819
0.492866 0.395026 0.17641
0.517143 0.353979 0.160601
0.579934 0.337926 0.150469
0.64094 0.314412 0.135424
0.714488 0.306691 0.128267
0.77734 0.295003 0.114809
0.829938 0.279637 0.101747
0.867933 0.272892 0.0956436
0.897246 0.267918 0.0976272
0.895491 0.257481 0.0958877
0.895491 0.257481 0.0958877
0.895491 0.257481 0.0958877
0.895491 0.257481 0.0958877
0.895491 0.257481 0.0958877
0.895491 0.257481 0.0958877
0.895491 0.257481 0.0958877
0.895491 0.257481 0.0958877
0.895491 0.257481 0.0958877
0.895491 0.257481 0.0958877
0.895491 0.257481 0.0958877
0.895491 0.257481 0.0958877
0.139513 0.366018 0.150729
0.13901 0.364813 0.150637
0.138521 0.363638 0.150561
0.138018 0.362432 0.150454
0.137499 0.361181 0.150378
0.13698 0.35993 0.150301
0.136446 0.358679 0.15021
0.135821 0.357183 0.150088
0.134981 0.355169 0.149966
0.13431 0.351385 0.148547
0.156054 0.330968 0.121721
0.277653 0.37557 0.145769
0.467109 0.447654 0.190768
0.542443 0.43357 0.187182
0.572946 0.396612 0.177081
0.628748 0.371756 0.165774
0.696071 0.362127 0.155306
0.75494 0.3393 0.139834
0.807614 0.320943 0.123125
0.851438 0.306447 0.111147
0.88896 0.290806 0.10425
0.894194 0.286534 0.101076
0.896666 0.281239 0.0993515
0.896925 0.272175 0.098436
0.896651 0.259709 0.0961624
0.895491 0.257481 0.0958877
0.895491 0.257481 0.0958877
0.895491 0.257481 0.0958877
0.895491 0.257481 0.0958877
0.895491 0.257481 0.0958877
0.895491 0.257481 0.0958877
0.895491 0.257481 0.0958877
0.895491 0.257481 0.0958877
0.155352 0.408911 0.152346
0.154986 0.407919 0.152209
0.15462 0.406943 0.152071
0.154253 0.405936 0.151919
0.153872 0.404898 0.151766
0.153475 0.403845 0.151614
0.153094 0.402808 0.151446
0.152651 0.401572 0.151263
0.152041 0.399908 0.151003
0.151247 0.397711 0.150652
0.149477 0.388663 0.145998
0.174166 0.367391 0.125902
0.338567 0.429374 0.160494
0.52639 0.496132 0.201083
0.597665 0.47039 0.197467
0.633814 0.434684 0.188556
0.683146 0.417548 0.179568
0.737987 0.401617 0.17319
0.789471 0.368948 0.155825
0.833906 0.347539 0.136751
0.872877 0.329732 0.123171
0.881666 0.317693 0.117052
0.883253 0.30695 0.111528
0.885954 0.298558 0.107881
0.88867 0.293034 0.105333
0.891081 0.290013 0.103548
0.893187 0.287999 0.102144
0.894469 0.286168 0.100801
0.895506 0.284764 0.100084
0.896101 0.283497 0.0998093
0.896376 0.282506 0.0996262
0.89659 0.281682 0.0994583
0.896712 0.280858 0.0992599
0.164233 0.449973 0.15346
0.164034 0.449165 0.153384
0.163836 0.448356 0.153307
0.163638 0.447547 0.153231
0.163439 0.446738 0.15317
0.163272 0.446006 0.15317
0.163119 0.445304 0.15317
0.162936 0.44445 0.153155
0.162661 0.443275 0.153155
0.162341 0.441779 0.15314
0.161883 0.43975 0.153124
0.166812 0.434638 0.152239
0.200961 0.412528 0.129809
0.409293 0.487617 0.174975
0.590707 0.549157 0.222614
0.655192 0.519417 0.209445
0.688182 0.485145 0.209049
0.729046 0.461372 0.200839
0.777218 0.44387 0.189761
0.819898 0.412985 0.17525
0.856657 0.377783 0.150256
0.872007 0.364141 0.141802
0.874174 0.354116 0.136492
0.876234 0.345342 0.13167
0.877638 0.338613 0.127993
0.878492 0.333745 0.125429
0.879332 0.32958 0.123278
0.880049 0.326116 0.121477
0.880629 0.323339 0.120043
0.881086 0.320974 0.118791
0.881422 0.319097 0.1178
0.881666 0.317678 0.117052
0.881849 0.316564 0.116442
0.17615 0.503624 0.159777
0.176028 0.502953 0.159701
0.175906 0.502266 0.159609
0.175784 0.501595 0.159533
0.175647 0.500908 0.159457
0.175525 0.500191 0.15938
0.175402 0.499519 0.159304
0.17525 0.49868 0.159197
0.175036 0.497551 0.15906
0.174777 0.496101 0.158892
0.174334 0.493843 0.158602
0.173739 0.490822 0.158221
0.186892 0.478202 0.15555
0.249226 0.472953 0.139666
0.482506 0.547311 0.194781
0.648249 0.60322 0.239734
0.703777 0.564614 0.232914
0.73727 0.530266 0.223957
0.773617 0.507668 0.219242
0.805737 0.486061 0.209735
0.841718 0.458732 0.191302
0.863996 0.43328 0.176806
0.864851 0.420981 0.17116
0.865385 0.409506 0.165286
0.865675 0.399237 0.159518
0.866346 0.39176 0.155489
0.867338 0.386862 0.153033
0.868116 0.382956 0.151095
0.868757 0.379843 0.149554
0.86923 0.377523 0.148425
0.869596 0.375692 0.147524
0.869886 0.374334 0.146868
0.870085 0.373312 0.146365
0.180743 0.539101 0.159747
0.180789 0.538903 0.159838
0.18085 0.538705 0.15993
0.180911 0.538521 0.160037
0.180957 0.538323 0.160128
0.181018 0.538109 0.160235
0.181064 0.537896 0.160327
0.18114 0.537652 0.160449
0.181231 0.537331 0.160616
0.181338 0.536889 0.160815
0.181476 0.536294 0.161074
0.181659 0.535561 0.161425
0.181888 0.534585 0.161868
0.206912 0.513619 0.148318
0.316854 0.531518 0.156649
0.563912 0.61471 0.221317
0.698924 0.645304 0.25481
0.756054 0.618662 0.253056
0.785061 0.575769 0.240314
0.810956 0.547189 0.233722
0.835752 0.525902 0.226612
0.862943 0.504753 0.209995
0.862486 0.495613 0.2047
0.861585 0.487785 0.200732
0.861128 0.481025 0.197742
0.860761 0.475288 0.195224
0.860975 0.470268 0.193057
0.86125 0.466194 0.191287
0.861463 0.462989 0.189899
0.861616 0.460517 0.18883
0.861738 0.458625 0.188022
0.86183 0.457176 0.187396
0.861906 0.456077 0.186923
0.188968 0.575174 0.161685
0.188724 0.574563 0.161578
0.188449 0.573922 0.161456
0.188205 0.573343 0.161349
0.187976 0.572747 0.161242
0.187701 0.572091 0.161105
0.187457 0.571496 0.160998
0.187121 0.570718 0.160845
0.186847 0.569848 0.160708
0.186481 0.568704 0.160525
0.186007 0.567208 0.160296
0.185397 0.56524 0.159976
0.184588 0.562676 0.159564
0.185443 0.558373 0.159274
0.223484 0.548745 0.148379
0.408209 0.596567 0.185122
0.62681 0.670161 0.240421
0.747021 0.686381 0.270848
0.801343 0.660914 0.260533
0.825605 0.626749 0.252445
0.84538 0.59762 0.241321
0.86482 0.578363 0.240391
0.871977 0.563577 0.236011
0.870512 0.555169 0.233112
0.869261 0.547951 0.23061
0.868254 0.541985 0.228473
0.867887 0.538109 0.226688
0.867597 0.534966 0.225254
0.867369 0.532509 0.224109
0.867185 0.530632 0.223255
0.867048 0.529168 0.222568
0.866941 0.528099 0.22208
0.866865 0.527245 0.221683
0.197498 0.618921 0.168948
0.197482 0.618585 0.168811
0.197482 0.61825 0.168658
0.197452 0.617899 0.168505
0.197421 0.617517 0.168353
0.197421 0.617182 0.1682
0.197391 0.616831 0.168048
0.197375 0.616373 0.167849
0.197345 0.615808 0.16762
0.197299 0.61503 0.1673
0.197253 0.614038 0.166888
0.197116 0.612619 0.166522
0.196902 0.610758 0.166171
0.196674 0.608438 0.165728
0.2168 0.59971 0.172793
0.259312 0.585885 0.151553
0.495323 0.649424 0.206516
0.691341 0.719905 0.270466
0.785138 0.722744 0.285878
0.830625 0.697459 0.271687
0.857267 0.675212 0.260945
0.873625 0.650584 0.259709
0.886732 0.629114 0.251347
0.884947 0.622797 0.249454
0.883436 0.617365 0.248066
0.88217 0.612772 0.247013
0.881163 0.609049 0.246159
0.880323 0.606027 0.245472
0.879698 0.603723 0.244938
0.87921 0.601938 0.244541
0.878874 0.60058 0.244297
0.878645 0.599603 0.244144
0.878462 0.59884 0.244022
0.201801 0.649165 0.176226
0.20174 0.64889 0.176242
0.201678 0.648615 0.176257
0.201617 0.648371 0.176272
0.201541 0.648081 0.176303
0.20148 0.647791 0.176318
0.201419 0.647547 0.176349
0.201343 0.647211 0.176379
0.201236 0.646769 0.17641
0.201099 0.646204 0.176471
0.200931 0.645457 0.176547
0.200671 0.644434 0.176532
0.200244 0.642908 0.176165
0.19971 0.641032 0.175753
0.199069 0.638727 0.175296
0.233982 0.63154 0.170611
0.334936 0.630823 0.161501
0.587167 0.717968 0.241932
0.753964 0.768154 0.282963
0.821744 0.752285 0.295308
0.852369 0.732692 0.285527
0.878935 0.713176 0.273823
0.896239 0.692134 0.264881
0.900481 0.682551 0.262119
0.899336 0.677913 0.261112
0.898344 0.673945 0.260334
0.897551 0.670726 0.259724
0.896895 0.668116 0.259236
0.896406 0.666133 0.258854
0.89601 0.664546 0.258564
0.89572 0.663371 0.258335
0.895476 0.662425 0.258167
0.895323 0.661768 0.25803
0.206256 0.673136 0.170977
0.20618 0.672847 0.171023
0.206104 0.672526 0.171069
0.206027 0.67219 0.171099
0.205936 0.67187 0.17116
0.205859 0.67155 0.171191
0.205783 0.671229 0.171252
0.205692 0.670848 0.171298
0.205631 0.670451 0.171405
0.205554 0.669978 0.171527
0.205463 0.669322 0.17171
0.205341 0.668498 0.171923
0.205188 0.667414 0.172198
0.204974 0.666056 0.172564
0.2047 0.664378 0.172976
0.218753 0.65684 0.169024
0.257908 0.650217 0.15433
0.46334 0.696864 0.19707
0.679454 0.767605 0.268391
0.800229 0.800046 0.301442
0.845747 0.779248 0.299199
0.877058 0.760159 0.293904
0.898955 0.74699 0.279118
0.91281 0.735546 0.272404
0.911955 0.731441 0.271717
0.911269 0.728069 0.271168
0.910704 0.725322 0.27071
0.910246 0.723125 0.270359
0.909895 0.721416 0.270069
0.909621 0.720104 0.269841
0.909407 0.719081 0.269673
0.909255 0.718334 0.269551
0.909133 0.717723 0.269459
0.211078 0.696529 0.16846
0.211048 0.69633 0.16846
0.211032 0.696117 0.168444
0.211002 0.695903 0.168444
0.210986 0.695705 0.168429
0.210956 0.695491 0.168414
0.210925 0.695293 0.168414
0.21091 0.695033 0.168399
0.210864 0.694682 0.168368
0.210819 0.69424 0.168353
0.210773 0.69366 0.168307
0.210712 0.692882 0.168246
0.210636 0.69189 0.16817
0.210391 0.690639 0.168353
0.21001 0.689067 0.168673
0.209552 0.687144 0.169039
0.246296 0.67512 0.170535
0.320287 0.677699 0.162448
0.579843 0.757244 0.237919
0.750362 0.811765 0.29073
0.833326 0.821164 0.306798
0.867658 0.801694 0.30518
0.893462 0.785214 0.297734
0.911147 0.774502 0.283391
0.917037 0.769955 0.278996
0.916915 0.767605 0.278264
0.916823 0.765682 0.277668
0.916747 0.764172 0.277195
0.916671 0.762936 0.27689
0.916594 0.761959 0.276738
0.916548 0.761242 0.276616
0.916503 0.760647 0.276524
0.916472 0.76025 0.276463
0.211292 0.717006 0.176028
0.211276 0.716777 0.175921
0.211292 0.716503 0.175769
0.211276 0.716243 0.175631
0.211276 0.715953 0.175433
0.211276 0.715694 0.175311
0.211261 0.715434 0.175174
0.211261 0.715114 0.17499
0.211261 0.714687 0.174746
0.211246 0.714122 0.174426
0.211231 0.71339 0.174029
0.211215 0.712428 0.17348
0.21117 0.711208 0.172824
0.211154 0.709697 0.172061
0.211231 0.707973 0.171511
0.211337 0.705882 0.170794
0.227466 0.702892 0.171817
0.268315 0.695109 0.161868
0.465843 0.736446 0.197208
0.687572 0.809659 0.273701
0.802319 0.839582 0.302144
0.859785 0.836393 0.306752
0.886946 0.820798 0.311437
0.905074 0.807431 0.29839
0.918608 0.798566 0.288426
0.918471 0.796323 0.287678
0.918379 0.794507 0.287068
0.918288 0.793042 0.286564
0.918227 0.791913 0.286198
0.918166 0.791028 0.285893
0.918135 0.790372 0.285679
0.918105 0.789853 0.285496
0.91809 0.789487 0.285374
0.2121 0.727916 0.184009
0.2121 0.727916 0.184009
0.2121 0.727916 0.184009
0.2121 0.727916 0.184009
0.2121 0.727916 0.184009
0.2121 0.727916 0.184009
0.2121 0.727916 0.184009
0.2121 0.727916 0.184009
0.2121 0.727916 0.184009
0.2121 0.727916 0.184009
0.2121 0.727916 0.184009
0.2121 0.727916 0.184009
0.2121 0.727916 0.184009
0.2121 0.727916 0.184009
0.212085 0.727886 0.183963
0.21181 0.725444 0.181918
0.21146 0.722545 0.179522
0.264057 0.711635 0.172396
0.357565 0.717784 0.164385
0.606729 0.795804 0.243153
0.764645 0.84419 0.291417
0.844312 0.859434 0.305913
0.88484 0.846662 0.3075
0.900618 0.829984 0.305028
0.914748 0.81973 0.295521
0.920089 0.816434 0.293111
0.919936 0.815091 0.292882
0.919799 0.814023 0.292683
0.919738 0.813184 0.29247
0.919676 0.812573 0.292332
0.919631 0.812085 0.29221
0.9196 0.811719 0.292119
0.919585 0.811444 0.292042
0.2121 0.727916 0.184009
0.2121 0.727916 0.184009
0.2121 0.727916 0.184009
0.2121 0.727916 0.184009
0.2121 0.727916 0.184009
0.2121 0.727916 0.184009
0.2121 0.727916 0.184009
0.2121 0.727916 0.184009
0.2121 0.727916 0.184009
0.2121 0.727916 0.184009
0.2121 0.727916 0.184009
0.2121 0.727916 0.184009
0.2121 0.727916 0.184009
0.2121 0.727916 0.184009
0.2121 0.727916 0.184009
0.2121 0.727916 0.184009
0.2121 0.727916 0.184009
0.254643 0.719005 0.178882
0.299596 0.715145 0.15404
0.528984 0.778912 0.213077
0.721279 0.840726 0.277546
0.820371 0.867491 0.301213
0.874693 0.866621 0.307164
0.900664 0.852079 0.304936
0.910903 0.836759 0.29984
0.921675 0.831281 0.295552
0.921569 0.830045 0.295354
0.921477 0.829084 0.295216
0.921416 0.828305 0.295094
0.92137 0.827726 0.295003
0.921324 0.827283 0.294926
0.921294 0.826932 0.294881
0.921279 0.826673 0.294835
0.2121 0.727916 0.184009
0.2121 0.727916 0.184009
0.2121 0.727916 0.184009
0.2121 0.727916 0.184009
0.2121 0.727916 0.184009
0.2121 0.727916 0.184009
0.2121 0.727916 0.184009
0.2121 0.727916 0.184009
0.2121 0.727916 0.184009
0.2121 0.727916 0.184009
0.2121 0.727916 0.184009
0.2121 0.727916 0.184009
0.2121 0.727916 0.184009
0.2121 0.727916 0.184009
0.2121 0.727916 0.184009
0.2121 0.727916 0.184009
0.2121 0.727916 0.184009
0.235706 0.722026 0.178119
0.280034 0.715175 0.15581
0.477928 0.762417 0.196994
0.693065 0.832319 0.269749
0.801038 0.864744 0.297047
0.863935 0.876326 0.309056
0.898161 0.86627 0.308095
0.909072 0.852384 0.302815
0.918776 0.843442 0.298085
0.922332 0.841352 0.297124
0.922286 0.840452 0.296986
0.92224 0.839719 0.296864
0.92221 0.83917 0.296773
0.922194 0.838743 0.296712
0.922179 0.838422 0.296666
0.922164 0.838178 0.29662
0.2121 0.727916 0.184009
0.2121 0.727916 0.184009
0.2121 0.727916 0.184009
0.2121 0.727916 0.184009
0.2121 0.727916 0.184009
0.2121 0.727916 0.184009
0.2121 0.727916 0.184009
0.2121 0.727916 0.184009
0.2121 0.727916 0.184009
0.2121 0.727916 0.184009
0.2121 0.727916 0.184009
0.2121 0.727916 0.184009
0.2121 0.727916 0.184009
0.2121 0.727916 0.184009
0.2121 0.727916 0.184009
0.2121 0.727916 0.184009
0.2121 0.727916 0.184009
0.226139 0.721309 0.178485
0.273121 0.718791 0.164614
0.4365 0.74847 0.184466
0.667277 0.823743 0.261997
0.786679 0.860853 0.29427
0.854795 0.876921 0.30779
0.89189 0.868803 0.308583
0.906386 0.855848 0.304097
0.915419 0.84564 0.299733
0.922393 0.842527 0.297307
0.922393 0.842527 0.297307
0.922393 0.842527 0.297307
0.922393 0.842527 0.297307
