modules/camera-engine/ios/LUTs/panasonic-film-vintage.cube
TITLE "Generated by Resolve"
LUT_3D_SIZE 5
0 0 0
0.157015 0.0409552 0
0.721477 0.112963 0
1 0.152499 0
1 0.152499 0
0 0.129595 0
0.102602 0.100511 0.00230411
0.692012 0.108339 0
1 0.152499 0
1 0.152499 0
0 0.580026 0
0 0.572335 0
0.595453 0.514763 0.00173953
1 0.416754 0
1 0.392126 0
0.0158236 0.973571 0.0187686
0.0158236 0.973571 0.0187686
0.0158236 0.973571 0.0187686
1 0.914488 0.0433356
1 0.897108 0
0.0158236 0.973571 0.0187686
0.0158236 0.973571 0.0187686
0.0158236 0.973571 0.0187686
1 0.942306 0.145846
1 0.93756 0.0292363
0.010071 0.0164034 0.0509346
0.184268 0 0.0424048
0.733196 0.0747997 0
1 0.137606 0
1 0.141695 0
0 0.119463 0.0420996
0.0856031 0.0919203 0.0499733
0.697398 0.089662 0
1 0.145434 0
1 0.148882 0
0 0.573892 0
0 0.56611 0
0.588998 0.508339 0.00077821
1 0.410407 0
1 0.385611 0
0.0158236 0.973571 0.0187686
0.0158236 0.973571 0.0187686
0.0158236 0.973571 0.0187686
1 0.910704 0.0419318
1 0.89308 0
0.0158236 0.973571 0.0187686
0.0158236 0.973571 0.0187686
0.0158236 0.973571 0.0187686
1 0.942443 0.148852
1 0.93756 0.0292363
0.0632639 0.127123 0.374716
0.126604 0.112169 0.381384
0.749096 0 0.356359
1 0 0.168353
1 0 0.161425
0.061738 0.128023 0.369314
0.061799 0.124483 0.368429
0.715648 0 0.357809
1 0 0.155047
1 0 0.152682
0.0166781 0.556313 0.384207
0.0181125 0.547921 0.383154
0.547616 0.496025 0.398947
1 0.375463 0.221149
1 0.343786 0.213107
0 0.98941 0.328511
0 0.989349 0.327337
0 0.989044 0.321416
1 0.905699 0.337789
1 0.886885 0.292882
0 0.988251 0.30605
0 0.98819 0.304829
0 0.987869 0.298573
0.9841 0.955734 0.375784
1 0.950545 0.307149
0.142458 0.258381 0.68481
0.142321 0.258167 0.684291
0.658 0.109331 0.73994
1 0 0.72433
1 0 0.722026
0.141619 0.257023 0.68162
0.141482 0.256809 0.681102
0.623682 0.123247 0.732647
1 0 0.719753
1 0 0.717433
0.136187 0.525963 0.709499
0.136065 0.518395 0.707393
0.468071 0.479271 0.716426
1 0.278676 0.719951
1 0.232166 0.716442
0.106401 0.989364 0.718761
0.107515 0.984405 0.718135
0.113268 0.958938 0.714916
1 0.889143 0.732357
1 0.869535 0.705776
0.095201 0.998611 0.706523
0.0947585 0.998611 0.705867
0.0925002 0.998611 0.702556
0.93048 0.982193 0.742458
1 0.973266 0.721431
0.143343 0.259815 0.688151
0.143343 0.259815 0.688151
0.640772 0.12224 0.744091
1 0 0.741024
1 0 0.741024
0.143343 0.259815 0.688151
0.143343 0.259815 0.688151
0.605982 0.136904 0.739971
1 0 0.741024
1 0 0.741024
0.142962 0.512856 0.727321
0.142992 0.505379 0.725719
0.448646 0.466331 0.735866
1 0.250248 0.764065
1 0.199573 0.762478
0.15436 0.976623 0.784283
0.155886 0.971572 0.784283
0.163638 0.945663 0.784314
0.99649 0.882353 0.804944
1 0.863355 0.784039
0.147784 0.998169 0.784237
0.147784 0.998169 0.784237
0.147784 0.998169 0.784237
0.913512 0.987976 0.825299
1 0.979248 0.808438
