modules/camera-engine/ios/LUTs/panasonic-seaside-sunset.cube
TITLE "Generated by Resolve"
LUT_3D_SIZE 9
0.0802472 0.0737316 0.067689
0.109834 0.0733501 0.0673075
0.215259 0.0925002 0.0693065
0.523629 0.13785 0.0749523
0.801755 0.168872 0.0904707
0.923171 0.169467 0.094377
0.923171 0.169467 0.094377
0.923171 0.169467 0.094377
0.923171 0.169467 0.094377
0.0801404 0.0845502 0.0675822
0.0840314 0.0784161 0.0676738
0.182361 0.0844739 0.0690013
0.498054 0.13434 0.0736706
0.792844 0.167895 0.0903944
0.923171 0.169467 0.094377
0.923171 0.169467 0.094377
0.923171 0.169467 0.094377
0.923171 0.169467 0.094377
0.0737774 0.139208 0.0428016
0.0728466 0.130983 0.0409247
0.133791 0.126085 0.047776
0.456413 0.167559 0.0681621
0.781567 0.166598 0.0902419
0.923171 0.169467 0.094377
0.923171 0.169467 0.094377
0.923171 0.169467 0.094377
0.923171 0.169467 0.094377
0.0799115 0.333532 0.100343
0.0800183 0.326223 0.0987411
0.0801251 0.316258 0.096437
0.372366 0.396185 0.118776
0.753307 0.287816 0.0933242
0.931701 0.233417 0.0922408
0.923705 0.173022 0.094789
0.923171 0.169467 0.094377
0.923171 0.169467 0.094377
0.13019 0.605692 0.160571
0.129671 0.603342 0.160327
0.129168 0.600015 0.159808
0.127199 0.589258 0.157778
0.663783 0.668421 0.184939
0.896941 0.548501 0.166033
0.93521 0.488777 0.150591
0.933623 0.459663 0.142626
0.933715 0.448997 0.139834
0.150896 0.771389 0.174731
0.15082 0.770245 0.174685
0.150713 0.768841 0.174624
0.150423 0.765011 0.174441
0.278294 0.763699 0.177493
0.843885 0.842634 0.214405
0.954711 0.829114 0.214588
0.955322 0.819501 0.213153
0.955856 0.816205 0.212863
0.154665 0.831159 0.180102
0.154665 0.831159 0.180102
0.154665 0.831159 0.180102
0.154665 0.831159 0.180102
0.154665 0.831159 0.180102
0.751827 0.943343 0.222599
0.929198 0.93138 0.225971
0.949676 0.927306 0.226398
0.949706 0.925368 0.226154
0.154665 0.831159 0.180102
0.154665 0.831159 0.180102
0.154665 0.831159 0.180102
0.154665 0.831159 0.180102
0.154665 0.831159 0.180102
0.645823 0.920058 0.202045
0.902007 0.941604 0.225299
0.950668 0.945312 0.228916
0.950668 0.945312 0.228916
0.154665 0.831159 0.180102
0.154665 0.831159 0.180102
0.154665 0.831159 0.180102
0.154665 0.831159 0.180102
0.154665 0.831159 0.180102
0.591333 0.904707 0.19234
0.891203 0.94081 0.224521
0.950668 0.945312 0.228916
0.950668 0.945312 0.228916
0.0802014 0.0737011 0.0739147
0.105592 0.0734264 0.0727398
0.209735 0.0909133 0.0733959
0.519814 0.137453 0.0761273
0.800381 0.16875 0.0904707
0.923171 0.169467 0.094377
0.923171 0.169467 0.094377
0.923171 0.169467 0.094377
0.923171 0.169467 0.094377
0.0802014 0.0796063 0.068452
0.0802472 0.0737316 0.067689
0.176944 0.0834211 0.0689708
0.493706 0.133639 0.0734264
0.791379 0.167727 0.0903639
0.923171 0.169467 0.094377
0.923171 0.169467 0.094377
0.923171 0.169467 0.094377
0.923171 0.169467 0.094377
0.0730449 0.132647 0.0412604
0.0721141 0.124453 0.0398566
0.128206 0.118975 0.0454108
0.455909 0.162936 0.0709392
0.780087 0.16643 0.0902266
0.923171 0.169467 0.094377
0.923171 0.169467 0.094377
0.923171 0.169467 0.094377
0.923171 0.169467 0.094377
0.0800031 0.327688 0.0990616
0.0800793 0.320165 0.0973678
0.0802167 0.308721 0.0946365
0.365408 0.387427 0.116258
0.752438 0.284047 0.0926833
0.930724 0.229084 0.0919661
0.923171 0.169467 0.094377
0.923171 0.169467 0.094377
0.923171 0.169467 0.094377
0.129763 0.603876 0.160403
0.129351 0.601175 0.159976
0.128847 0.597818 0.159457
0.126665 0.586526 0.157244
0.661189 0.66601 0.184283
0.896422 0.544106 0.164858
0.934813 0.484169 0.14931
0.933593 0.455009 0.141405
0.933593 0.444068 0.138491
0.150835 0.770474 0.174701
0.150744 0.769329 0.17464
0.150637 0.76791 0.174578
0.150347 0.764096 0.174395
0.276112 0.762753 0.177325
0.843275 0.841352 0.214221
0.954742 0.827527 0.214298
0.955566 0.818067 0.213031
0.956069 0.81474 0.212741
0.154665 0.831159 0.180102
0.154665 0.831159 0.180102
0.154665 0.831159 0.180102
0.154665 0.831159 0.180102
0.154665 0.831159 0.180102
0.74905 0.941909 0.221958
0.928283 0.930388 0.225788
0.949691 0.926452 0.226276
0.949706 0.924529 0.226047
0.154665 0.831159 0.180102
0.154665 0.831159 0.180102
0.154665 0.831159 0.180102
0.154665 0.831159 0.180102
0.154665 0.831159 0.180102
0.641245 0.918914 0.201221
0.901091 0.941527 0.225238
0.950668 0.945312 0.228916
0.950668 0.945312 0.228916
0.154665 0.831159 0.180102
0.154665 0.831159 0.180102
0.154665 0.831159 0.180102
0.154665 0.831159 0.180102
0.154665 0.831159 0.180102
0.586435 0.903288 0.19144
0.890242 0.940749 0.22446
0.950668 0.945312 0.228916
0.950668 0.945312 0.228916
0.0717021 0.0633097 0.127092
0.0923629 0.0635386 0.125933
0.198917 0.0834363 0.124041
0.517281 0.132158 0.117586
0.799725 0.166827 0.133623
0.925673 0.170123 0.130175
0.925673 0.170108 0.120638
0.925673 0.170077 0.115785
0.925658 0.170062 0.114046
0.0726635 0.0645151 0.119249
0.0728008 0.0645304 0.117891
0.166842 0.0769207 0.117876
0.487724 0.127382 0.111604
0.789517 0.166461 0.130205
0.925658 0.170108 0.124712
0.925673 0.170062 0.114717
0.925704 0.170062 0.109895
0.92578 0.170077 0.108156
0.0740368 0.12726 0.1028
0.0734112 0.119432 0.0982528
0.121599 0.113787 0.0966812
0.4477 0.150362 0.106325
0.777279 0.165682 0.124926
0.925658 0.170077 0.117403
0.925826 0.170092 0.10753
0.925475 0.170001 0.102846
0.924514 0.169802 0.101274
0.0805829 0.321721 0.127306
0.0806134 0.312688 0.123919
0.0807202 0.302342 0.120165
0.359213 0.376791 0.138979
0.750942 0.279408 0.107469
0.930282 0.223499 0.0957198
0.923171 0.169467 0.094377
0.923171 0.169467 0.094377
0.923171 0.169467 0.094377
0.129351 0.601236 0.159991
0.128939 0.598505 0.159564
0.128206 0.594476 0.158801
0.126009 0.583154 0.156573
0.657954 0.662959 0.183642
0.895659 0.539178 0.163516
0.93434 0.478492 0.147723
0.933715 0.449256 0.13991
0.933394 0.437934 0.136828
0.150744 0.769345 0.17464
0.150668 0.7682 0.174578
0.150561 0.766781 0.174517
0.150271 0.762951 0.174334
0.273533 0.761608 0.177264
0.842191 0.839857 0.214023
0.954757 0.825574 0.213947
0.95584 0.816281 0.212879
0.956344 0.812955 0.212573
0.154665 0.831159 0.180102
0.154665 0.831159 0.180102
0.154665 0.831159 0.180102
0.154665 0.831159 0.180102
0.154665 0.831159 0.180102
0.745632 0.940108 0.221134
0.927184 0.929213 0.225574
0.949706 0.925414 0.226154
0.949752 0.923476 0.22591
0.154665 0.831159 0.180102
0.154665 0.831159 0.180102
0.154665 0.831159 0.180102
0.154665 0.831159 0.180102
0.154665 0.831159 0.180102
0.635752 0.91751 0.200275
0.899931 0.941451 0.225147
0.950668 0.945312 0.228916
0.950668 0.945312 0.228916
0.154665 0.831159 0.180102
0.154665 0.831159 0.180102
0.154665 0.831159 0.180102
0.154665 0.831159 0.180102
0.154665 0.831159 0.180102
0.580392 0.901534 0.190295
0.889067 0.940642 0.224369
0.950668 0.945312 0.228916
0.950668 0.945312 0.228916
0.0911879 0.148409 0.412131
0.0982223 0.148287 0.411185
0.172839 0.144305 0.40882
0.516991 0.166506 0.369833
0.806256 0.177844 0.226307
0.942519 0.177966 0.215366
0.942168 0.175967 0.210437
0.941985 0.175082 0.208118
0.941894 0.174746 0.207263
0.0939345 0.145846 0.401709
0.094377 0.145434 0.400015
0.15436 0.140642 0.395621
0.487266 0.164279 0.368414
0.798871 0.178454 0.223178
0.94229 0.176699 0.212345
0.941939 0.174884 0.207599
0.941711 0.173953 0.205219
0.941634 0.173617 0.204349
0.087541 0.18854 0.437781
0.0923171 0.180819 0.412284
0.128695 0.172625 0.392386
0.459342 0.172686 0.372839
0.788586 0.176791 0.218601
0.942061 0.175372 0.208896
0.941604 0.173495 0.204028
0.94136 0.172564 0.201602
0.94139 0.172686 0.200855
0.143099 0.392477 0.448646
0.143374 0.388357 0.450629
0.141375 0.377386 0.447028
0.312169 0.373617 0.432776
0.760525 0.270817 0.208545
0.940688 0.214694 0.201312
0.940383 0.172992 0.194659
0.938674 0.172488 0.191531
0.938033 0.17232 0.190387
0.135149 0.602716 0.259922
0.134478 0.60061 0.259205
0.133532 0.597742 0.258213
0.131014 0.589502 0.25539
0.665736 0.666758 0.278325
0.894362 0.536614 0.245747
0.933639 0.471168 0.224506
0.934157 0.436225 0.209689
0.93402 0.42356 0.204578
0.151034 0.766979 0.227695
0.150942 0.76582 0.226978
0.15082 0.764401 0.226078
0.150515 0.76051 0.223606
0.266957 0.759182 0.220981
0.840223 0.837324 0.247669
0.955917 0.822171 0.237385
0.956878 0.812604 0.231296
0.956924 0.808957 0.228916
0.154665 0.831159 0.180102
0.154665 0.831159 0.180102
0.154665 0.831159 0.180102
0.154665 0.831159 0.180102
0.154665 0.831159 0.180102
0.736355 0.935149 0.21886
0.924117 0.925994 0.224964
0.949767 0.922606 0.225803
0.949783 0.920653 0.225559
0.154665 0.831159 0.180102
0.154665 0.831159 0.180102
0.154665 0.831159 0.180102
0.154665 0.831159 0.180102
0.154665 0.831159 0.180102
0.6206 0.913695 0.19765
0.896819 0.941222 0.224933
0.950668 0.945312 0.228916
0.950668 0.945312 0.228916
0.154665 0.831159 0.180102
0.154665 0.831159 0.180102
0.154665 0.831159 0.180102
0.154665 0.831159 0.180102
0.154665 0.831159 0.180102
0.563699 0.896986 0.18735
0.885878 0.940414 0.224155
0.950668 0.945312 0.228916
0.950668 0.945312 0.228916
0.137102 0.243534 0.711254
0.136965 0.243336 0.710781
0.187289 0.242863 0.711147
0.370855 0.234516 0.679988
0.804166 0.243687 0.639597
0.958129 0.225986 0.567636
0.957916 0.223972 0.560922
0.957732 0.223056 0.557473
0.957656 0.222721 0.556222
0.136248 0.242298 0.708293
0.13611 0.2421 0.70782
0.166995 0.242374 0.707698
0.337804 0.232349 0.678416
0.795499 0.243687 0.638315
0.958068 0.22475 0.56376
0.957687 0.222827 0.55668
0.957488 0.221912 0.553216
0.957412 0.221576 0.551949
0.135515 0.243595 0.705165
0.135073 0.240589 0.704189
0.134905 0.240345 0.703578
0.304677 0.228763 0.675914
0.78471 0.243534 0.636576
0.957794 0.223362 0.558618
0.957382 0.221424 0.551461
0.957122 0.220371 0.547768
0.957061 0.219989 0.54638
0.131884 0.34226 0.687495
0.130785 0.338827 0.687846
0.129244 0.334447 0.688731
0.227878 0.325185 0.695933
0.759258 0.313817 0.649439
0.947448 0.219745 0.546044
0.956588 0.217212 0.536217
0.956374 0.216098 0.532265
0.956313 0.215686 0.530785
0.266133 0.685786 0.741527
0.265675 0.683345 0.74136
0.265049 0.68014 0.741176
0.263127 0.67068 0.740764
0.634882 0.67155 0.721279
0.918853 0.508293 0.55552
0.962173 0.435172 0.520394
0.962921 0.407492 0.507012
0.96318 0.399329 0.503182
0.176104 0.783444 0.482338
0.175708 0.782269 0.480934
0.175189 0.780819 0.479164
0.173846 0.776883 0.47454
0.282536 0.772457 0.490578
0.852354 0.843366 0.5019
0.966583 0.821424 0.478782
0.966079 0.812238 0.477562
0.965713 0.808789 0.477501
0.176852 0.845411 0.372015
0.176715 0.845289 0.371145
0.176547 0.845136 0.370031
0.176089 0.844755 0.367056
0.174685 0.84361 0.361944
0.734051 0.929854 0.397757
0.939208 0.926116 0.408789
0.968917 0.92018 0.404334
0.968887 0.917922 0.40293
0.171389 0.840925 0.351873
0.171237 0.840772 0.351354
0.171023 0.840589 0.350729
0.170459 0.840055 0.348989
0.1691 0.838788 0.344823
0.590814 0.905989 0.351446
0.911238 0.944976 0.38909
0.967117 0.947646 0.388571
0.967025 0.947585 0.387823
0.169512 0.839155 0.346014
0.169345 0.839002 0.34548
0.169116 0.838788 0.344869
0.16849 0.83827 0.343221
0.167025 0.837003 0.339239
0.523766 0.888045 0.334585
0.900252 0.943648 0.383459
0.966445 0.947387 0.384207
0.966522 0.947356 0.38349
0.22295 0.3552 0.880629
0.222843 0.354971 0.880369
0.22855 0.355108 0.880339
0.365469 0.359854 0.882307
0.771405 0.37116 0.882399
0.952453 0.364691 0.873091
0.952163 0.362219 0.87013
0.951995 0.360983 0.868681
0.951949 0.360525 0.868162
0.222278 0.353796 0.879057
0.222171 0.353567 0.878813
0.222034 0.353277 0.878492
0.347463 0.357473 0.880629
0.759793 0.369879 0.881315
0.95227 0.363226 0.871336
0.951965 0.360708 0.86836
0.951904 0.359121 0.866789
0.951888 0.35845 0.866178
0.221424 0.352087 0.87715
0.221286 0.351827 0.87689
0.221164 0.351583 0.876585
0.324804 0.352956 0.877317
0.744549 0.368032 0.879835
0.947204 0.361624 0.869291
0.951873 0.358221 0.865965
0.951843 0.356481 0.864332
0.951812 0.35584 0.863737
0.218601 0.421027 0.872969
0.218418 0.41796 0.873365
0.218677 0.413657 0.873091
0.291646 0.401389 0.873457
0.697292 0.377997 0.875914
0.931975 0.355398 0.862959
0.95172 0.35111 0.859312
0.951675 0.34934 0.857649
0.951659 0.348684 0.857038
0.297597 0.68162 0.908461
0.296117 0.677272 0.907439
0.294286 0.671946 0.906188
0.288106 0.65536 0.902037
0.563165 0.648264 0.895094
0.904555 0.554742 0.869688
0.961059 0.512978 0.864103
0.962203 0.494728 0.860594
0.962188 0.488304 0.858976
0.345739 0.869825 0.901686
0.345586 0.868727 0.901595
0.345373 0.867384 0.901488
0.344717 0.863523 0.900923
0.421164 0.856016 0.901762
0.865034 0.878248 0.910628
0.977081 0.856657 0.903593
0.976577 0.84596 0.900984
0.976394 0.841978 0.900053
0.348104 0.946944 0.882887
0.347936 0.946899 0.882612
0.347707 0.946853 0.882261
0.346761 0.945327 0.881407
0.344717 0.937423 0.879591
0.731777 0.954818 0.884657
0.942107 0.955795 0.888808
0.975921 0.950637 0.887297
0.975769 0.948592 0.886671
0.342504 0.945556 0.87393
0.342336 0.94551 0.87364
0.342107 0.945464 0.873289
0.341482 0.945312 0.872297
0.340017 0.944945 0.869917
0.625895 0.960891 0.869917
0.920989 0.9879 0.879881
0.978149 0.989456 0.879377
0.978866 0.989212 0.878828
0.340444 0.945052 0.870619
0.340246 0.945006 0.870314
0.340017 0.944945 0.869947
0.339422 0.944808 0.868955
0.337926 0.944457 0.86656
0.588678 0.955673 0.866117
0.912169 0.987594 0.876326
0.970657 0.989227 0.875883
0.978821 0.989563 0.875334
0.237751 0.385458 0.951247
0.237751 0.385458 0.951141
0.237751 0.385458 0.950988
0.35668 0.383932 0.950484
0.753155 0.384909 0.951782
0.951186 0.388861 0.947326
0.953277 0.388846 0.946014
0.953292 0.388846 0.945418
0.953292 0.388846 0.945205
0.237751 0.385458 0.95053
0.237751 0.385458 0.950408
0.237751 0.385458 0.950271
0.343359 0.383688 0.949508
0.741756 0.384451 0.951141
0.946853 0.388907 0.946746
0.953292 0.388846 0.945281
0.953307 0.388846 0.944686
0.953307 0.388846 0.944472
0.237751 0.385458 0.949645
0.237751 0.385473 0.949523
0.237751 0.385473 0.949386
0.328618 0.383368 0.948577
0.72546 0.383352 0.950057
0.941497 0.388815 0.945815
0.953307 0.388846 0.944381
0.953323 0.388846 0.943786
0.953323 0.388846 0.943557
0.24062 0.432563 0.948775
0.240436 0.427466 0.948608
0.239826 0.420325 0.948196
0.280339 0.399924 0.94757
0.670787 0.380743 0.9458
0.926711 0.388434 0.943069
0.953368 0.388861 0.941939
0.953384 0.388861 0.941344
0.953384 0.388861 0.941115
0.303395 0.661692 0.970504
0.302144 0.657938 0.969711
0.300847 0.653239 0.968856
0.297185 0.640131 0.966659
0.523766 0.61825 0.957626
0.895918 0.550011 0.946334
0.959777 0.517189 0.941375
0.960296 0.50161 0.940154
0.960616 0.497124 0.939895
0.365408 0.86659 0.975464
0.365103 0.865278 0.975402
0.364736 0.863676 0.975341
0.363653 0.85922 0.975113
0.411902 0.849805 0.975006
0.851911 0.868788 0.981048
0.975036 0.844984 0.975845
0.974655 0.835416 0.97467
0.974548 0.831815 0.974182
0.384405 0.949905 0.966232
0.384115 0.948928 0.96614
0.383795 0.947738 0.966003
0.382879 0.944488 0.965667
0.380789 0.936584 0.964935
0.739345 0.955032 0.973266
0.942351 0.954009 0.976043
0.981399 0.94905 0.975113
0.981262 0.947158 0.974777
0.385748 0.953979 0.96228
0.385748 0.953979 0.962158
0.385748 0.953979 0.96199
0.385748 0.953979 0.961563
0.385763 0.953994 0.96054
0.649241 0.972961 0.964279
0.924605 0.993957 0.973266
0.978439 0.989425 0.972274
0.985245 0.987411 0.971908
0.385763 0.953994 0.960845
0.385763 0.953994 0.960708
0.385763 0.953994 0.960555
0.385763 0.953994 0.960128
0.385779 0.953994 0.959091
0.610285 0.967971 0.963104
0.916182 0.995239 0.971481
0.972152 0.995972 0.971466
0.986389 0.995926 0.970306
0.237736 0.385443 0.952941
0.237736 0.385443 0.952941
0.237736 0.385443 0.952941
0.345876 0.383459 0.952621
0.744076 0.384543 0.955154
0.947631 0.388891 0.952193
0.953185 0.38883 0.951995
0.953185 0.38883 0.951995
0.953185 0.38883 0.951995
0.237736 0.385443 0.952941
0.237736 0.385443 0.952941
0.237736 0.385443 0.952941
0.333013 0.383856 0.952544
0.731136 0.383856 0.955032
0.943252 0.388815 0.952193
0.953185 0.38883 0.951995
0.953185 0.38883 0.951995
0.953185 0.38883 0.951995
0.237736 0.385443 0.952941
0.237736 0.385443 0.952941
0.237736 0.385443 0.952941
0.320592 0.382391 0.9523
0.71397 0.382193 0.954818
0.937819 0.388724 0.952163
0.953185 0.38883 0.951995
0.953185 0.38883 0.951995
0.953185 0.38883 0.951995
0.239033 0.409232 0.953811
0.238636 0.402945 0.953643
0.238239 0.3953 0.95346
0.259586 0.385641 0.953155
0.652811 0.380713 0.952499
0.922896 0.388235 0.951659
0.953185 0.38883 0.951995
0.953185 0.38883 0.951995
0.953185 0.38883 0.951995
0.298772 0.646036 0.97969
0.297642 0.642039 0.979141
0.296223 0.637003 0.9785
0.291081 0.622522 0.975387
0.497612 0.596643 0.968811
0.891829 0.538354 0.960159
0.959899 0.504051 0.956741
0.960296 0.491569 0.956588
0.959731 0.485664 0.956237
0.364019 0.861143 0.996582
0.363684 0.859785 0.996628
0.36321 0.85803 0.996612
0.361913 0.853254 0.996597
0.391974 0.843137 0.996948
0.845121 0.861494 1
0.973053 0.837324 1
0.974166 0.827329 1
0.974014 0.82359 0.999756
0.383001 0.945785 0.995117
0.382727 0.944793 0.995026
0.382391 0.943587 0.994919
0.381506 0.940307 0.994629
0.379492 0.932357 0.994034
0.724193 0.948989 1
0.938384 0.949432 1
0.98088 0.944701 1
0.980743 0.942779 1
0.385351 0.95378 0.991318
0.385351 0.95378 0.991196
0.385367 0.95378 0.991043
0.385367 0.95378 0.990662
0.385382 0.953796 0.989715
0.632044 0.97116 0.993469
0.920226 0.989792 1
0.974563 0.985336 1
0.984527 0.983185 1
0.385367 0.95378 0.98999
0.385367 0.95378 0.989868
0.385382 0.953796 0.989731
0.385382 0.953796 0.989334
0.385397 0.953811 0.988388
0.59411 0.964599 0.992874
0.912123 0.994904 1
0.968719 0.99585 1
0.98616 0.995789 1
0.237736 0.385443 0.952941
0.237736 0.385443 0.952941
0.237736 0.385443 0.952941
0.342184 0.38378 0.952529
0.740505 0.384375 0.955139
0.946365 0.388876 0.952209
0.953185 0.38883 0.951995
0.953185 0.38883 0.951995
0.953185 0.38883 0.951995
0.237736 0.385443 0.952941
0.237736 0.385443 0.952941
0.237736 0.385443 0.952941
0.329961 0.383505 0.952529
0.727169 0.383505 0.954986
0.94197 0.3888 0.952178
0.953185 0.38883 0.951995
0.953185 0.38883 0.951995
0.953185 0.38883 0.951995
0.237736 0.385443 0.952941
0.237736 0.385443 0.952941
0.237736 0.385443 0.952941
0.317128 0.382406 0.952087
0.709697 0.381735 0.954757
0.936538 0.388708 0.952148
0.953185 0.38883 0.951995
0.953185 0.38883 0.951995
0.953185 0.38883 0.951995
0.238499 0.400107 0.953597
0.238178 0.393866 0.953414
0.237812 0.386099 0.953017
0.251942 0.385611 0.953124
0.646418 0.380652 0.952316
0.921569 0.388174 0.951598
0.953185 0.38883 0.951995
0.953185 0.38883 0.951995
0.953185 0.38883 0.951995
0.297154 0.640238 0.978897
0.295949 0.636057 0.978378
0.294133 0.630762 0.97734
0.287785 0.615045 0.973205
0.488899 0.589685 0.96846
0.890394 0.534188 0.959899
0.960128 0.50042 0.956725
0.959884 0.486946 0.956329
0.959167 0.480522 0.955993
0.363516 0.859144 0.996628
0.363119 0.85771 0.996612
0.362646 0.85594 0.996612
0.361303 0.851057 0.99646
0.383383 0.840772 0.996719
0.842847 0.858915 1
0.971756 0.834531 1
0.97406 0.824384 0.999817
0.973861 0.820325 0.999481
0.382589 0.94435 0.995193
0.382315 0.943358 0.995224
0.381979 0.942138 0.995254
0.381125 0.938857 0.995377
0.379095 0.930877 0.995712
0.718929 0.946822 1
0.936996 0.947784 1
0.980728 0.943145 1
0.980591 0.941146 1
0.385306 0.953765 0.99498
0.385306 0.953765 0.99498
0.385306 0.953765 0.99498
0.385306 0.953765 0.99498
0.385306 0.953765 0.99498
0.625559 0.970169 1
0.918654 0.988281 1
0.973175 0.983841 1
0.984298 0.981659 1
0.385306 0.953765 0.99498
0.385306 0.953765 0.99498
0.385306 0.953765 0.99498
0.385306 0.953765 0.99498
0.385306 0.953765 0.99498
0.589319 0.963531 1
0.910658 0.994797 1
0.967483 0.995789 1
0.986084 0.995727 1
