modules/camera-engine/ios/LUTs/panasonic-seaside-sunset.cube
TITLE "Generated by Resolve"
LUT_3D_SIZE 5
0.0802472 0.0737316 0.067689
0.215259 0.0925002 0.0693065
0.801755 0.168872 0.0904707
0.923171 0.169467 0.094377
0.923171 0.169467 0.094377
0.0737774 0.139208 0.0428016
0.133791 0.126085 0.047776
0.781567 0.166598 0.0902419
0.923171 0.169467 0.094377
0.923171 0.169467 0.094377
0.13019 0.605692 0.160571
0.129168 0.600015 0.159808
0.663783 0.668421 0.184939
0.93521 0.488777 0.150591
0.933715 0.448997 0.139834
0.154665 0.831159 0.180102
0.154665 0.831159 0.180102
0.154665 0.831159 0.180102
0.929198 0.93138 0.225971
0.949706 0.925368 0.226154
0.154665 0.831159 0.180102
0.154665 0.831159 0.180102
0.154665 0.831159 0.180102
0.891203 0.94081 0.224521
0.950668 0.945312 0.228916
0.0717021 0.0633097 0.127092
0.198917 0.0834363 0.124041
0.799725 0.166827 0.133623
0.925673 0.170108 0.120638
0.925658 0.170062 0.114046
0.0740368 0.12726 0.1028
0.121599 0.113787 0.0966812
0.777279 0.165682 0.124926
0.925826 0.170092 0.10753
0.924514 0.169802 0.101274
0.129351 0.601236 0.159991
0.128206 0.594476 0.158801
0.657954 0.662959 0.183642
0.93434 0.478492 0.147723
0.933394 0.437934 0.136828
0.154665 0.831159 0.180102
0.154665 0.831159 0.180102
0.154665 0.831159 0.180102
0.927184 0.929213 0.225574
0.949752 0.923476 0.22591
0.154665 0.831159 0.180102
0.154665 0.831159 0.180102
0.154665 0.831159 0.180102
0.889067 0.940642 0.224369
0.950668 0.945312 0.228916
0.137102 0.243534 0.711254
0.187289 0.242863 0.711147
0.804166 0.243687 0.639597
0.957916 0.223972 0.560922
0.957656 0.222721 0.556222
0.135515 0.243595 0.705165
0.134905 0.240345 0.703578
0.78471 0.243534 0.636576
0.957382 0.221424 0.551461
0.957061 0.219989 0.54638
0.266133 0.685786 0.741527
0.265049 0.68014 0.741176
0.634882 0.67155 0.721279
0.962173 0.435172 0.520394
0.96318 0.399329 0.503182
0.176852 0.845411 0.372015
0.176547 0.845136 0.370031
0.174685 0.84361 0.361944
0.939208 0.926116 0.408789
0.968887 0.917922 0.40293
0.169512 0.839155 0.346014
0.169116 0.838788 0.344869
0.167025 0.837003 0.339239
0.900252 0.943648 0.383459
0.966522 0.947356 0.38349
0.237751 0.385458 0.951247
0.237751 0.385458 0.950988
0.753155 0.384909 0.951782
0.953277 0.388846 0.946014
0.953292 0.388846 0.945205
0.237751 0.385458 0.949645
0.237751 0.385473 0.949386
0.72546 0.383352 0.950057
0.953307 0.388846 0.944381
0.953323 0.388846 0.943557
0.303395 0.661692 0.970504
0.300847 0.653239 0.968856
0.523766 0.61825 0.957626
0.959777 0.517189 0.941375
0.960616 0.497124 0.939895
0.384405 0.949905 0.966232
0.383795 0.947738 0.966003
0.380789 0.936584 0.964935
0.942351 0.954009 0.976043
0.981262 0.947158 0.974777
0.385763 0.953994 0.960845
0.385763 0.953994 0.960555
0.385779 0.953994 0.959091
0.916182 0.995239 0.971481
0.986389 0.995926 0.970306
0.237736 0.385443 0.952941
0.237736 0.385443 0.952941
0.740505 0.384375 0.955139
0.953185 0.38883 0.951995
0.953185 0.38883 0.951995
0.237736 0.385443 0.952941
0.237736 0.385443 0.952941
0.709697 0.381735 0.954757
0.953185 0.38883 0.951995
0.953185 0.38883 0.951995
0.297154 0.640238 0.978897
0.294133 0.630762 0.97734
0.488899 0.589685 0.96846
0.960128 0.50042 0.956725
0.959167 0.480522 0.955993
0.382589 0.94435 0.995193
0.381979 0.942138 0.995254
0.379095 0.930877 0.995712
0.936996 0.947784 1
0.980591 0.941146 1
0.385306 0.953765 0.99498
0.385306 0.953765 0.99498
0.385306 0.953765 0.99498
0.910658 0.994797 1
0.986084 0.995727 1
