modules/camera-engine/ios/LUTs/panasonic-dusk-atmosphere.cube
TITLE "Generated by Resolve"
LUT_3D_SIZE 9
0.0808118 0.073228 0.0694133
0.158068 0.0805982 0.0727703
0.373724 0.130983 0.0895247
0.615076 0.162631 0.0987716
0.842115 0.18674 0.117189
1 0.205005 0.13402
1 0.205005 0.13402
1 0.205005 0.13402
1 0.205005 0.13402
0.0796979 0.0933547 0.0675517
0.0874952 0.0817121 0.0694438
0.318166 0.118013 0.0860609
0.595117 0.159854 0.096788
0.838056 0.187213 0.116701
1 0.205005 0.13402
1 0.205005 0.13402
1 0.205005 0.13402
1 0.205005 0.13402
0.0879377 0.244907 0.0800946
0.0874342 0.231998 0.0776226
0.237324 0.224979 0.0774395
0.542062 0.212802 0.0790723
0.832715 0.187869 0.116167
1 0.205005 0.13402
1 0.205005 0.13402
1 0.205005 0.13402
1 0.205005 0.13402
0.111177 0.442283 0.111101
0.110338 0.436561 0.110491
0.109285 0.429435 0.109743
0.481331 0.448707 0.125795
0.762387 0.368673 0.106981
0.973312 0.298955 0.10927
1 0.208515 0.132189
1 0.205005 0.13402
1 0.205005 0.13402
0.143496 0.670756 0.132143
0.143297 0.668223 0.132067
0.143038 0.66511 0.131975
0.142367 0.656672 0.131685
0.703548 0.664408 0.159228
0.917388 0.599771 0.145754
0.957153 0.563958 0.142733
0.957427 0.543374 0.139696
0.957778 0.535332 0.138491
0.157702 0.851164 0.143328
0.15761 0.849744 0.143236
0.157504 0.848005 0.143114
0.157183 0.843259 0.142809
0.375021 0.810483 0.116442
0.867582 0.838178 0.169345
0.975357 0.821851 0.169345
0.975128 0.812894 0.168246
0.975036 0.809613 0.167834
0.162387 0.922347 0.148058
0.162387 0.922347 0.148058
0.162387 0.922347 0.148058
0.162387 0.922347 0.148058
0.162387 0.922347 0.148058
0.804578 0.958068 0.184909
0.953277 0.935714 0.173556
0.972717 0.929808 0.173571
0.972686 0.927626 0.173541
0.162387 0.922347 0.148058
0.162387 0.922347 0.148058
0.162387 0.922347 0.148058
0.162387 0.922347 0.148058
0.162387 0.922347 0.148058
0.760708 0.964843 0.184482
0.928405 0.949065 0.173739
0.972976 0.949172 0.173831
0.972976 0.949172 0.173831
0.162387 0.922347 0.148058
0.162387 0.922347 0.148058
0.162387 0.922347 0.148058
0.162387 0.922347 0.148058
0.162387 0.922347 0.148058
0.737621 0.961898 0.180346
0.918959 0.949081 0.173739
0.972976 0.949172 0.173831
0.972976 0.949172 0.173831
0.0808728 0.0732891 0.0811627
0.143542 0.076997 0.0812238
0.365423 0.129427 0.0964981
0.611811 0.162142 0.100435
0.841474 0.186801 0.117098
1 0.205005 0.13402
1 0.205005 0.13402
1 0.205005 0.13402
1 0.205005 0.13402
0.0809339 0.0843214 0.0706493
0.0808118 0.073228 0.0694133
0.308614 0.115648 0.085359
0.591928 0.159411 0.0964981
0.837385 0.187304 0.11664
1 0.205005 0.13402
1 0.205005 0.13402
1 0.205005 0.13402
1 0.205005 0.13402
0.087541 0.234668 0.0781262
0.0870375 0.221012 0.0755016
0.223377 0.209293 0.0740063
0.542367 0.203494 0.0793317
0.831998 0.187945 0.116091
1 0.205005 0.13402
1 0.205005 0.13402
1 0.205005 0.13402
1 0.205005 0.13402
0.110506 0.43772 0.110613
0.109651 0.431922 0.110002
0.108568 0.424643 0.109224
0.476783 0.443992 0.125063
0.761608 0.363073 0.10605
0.973571 0.293294 0.109957
1 0.205005 0.13402
1 0.205005 0.13402
1 0.205005 0.13402
0.143328 0.668727 0.132082
0.14313 0.666194 0.132006
0.14287 0.663066 0.131914
0.142199 0.654597 0.131624
0.701747 0.661982 0.158694
0.916274 0.596872 0.145418
0.957122 0.56083 0.142275
0.95758 0.539849 0.139162
0.957855 0.53196 0.138003
0.157626 0.850034 0.143252
0.157534 0.848615 0.14316
0.157427 0.84686 0.143038
0.157107 0.8421 0.142733
0.371862 0.809308 0.116442
0.866819 0.836851 0.169299
0.975326 0.820432 0.169177
0.975082 0.811444 0.168063
0.975052 0.808118 0.167681
0.162387 0.922347 0.148058
0.162387 0.922347 0.148058
0.162387 0.922347 0.148058
0.162387 0.922347 0.148058
0.162387 0.922347 0.148058
0.803403 0.957473 0.185061
0.952483 0.934752 0.173526
0.972702 0.928847 0.173556
0.972671 0.92665 0.173526
0.162387 0.922347 0.148058
0.162387 0.922347 0.148058
0.162387 0.922347 0.148058
0.162387 0.922347 0.148058
0.162387 0.922347 0.148058
0.758801 0.964599 0.184131
0.927581 0.949065 0.173739
0.972976 0.949172 0.173831
0.972976 0.949172 0.173831
0.162387 0.922347 0.148058
0.162387 0.922347 0.148058
0.162387 0.922347 0.148058
0.162387 0.922347 0.148058
0.162387 0.922347 0.148058
0.735363 0.961593 0.17998
0.91812 0.949081 0.173739
0.972976 0.949172 0.173831
0.972976 0.949172 0.173831
0.0717784 0.0655375 0.185138
0.116793 0.0661021 0.180728
0.358846 0.123857 0.192691
0.612482 0.159716 0.197665
0.841398 0.18616 0.209232
1 0.201282 0.20621
1 0.200931 0.186435
1 0.200717 0.176318
1 0.200763 0.172869
0.0707866 0.0614023 0.172778
0.0707866 0.0609903 0.170901
0.294148 0.109834 0.179492
0.593317 0.15697 0.186313
0.837186 0.185992 0.198749
1 0.20116 0.195056
1 0.200748 0.174197
1 0.201419 0.164416
1 0.201862 0.160754
0.0855879 0.225254 0.179614
0.084062 0.212085 0.17467
0.196368 0.187869 0.156588
0.543816 0.190036 0.161975
0.831342 0.186252 0.184848
1 0.200717 0.179507
1 0.202029 0.159426
1 0.203326 0.149447
1 0.203723 0.146105
0.110292 0.432746 0.166217
0.109285 0.42649 0.163531
0.107881 0.418494 0.160647
0.467399 0.434852 0.169039
0.759258 0.355138 0.134081
0.974105 0.285817 0.117723
1 0.205005 0.13402
1 0.205005 0.13402
1 0.205005 0.13402
0.14313 0.666255 0.132006
0.142931 0.663691 0.13193
0.142672 0.660578 0.131823
0.142 0.652079 0.131533
0.69955 0.658961 0.158068
0.9149 0.593301 0.144991
0.957107 0.556985 0.141726
0.957763 0.535531 0.138521
0.957931 0.527901 0.137438
0.157534 0.848646 0.14316
0.157443 0.847211 0.143069
0.157336 0.845457 0.142947
0.157015 0.840681 0.142641
0.36762 0.807767 0.11632
0.865873 0.835218 0.169223
0.97528 0.818692 0.168963
0.975052 0.809689 0.167849
0.975067 0.806271 0.167498
0.162387 0.922347 0.148058
0.162387 0.922347 0.148058
0.162387 0.922347 0.148058
0.162387 0.922347 0.148058
0.162387 0.922347 0.148058
0.801984 0.956771 0.185245
0.951522 0.933593 0.17351
0.972686 0.927672 0.173541
0.972656 0.925475 0.17351
0.162387 0.922347 0.148058
0.162387 0.922347 0.148058
0.162387 0.922347 0.148058
0.162387 0.922347 0.148058
0.162387 0.922347 0.148058
0.756466 0.964324 0.183688
0.926574 0.949065 0.173739
0.972976 0.949172 0.173831
0.972976 0.949172 0.173831
0.162387 0.922347 0.148058
0.162387 0.922347 0.148058
0.162387 0.922347 0.148058
0.162387 0.922347 0.148058
0.162387 0.922347 0.148058
0.732555 0.961196 0.179522
0.917082 0.949081 0.173754
0.972976 0.949172 0.173831
0.972976 0.949172 0.173831
0.0906691 0.140795 0.413504
0.102983 0.140108 0.410391
0.340993 0.146593 0.410208
0.61442 0.18587 0.401968
0.852277 0.194903 0.36228
1 0.210407 0.377676
1 0.209186 0.366766
1 0.208591 0.361334
1 0.208377 0.359335
0.0905013 0.140261 0.406973
0.0904707 0.140185 0.405921
0.253147 0.138048 0.401114
0.594369 0.183658 0.395483
0.844785 0.193957 0.355215
1 0.209674 0.371176
1 0.208453 0.360082
1 0.208072 0.354879
1 0.20795 0.353002
0.0946212 0.211963 0.400305
0.0892653 0.19379 0.390723
0.146929 0.179339 0.401511
0.563226 0.192279 0.383322
0.835142 0.192798 0.346624
1 0.208789 0.363134
1 0.207904 0.352331
1 0.207568 0.347082
1 0.207446 0.345144
0.150896 0.449104 0.415686
0.15053 0.443259 0.414542
0.14995 0.435615 0.412619
0.437415 0.420996 0.368353
0.755764 0.334768 0.299428
0.987152 0.26154 0.308965
1 0.207034 0.332372
1 0.206912 0.327611
1 0.206821 0.325887
0.139467 0.653651 0.310994
0.139162 0.650874 0.309972
0.138766 0.647532 0.308766
0.137575 0.638895 0.305852
0.689662 0.649271 0.320699
0.906859 0.579141 0.295888
0.952895 0.542199 0.283223
0.953017 0.521737 0.276844
0.953002 0.514031 0.274418
0.156512 0.842176 0.24387
0.156603 0.840696 0.242451
0.15671 0.83888 0.240711
0.156481 0.834028 0.236271
0.351354 0.799603 0.19913
0.860883 0.827375 0.233021
0.972992 0.811414 0.213107
0.973465 0.802548 0.202686
0.973648 0.799268 0.198917
0.162387 0.922347 0.148058
0.162387 0.922347 0.148058
0.162387 0.922347 0.148058
0.162387 0.922347 0.148058
0.162387 0.922347 0.148058
0.797986 0.954726 0.185626
0.948882 0.930419 0.173449
0.972641 0.924468 0.173495
0.97261 0.922255 0.173465
0.162387 0.922347 0.148058
0.162387 0.922347 0.148058
0.162387 0.922347 0.148058
0.162387 0.922347 0.148058
0.162387 0.922347 0.148058
0.750103 0.963561 0.182498
0.923842 0.949081 0.173739
0.972976 0.949172 0.173831
0.972976 0.949172 0.173831
0.162387 0.922347 0.148058
0.162387 0.922347 0.148058
0.162387 0.922347 0.148058
0.162387 0.922347 0.148058
0.162387 0.922347 0.148058
0.72488 0.960113 0.178286
0.914305 0.949081 0.173754
0.972976 0.949172 0.173831
0.972976 0.949172 0.173831
0.112978 0.179034 0.658228
0.112902 0.178927 0.657801
0.231327 0.175051 0.646082
0.606638 0.217456 0.661631
0.851499 0.235325 0.633143
1 0.247547 0.655879
1 0.247044 0.649622
1 0.246784 0.646586
1 0.246677 0.645518
0.112535 0.178439 0.655619
0.112459 0.178332 0.655192
0.173632 0.175418 0.649256
0.580362 0.20911 0.656306
0.843458 0.234226 0.629984
1 0.247257 0.652155
1 0.246723 0.645945
1 0.246387 0.643015
1 0.246265 0.641978
0.109606 0.178897 0.653513
0.111925 0.177554 0.651972
0.111833 0.17734 0.651514
0.542458 0.197345 0.647745
0.833539 0.233097 0.627558
1 0.246891 0.647562
1 0.24625 0.641581
1 0.245914 0.638636
1 0.245777 0.637552
0.16318 0.423087 0.658976
0.159945 0.414359 0.655634
0.155825 0.403784 0.65153
0.34464 0.361364 0.62182
0.769375 0.319982 0.577356
1 0.24506 0.633036
1 0.244892 0.629572
1 0.244541 0.626642
1 0.244404 0.625727
0.206683 0.685115 0.652064
0.206821 0.682612 0.651957
0.206989 0.679484 0.651804
0.207446 0.670787 0.65124
0.661234 0.645609 0.603937
0.904433 0.559228 0.522469
0.96025 0.517891 0.514763
0.964004 0.492012 0.507897
0.965988 0.482261 0.505211
0.174258 0.83711 0.545434
0.173816 0.835569 0.544121
0.173281 0.833692 0.54258
0.171801 0.82858 0.538308
0.335622 0.794186 0.485786
0.846616 0.815412 0.492699
0.969436 0.795041 0.484871
0.969375 0.785046 0.481636
0.969421 0.781094 0.480537
0.168429 0.92195 0.499779
0.168185 0.92195 0.498772
0.167865 0.921935 0.49749
0.167285 0.921859 0.494224
0.166033 0.92163 0.486397
0.774166 0.942458 0.470802
0.939696 0.912581 0.459495
0.969879 0.9066 0.457053
0.969909 0.904387 0.456123
0.163302 0.921111 0.469032
0.16318 0.921065 0.468025
0.163027 0.921019 0.466804
0.162615 0.920897 0.463462
0.161593 0.920592 0.455299
0.715969 0.950164 0.448005
0.915007 0.939116 0.44445
0.97081 0.939162 0.441733
0.97084 0.939193 0.440787
0.161898 0.920684 0.45771
0.161776 0.920638 0.456687
0.161608 0.920592 0.455406
0.161196 0.92047 0.452033
0.160235 0.920165 0.443915
0.686198 0.946426 0.438224
0.905562 0.939254 0.438636
0.970871 0.939284 0.435828
0.971008 0.939223 0.434852
0.128008 0.197406 0.852247
0.127932 0.197375 0.851987
0.137072 0.196674 0.851072
0.524239 0.206897 0.863447
0.843229 0.246128 0.880949
1 0.261067 0.895064
1 0.260945 0.892363
1 0.260868 0.891035
1 0.260853 0.890578
0.127504 0.197208 0.85069
0.127428 0.197177 0.850431
0.127321 0.197131 0.850126
0.489738 0.203586 0.857404
0.834897 0.24567 0.879133
1 0.26099 0.893446
1 0.260853 0.890761
1 0.260868 0.889448
1 0.260884 0.888975
0.126894 0.196948 0.848783
0.126818 0.196918 0.848539
0.126711 0.196872 0.848219
0.44477 0.198932 0.849744
0.824475 0.245045 0.876905
1 0.26041 0.891005
1 0.260884 0.888808
1 0.260914 0.88751
1 0.260929 0.887037
0.123812 0.343587 0.827268
0.121172 0.336553 0.827375
0.117601 0.327428 0.827451
0.250721 0.292103 0.81706
0.781598 0.260136 0.856931
1 0.258793 0.884153
1 0.261006 0.883528
1 0.261021 0.8822
1 0.261036 0.881727
0.220142 0.674662 0.860441
0.219821 0.671626 0.860151
0.219364 0.66775 0.859754
0.218021 0.656947 0.858625
0.615442 0.604089 0.825895
0.913191 0.516472 0.778439
0.979522 0.476295 0.778546
0.981994 0.458 0.778714
0.983078 0.451484 0.778988
0.233356 0.867399 0.838727
0.233204 0.865843 0.838529
0.233036 0.863951 0.838315
0.232532 0.858778 0.837766
0.362936 0.827619 0.813886
0.829435 0.819074 0.794568
0.965118 0.796246 0.783291
0.964935 0.785824 0.781353
0.964889 0.781979 0.780667
0.237293 0.966201 0.826459
0.237247 0.966171 0.826123
0.237201 0.966125 0.825711
0.236927 0.964187 0.824399
0.23592 0.95404 0.820691
0.732204 0.933883 0.755688
0.926604 0.923003 0.74464
0.966201 0.916564 0.74316
0.96611 0.914214 0.742779
0.235981 0.964904 0.815625
0.235935 0.964858 0.815259
0.235889 0.964797 0.814817
0.235752 0.96466 0.813626
0.235401 0.964294 0.810742
0.661021 0.953094 0.742733
0.900862 0.960845 0.731563
0.966079 0.960433 0.728008
0.966903 0.960052 0.727138
0.235508 0.964401 0.811582
0.235462 0.964355 0.811231
0.235416 0.964309 0.810803
0.235264 0.964141 0.809583
0.234928 0.96379 0.806699
0.632914 0.950927 0.740139
0.891005 0.960647 0.72665
0.957565 0.960113 0.722789
0.966964 0.960052 0.721843
0.162402 0.225483 0.959533
0.16231 0.225406 0.959319
0.162234 0.22536 0.959075
0.472679 0.230228 0.966613
0.828046 0.260578 0.991699
1 0.27747 1
1 0.277623 1
1 0.277592 1
1 0.277592 1
0.161883 0.225162 0.958282
0.161791 0.225116 0.958083
0.161685 0.225055 0.957855
0.437552 0.231525 0.962173
0.819532 0.259602 0.989654
1 0.277028 1
1 0.277592 1
1 0.277562 1
1 0.277562 1
0.161212 0.224811 0.956802
0.16112 0.224781 0.956603
0.160998 0.224704 0.956359
0.386114 0.227207 0.95433
0.808743 0.258457 0.987198
1 0.276478 1
1 0.277562 1
1 0.277531 1
1 0.277516 1
0.135042 0.29221 0.931121
0.13608 0.28336 0.93254
0.137774 0.271641 0.934722
0.222873 0.229877 0.93901
0.775189 0.255131 0.981826
1 0.274937 0.996963
1 0.277455 0.997681
1 0.277424 0.99678
1 0.277409 0.99646
0.221881 0.652308 0.961135
0.221332 0.648829 0.960739
0.220661 0.644541 0.960235
0.21857 0.63241 0.958663
0.579599 0.571649 0.930388
0.906065 0.504875 0.925628
0.98439 0.459831 0.925551
0.987045 0.435782 0.925628
0.98793 0.427466 0.926085
0.240391 0.856153 0.950149
0.240269 0.854566 0.949874
0.240146 0.852628 0.949538
0.23978 0.847333 0.948608
0.325643 0.824247 0.936217
0.82153 0.80853 0.926162
0.969879 0.782025 0.921126
0.969787 0.770291 0.919509
0.969787 0.765927 0.918929
0.245624 0.963684 0.943862
0.245563 0.962509 0.943618
0.245502 0.961074 0.943328
0.245319 0.957137 0.94255
0.244877 0.947601 0.940673
0.719936 0.927184 0.912139
0.917784 0.916381 0.906004
0.966812 0.910155 0.904768
0.967025 0.907835 0.904341
0.24593 0.969314 0.938521
0.24593 0.969329 0.938338
0.24593 0.96936 0.938109
0.245945 0.969436 0.937499
0.245945 0.969573 0.936004
0.639536 0.956786 0.899748
0.890181 0.962936 0.899702
0.956741 0.956985 0.897459
0.965316 0.954894 0.89691
0.245945 0.969528 0.936446
0.245945 0.969543 0.936263
0.245945 0.969558 0.936034
0.245945 0.969619 0.935409
0.245945 0.969757 0.933898
0.605524 0.954696 0.897887
0.880278 0.964981 0.896941
0.948241 0.964721 0.894575
0.965515 0.964736 0.89398
0.163561 0.226291 0.962539
0.163561 0.226291 0.962539
0.163561 0.226291 0.962539
0.44538 0.23209 0.967865
0.821469 0.259663 0.996262
1 0.277348 1
1 0.277882 1
1 0.277882 1
1 0.277882 1
0.163561 0.226291 0.962539
0.163561 0.226291 0.962539
0.163561 0.226291 0.962539
0.405997 0.229313 0.963149
0.812741 0.25864 0.995529
1 0.276936 1
1 0.277882 1
1 0.277882 1
1 0.277882 1
0.163561 0.226291 0.962539
0.163561 0.226291 0.962539
0.163561 0.226291 0.962539
0.351339 0.227588 0.960433
0.801343 0.257588 0.994812
1 0.276417 1
1 0.277882 1
1 0.277882 1
1 0.277882 1
0.14522 0.255238 0.950698
0.148989 0.244862 0.953552
0.154543 0.232425 0.957031
0.206439 0.225452 0.960464
0.765942 0.253727 0.993683
0.997238 0.274983 1
1 0.277882 1
1 0.277882 1
1 0.277882 1
0.220752 0.636408 0.976959
0.220035 0.632609 0.976623
0.219181 0.627939 0.976242
0.216922 0.615183 0.975296
0.562722 0.556176 0.951705
0.903059 0.490196 0.951385
0.985611 0.444877 0.956695
0.988617 0.422568 0.961501
0.990143 0.414237 0.96318
0.246891 0.852277 0.981933
0.246723 0.85066 0.981933
0.246555 0.848692 0.981933
0.245991 0.843244 0.981933
0.294835 0.818158 0.972656
0.814267 0.802838 0.966796
0.967742 0.775601 0.96376
0.96936 0.763607 0.963272
0.969451 0.759167 0.96318
0.256046 0.963058 0.987625
0.255894 0.961776 0.987366
0.25565 0.960189 0.987045
0.25507 0.955901 0.986191
0.253697 0.945449 0.984115
0.705928 0.920607 0.958389
0.912474 0.911223 0.956512
0.96614 0.90544 0.956085
0.966369 0.903105 0.955856
0.254597 0.971801 0.982315
0.254536 0.971771 0.982116
0.254429 0.97171 0.981888
0.254185 0.971572 0.981247
0.253605 0.971237 0.979721
0.633448 0.958877 0.953674
0.882277 0.956359 0.949432
0.949218 0.95024 0.947829
0.961547 0.948119 0.947417
0.253773 0.971328 0.980163
0.253697 0.971283 0.979965
0.253605 0.971237 0.979736
0.253361 0.971099 0.979095
0.252766 0.970748 0.977554
0.602228 0.956176 0.94995
0.872129 0.962997 0.947387
0.940459 0.962585 0.945617
0.961563 0.962585 0.945174
0.163561 0.226291 0.962539
0.163561 0.226291 0.962539
0.163561 0.226291 0.962539
0.435004 0.231678 0.966781
0.818982 0.259358 0.996048
1 0.277226 1
1 0.277882 1
1 0.277882 1
1 0.277882 1
0.163561 0.226291 0.962539
0.163561 0.226291 0.962539
0.163561 0.226291 0.962539
0.393194 0.228138 0.961532
0.810071 0.258396 0.995361
1 0.276814 1
1 0.277882 1
1 0.277882 1
1 0.277882 1
0.163561 0.226291 0.962539
0.163561 0.226291 0.962539
0.163561 0.226291 0.962539
0.338613 0.228519 0.961349
0.798581 0.257343 0.994644
1 0.276295 1
1 0.277882 1
1 0.277882 1
1 0.277882 1
0.150973 0.240177 0.954757
0.155612 0.23032 0.957778
0.163195 0.226398 0.962203
0.190356 0.226337 0.959594
0.762524 0.253223 0.993515
0.995651 0.274861 1
1 0.277882 1
1 0.277882 1
1 0.277882 1
0.21973 0.6309 0.976486
0.219043 0.62707 0.976181
0.218204 0.622385 0.97583
0.215305 0.60911 0.974624
0.5561 0.549371 0.951385
0.901991 0.482536 0.950698
0.986267 0.438468 0.958099
0.989822 0.415946 0.962844
0.99147 0.407141 0.964508
0.246662 0.849943 0.981933
0.246509 0.848325 0.981933
0.246326 0.846326 0.981933
0.245762 0.840833 0.981949
0.281071 0.817304 0.974289
0.812116 0.799939 0.966873
0.966278 0.772122 0.963516
0.969436 0.760052 0.963195
0.969543 0.755596 0.963119
0.255924 0.961273 0.987594
0.255833 0.960021 0.987518
0.255695 0.95848 0.987427
0.25536 0.954314 0.987198
0.254551 0.944167 0.986633
0.703593 0.919341 0.964034
0.911437 0.909728 0.964111
0.966278 0.903639 0.964553
0.966476 0.901289 0.964675
0.256855 0.973114 0.988251
0.256855 0.973114 0.988251
0.256855 0.973114 0.988251
0.256855 0.973114 0.988251
0.256855 0.973114 0.988251
0.631678 0.960143 0.964965
0.8813 0.955215 0.963317
0.948211 0.948867 0.962615
0.961898 0.946715 0.96257
0.256855 0.973114 0.988251
0.256855 0.973114 0.988251
0.256855 0.973114 0.988251
0.256855 0.973114 0.988251
0.256855 0.973114 0.988251
0.600671 0.95819 0.964508
0.871138 0.963592 0.963623
0.939483 0.962966 0.962737
0.961913 0.96289 0.962615
