modules/camera-engine/ios/LUTs/panasonic-seaside-sunset.cube
TITLE "Generated by Resolve"
LUT_3D_SIZE 33
0.0802472 0.0737316 0.067689
0.0802472 0.0737316 0.067689
0.0802472 0.0737316 0.067689
0.0925307 0.073579 0.0675212
0.109834 0.0733501 0.0673075
0.132143 0.0747539 0.0672313
0.152544 0.0787213 0.0682841
0.180407 0.0840772 0.068986
0.215259 0.0925002 0.0693065
0.269261 0.103441 0.0713359
0.339849 0.11545 0.0698253
0.435401 0.125826 0.0696117
0.523629 0.13785 0.0749523
0.604242 0.147478 0.078294
0.681224 0.156634 0.0850843
0.742138 0.16257 0.0887007
0.801755 0.168872 0.0904707
0.841794 0.167956 0.090837
0.873732 0.167361 0.0925917
0.910933 0.168917 0.0941634
0.923171 0.169467 0.094377
0.923171 0.169467 0.094377
0.923171 0.169467 0.094377
0.923171 0.169467 0.094377
0.923171 0.169467 0.094377
0.923171 0.169467 0.094377
0.923171 0.169467 0.094377
0.923171 0.169467 0.094377
0.923171 0.169467 0.094377
0.923171 0.169467 0.094377
0.923171 0.169467 0.094377
0.923171 0.169467 0.094377
0.923171 0.169467 0.094377
0.0802472 0.0737316 0.067689
0.0802472 0.0737316 0.067689
0.0802472 0.0737316 0.067689
0.086305 0.0736553 0.0676127
0.103304 0.0734417 0.0673838
0.123598 0.0738384 0.0671244
0.144915 0.0772259 0.0678416
0.172015 0.0824598 0.0689555
0.207645 0.0905013 0.0691386
0.25893 0.101549 0.0708476
0.33077 0.114 0.0705425
0.425666 0.12491 0.0689555
0.517662 0.137179 0.0746929
0.59971 0.146883 0.0781567
0.677607 0.156222 0.0846876
0.739895 0.162341 0.0885939
0.799649 0.168673 0.0904707
0.841398 0.168093 0.0907301
0.872587 0.167315 0.092546
0.90988 0.168872 0.0941176
0.923171 0.169467 0.094377
0.923171 0.169467 0.094377
0.923171 0.169467 0.094377
0.923171 0.169467 0.094377
0.923171 0.169467 0.094377
0.923171 0.169467 0.094377
0.923171 0.169467 0.094377
0.923171 0.169467 0.094377
0.923171 0.169467 0.094377
0.923171 0.169467 0.094377
0.923171 0.169467 0.094377
0.923171 0.169467 0.094377
0.923171 0.169467 0.094377
0.0802472 0.0737316 0.067689
0.0802472 0.0737316 0.067689
0.0802472 0.0737316 0.067689
0.0803388 0.0737316 0.067689
0.0968185 0.073518 0.0674754
0.114519 0.0733959 0.067216
0.137423 0.0757458 0.0674601
0.163027 0.0807507 0.0688334
0.199603 0.0884108 0.068925
0.248112 0.0995651 0.0703746
0.321416 0.112505 0.0712596
0.415442 0.12401 0.0682841
0.511543 0.136492 0.0744182
0.595056 0.146273 0.0780041
0.673869 0.155764 0.0842451
0.737591 0.162127 0.0884565
0.797452 0.168444 0.0904402
0.841001 0.168231 0.0906081
0.871412 0.167269 0.0925002
0.908812 0.168826 0.0940719
0.923171 0.169467 0.094377
0.923171 0.169467 0.094377
0.923171 0.169467 0.094377
0.923171 0.169467 0.094377
0.923171 0.169467 0.094377
0.923171 0.169467 0.094377
0.923171 0.169467 0.094377
0.923171 0.169467 0.094377
0.923171 0.169467 0.094377
0.923171 0.169467 0.094377
0.923171 0.169467 0.094377
0.923171 0.169467 0.094377
0.923171 0.169467 0.094377
0.0802472 0.0737316 0.067689
0.0802472 0.0737316 0.067689
0.0802472 0.0737316 0.067689
0.0802472 0.0737316 0.067689
0.0903639 0.0736095 0.0675517
0.107546 0.0733806 0.0673381
0.129122 0.074403 0.0671855
0.154299 0.079057 0.0683909
0.191104 0.0863355 0.0688182
0.237232 0.0975052 0.0699626
0.311955 0.110964 0.0718395
0.404883 0.123064 0.0675364
0.504936 0.13547 0.074052
0.59028 0.145632 0.0778363
0.669886 0.155245 0.083772
0.735225 0.161868 0.088304
0.795163 0.16817 0.090425
0.840528 0.168353 0.0905013
0.870237 0.167254 0.0924544
0.907713 0.16878 0.0940261
0.923171 0.169467 0.094377
0.923171 0.169467 0.094377
0.923171 0.169467 0.094377
0.923171 0.169467 0.094377
0.923171 0.169467 0.094377
0.923171 0.169467 0.094377
0.923171 0.169467 0.094377
0.923171 0.169467 0.094377
0.923171 0.169467 0.094377
0.923171 0.169467 0.094377
0.923171 0.169467 0.094377
0.923171 0.169467 0.094377
0.923171 0.169467 0.094377
0.0801404 0.0845502 0.0675822
0.0801556 0.0830243 0.0675975
0.0801709 0.0814832 0.0676127
0.0801862 0.0799268 0.067628
0.0840314 0.0784161 0.0676738
0.100999 0.0767529 0.0675517
0.120073 0.0754101 0.067277
0.146181 0.0774701 0.0679026
0.182361 0.0844739 0.0690013
0.227893 0.0954604 0.0696422
0.302159 0.109377 0.0723735
0.393927 0.122072 0.0667277
0.498054 0.13434 0.0736706
0.585306 0.144961 0.0776379
0.665751 0.154757 0.0832837
0.732784 0.161578 0.0881361
0.792844 0.167895 0.0903944
0.840055 0.168475 0.0903792
0.869032 0.167224 0.0924086
0.9066 0.168734 0.0939803
0.923171 0.169467 0.094377
0.923171 0.169467 0.094377
0.923171 0.169467 0.094377
0.923171 0.169467 0.094377
0.923171 0.169467 0.094377
0.923171 0.169467 0.094377
0.923171 0.169467 0.094377
0.923171 0.169467 0.094377
0.923171 0.169467 0.094377
0.923171 0.169467 0.094377
0.923171 0.169467 0.094377
0.923171 0.169467 0.094377
0.923171 0.169467 0.094377
0.0800336 0.0969711 0.0674601
0.0800488 0.0953841 0.0674754
0.0800641 0.0937972 0.0674907
0.0800793 0.092195 0.0675059
0.0800946 0.0905623 0.0675212
0.0943923 0.0890516 0.0676432
0.112139 0.0874342 0.0675669
0.139452 0.0884413 0.0680095
0.174716 0.092668 0.0693675
0.220295 0.0999008 0.0697948
0.292653 0.109545 0.0724804
0.383185 0.121141 0.0663462
0.491081 0.133211 0.0732891
0.580346 0.144305 0.0774395
0.661601 0.154269 0.0828107
0.730343 0.161288 0.0879683
0.790509 0.167636 0.0903639
0.839567 0.168612 0.0902571
0.867842 0.167193 0.0923781
0.905501 0.168688 0.0939345
0.923171 0.169467 0.094377
0.923171 0.169467 0.094377
0.923171 0.169467 0.094377
0.923171 0.169467 0.094377
0.923171 0.169467 0.094377
0.923171 0.169467 0.094377
0.923171 0.169467 0.094377
0.923171 0.169467 0.094377
0.923171 0.169467 0.094377
0.923171 0.169467 0.094377
0.923171 0.169467 0.094377
0.923171 0.169467 0.094377
0.923171 0.169467 0.094377
0.0735027 0.102037 0.0551308
0.0748302 0.102129 0.0583352
0.0761578 0.102098 0.060853
0.0775464 0.102083 0.0634623
0.0786297 0.101656 0.0654002
0.0867933 0.100557 0.0661021
0.104448 0.099321 0.0667582
0.132189 0.0998245 0.0677501
0.166354 0.103624 0.0697185
0.212207 0.110399 0.0698558
0.28249 0.120348 0.0725567
0.373754 0.129 0.067277
0.484413 0.133242 0.0730602
0.575296 0.143648 0.0772412
0.657435 0.153765 0.0823377
0.727733 0.161028 0.0878309
0.788174 0.167361 0.0903334
0.839078 0.168734 0.090135
0.866636 0.167178 0.0923323
0.904387 0.168643 0.0938888
0.923171 0.169467 0.094377
0.923171 0.169467 0.094377
0.923171 0.169467 0.094377
0.923171 0.169467 0.094377
0.923171 0.169467 0.094377
0.923171 0.169467 0.094377
0.923171 0.169467 0.094377
0.923171 0.169467 0.094377
0.923171 0.169467 0.094377
0.923171 0.169467 0.094377
0.923171 0.169467 0.094377
0.923171 0.169467 0.094377
0.923171 0.169467 0.094377
0.0708476 0.114244 0.0389105
0.070573 0.112276 0.0387579
0.0702983 0.110277 0.0386053
0.0700236 0.108003 0.0384222
0.0697337 0.105638 0.0382239
0.0695354 0.103334 0.0380102
0.0861219 0.101396 0.0380407
0.112291 0.103059 0.0444038
0.147433 0.109483 0.0586557
0.197314 0.120394 0.066331
0.267918 0.134081 0.0718242
0.360861 0.144259 0.0681315
0.474403 0.148775 0.0732128
0.570031 0.150378 0.0775769
0.652399 0.15317 0.0817578
0.724544 0.160739 0.0876783
0.785336 0.167041 0.0902876
0.838346 0.168872 0.0899977
0.865156 0.167132 0.0922713
0.903044 0.168582 0.0938277
0.923171 0.169467 0.094377
0.923171 0.169467 0.094377
0.923171 0.169467 0.094377
0.923171 0.169467 0.094377
0.923171 0.169467 0.094377
0.923171 0.169467 0.094377
0.923171 0.169467 0.094377
0.923171 0.169467 0.094377
0.923171 0.169467 0.094377
0.923171 0.169467 0.094377
0.923171 0.169467 0.094377
0.923171 0.169467 0.094377
0.923171 0.169467 0.094377
0.0737774 0.139208 0.0428016
0.0735637 0.137148 0.0422065
0.0733349 0.135119 0.0417487
0.0730907 0.133089 0.0413367
0.0728466 0.130983 0.0409247
0.0726024 0.128878 0.0404974
0.0788281 0.127459 0.0401465
0.0997482 0.125673 0.0403601
0.133791 0.126085 0.047776
0.175311 0.129961 0.0530709
0.230655 0.140063 0.0603799
0.335119 0.153323 0.059556
0.456413 0.167559 0.0681621
0.566537 0.172824 0.0794842
0.648707 0.169589 0.0822614
0.720745 0.162066 0.0877241
0.781567 0.166598 0.0902419
0.835966 0.168933 0.0900435
0.863203 0.167102 0.0922103
0.901259 0.168505 0.0937514
0.923171 0.169467 0.094377
0.923171 0.169467 0.094377
0.923171 0.169467 0.094377
0.923171 0.169467 0.094377
0.923171 0.169467 0.094377
0.923171 0.169467 0.094377
0.923171 0.169467 0.094377
0.923171 0.169467 0.094377
0.923171 0.169467 0.094377
0.923171 0.169467 0.094377
0.923171 0.169467 0.094377
0.923171 0.169467 0.094377
0.923171 0.169467 0.094377
0.0774395 0.174685 0.0569772
0.0772412 0.172107 0.0552377
0.0770123 0.169635 0.0536965
0.0767376 0.167498 0.0527504
0.0764324 0.165331 0.0517739
0.0761425 0.163149 0.0508125
0.0758526 0.160967 0.049836
0.0889143 0.159716 0.0497749
0.114122 0.157183 0.0496681
0.169497 0.162753 0.0628214
0.21648 0.166842 0.0641337
0.308415 0.177951 0.0654307
0.422538 0.186435 0.0633707
0.54905 0.193881 0.0708782
0.652796 0.196078 0.0776379
0.720729 0.192187 0.0898299
0.778424 0.178897 0.0912947
0.832822 0.169024 0.0901198
0.860639 0.167041 0.0921187
0.898878 0.168399 0.0936446
0.923171 0.169467 0.094377
0.923171 0.169467 0.094377
0.923171 0.169467 0.094377
0.923171 0.169467 0.094377
0.923171 0.169467 0.094377
0.923171 0.169467 0.094377
0.923171 0.169467 0.094377
0.923171 0.169467 0.094377
0.923171 0.169467 0.094377
0.923171 0.169467 0.094377
0.923171 0.169467 0.094377
0.923171 0.169467 0.094377
0.923171 0.169467 0.094377
0.0789502 0.215854 0.0724346
0.0789654 0.213947 0.0720226
0.0789807 0.212024 0.0715953
0.0789807 0.21004 0.0711681
0.078996 0.208026 0.0707103
0.0789807 0.206256 0.0702831
0.0789654 0.204547 0.0697948
0.0789349 0.202411 0.0691844
0.101579 0.202976 0.0703288
0.136492 0.200763 0.0645609
0.219486 0.219181 0.0771038
0.297993 0.220615 0.073579
0.396429 0.220035 0.0719005
0.512032 0.221866 0.0729992
0.631907 0.223423 0.0784466
0.721904 0.221241 0.0838026
0.779599 0.211536 0.087068
0.831312 0.199969 0.0920424
0.858625 0.175982 0.0928054
0.895781 0.168276 0.0935073
0.923171 0.169467 0.094377
0.923171 0.169467 0.094377
0.923171 0.169467 0.094377
0.923171 0.169467 0.094377
0.923171 0.169467 0.094377
0.923171 0.169467 0.094377
0.923171 0.169467 0.094377
0.923171 0.169467 0.094377
0.923171 0.169467 0.094377
0.923171 0.169467 0.094377
0.923171 0.169467 0.094377
0.923171 0.169467 0.094377
0.923171 0.169467 0.094377
0.0792706 0.265202 0.0833753
0.0791943 0.263706 0.0830243
0.0791333 0.262196 0.0826581
0.079057 0.26067 0.0823072
0.0790112 0.259083 0.0819409
0.0789807 0.257465 0.0815747
0.0789502 0.255802 0.0812085
0.0789197 0.253803 0.080766
0.0788586 0.251164 0.0801709
0.114214 0.252247 0.0810407
0.15877 0.251545 0.0783093
0.292409 0.304082 0.0977493
0.378424 0.281956 0.0884718
0.486793 0.275639 0.0877241
0.596368 0.266941 0.0870985
0.701717 0.257603 0.0862745
0.777356 0.246845 0.08925
0.831617 0.237339 0.0904097
0.861006 0.218463 0.0893721
0.896269 0.203113 0.0954452
0.924544 0.182162 0.0953994
0.923171 0.169467 0.094377
0.923171 0.169467 0.094377
0.923171 0.169467 0.094377
0.923171 0.169467 0.094377
0.923171 0.169467 0.094377
0.923171 0.169467 0.094377
0.923171 0.169467 0.094377
0.923171 0.169467 0.094377
0.923171 0.169467 0.094377
0.923171 0.169467 0.094377
0.923171 0.169467 0.094377
0.923171 0.169467 0.094377
0.0799115 0.333532 0.100343
0.079942 0.331746 0.0999619
0.0799573 0.329946 0.0995651
0.0799878 0.328054 0.0991379
0.0800183 0.326223 0.0987411
0.0800488 0.324285 0.0982986
0.0800488 0.322438 0.0978866
0.0800793 0.320027 0.0973373
0.0801251 0.316258 0.096437
0.0851606 0.315114 0.0966049
0.129747 0.316258 0.0963912
0.198199 0.332815 0.0983291
0.372366 0.396185 0.118776
0.457816 0.35491 0.107759
0.565911 0.330831 0.102846
0.677592 0.310445 0.0994888
0.753307 0.287816 0.0933242
0.822843 0.273579 0.0930037
0.856855 0.26183 0.0924239
0.896147 0.247562 0.0919356
0.931701 0.233417 0.0922408
0.930236 0.216434 0.0918746
0.927016 0.203662 0.0962844
0.925124 0.186892 0.0956588
0.923705 0.173022 0.094789
0.923171 0.169467 0.094377
0.923171 0.169467 0.094377
0.923171 0.169467 0.094377
0.923171 0.169467 0.094377
0.923171 0.169467 0.094377
0.923171 0.169467 0.094377
0.923171 0.169467 0.094377
0.923171 0.169467 0.094377
0.0909743 0.405142 0.118776
0.0906386 0.403677 0.118395
0.0903029 0.402182 0.118013
0.0899672 0.400641 0.117617
0.0896162 0.3991 0.11722
0.0892653 0.397528 0.116823
0.0889143 0.395972 0.116426
0.0885023 0.394095 0.115953
0.0879377 0.391608 0.115312
0.0871901 0.388281 0.114458
0.103197 0.391699 0.116396
0.154513 0.385962 0.112291
0.238056 0.405966 0.115511
0.450767 0.473823 0.136202
0.53817 0.423636 0.126864
0.637736 0.389197 0.121736
0.732784 0.363775 0.115068
0.806699 0.332143 0.106493
0.852857 0.308858 0.0983597
0.89221 0.295232 0.0974289
0.929091 0.282124 0.0963455
0.935271 0.268757 0.0948806
0.933974 0.256443 0.0933852
0.932342 0.246509 0.0926223
0.932891 0.237888 0.0924544
0.932387 0.229206 0.0920119
0.931395 0.221073 0.0915084
0.929885 0.215656 0.0924392
0.929366 0.212757 0.0945907
0.93048 0.210666 0.0960555
0.928481 0.207263 0.0962081
0.927077 0.204654 0.0963302
0.92697 0.202838 0.0962539
0.105013 0.472969 0.134661
0.104768 0.471778 0.134356
0.104509 0.470558 0.134066
0.104265 0.469322 0.133776
0.104005 0.46804 0.133455
0.103746 0.466758 0.13315
0.103487 0.465522 0.13286
0.103197 0.464057 0.132509
0.102815 0.462196 0.132097
0.102327 0.459693 0.131548
0.101671 0.456397 0.130816
0.132616 0.45951 0.13286
0.184253 0.453346 0.126314
0.303304 0.49369 0.135576
0.525231 0.539162 0.151278
0.613474 0.494926 0.144213
0.699779 0.457511 0.143114
0.778683 0.424521 0.131319
0.84445 0.382956 0.117693
0.883787 0.358801 0.110063
0.922087 0.342245 0.107424
0.936721 0.327581 0.104021
0.936355 0.314443 0.101106
0.935836 0.303716 0.0993668
0.93547 0.295445 0.0982681
0.935622 0.288731 0.0972915
0.935958 0.283513 0.0966659
0.936126 0.279164 0.0961471
0.936019 0.275517 0.0957198
0.935882 0.272663 0.0953689
0.935531 0.270436 0.0950942
0.935271 0.268742 0.0948806
0.935058 0.26743 0.094728
0.117906 0.540413 0.14847
0.117723 0.539467 0.148287
0.117525 0.538476 0.148089
0.117311 0.537484 0.147906
0.117113 0.536477 0.147707
0.116915 0.535454 0.147524
0.116716 0.534447 0.147326
0.116472 0.533242 0.147112
0.116152 0.531594 0.146792
0.11574 0.529442 0.146395
0.115236 0.526772 0.145907
0.114748 0.523796 0.145388
0.166949 0.52903 0.146151
0.22121 0.520043 0.137423
0.378088 0.567117 0.148684
0.590539 0.611749 0.170596
0.680644 0.567315 0.161913
0.753445 0.527855 0.160433
0.822492 0.489982 0.15024
0.867201 0.462867 0.142168
0.908415 0.438193 0.136629
0.933577 0.415106 0.129625
0.934478 0.397482 0.123827
0.935134 0.384192 0.11899
0.935851 0.372976 0.115068
0.936217 0.363973 0.112886
0.936492 0.356588 0.111086
0.936568 0.351095 0.109606
0.936706 0.347158 0.108614
0.936828 0.344244 0.107912
0.93695 0.342016 0.107378
0.937026 0.340291 0.106966
0.937057 0.338994 0.106676
0.13019 0.605692 0.160571
0.130068 0.605127 0.16051
0.129931 0.604578 0.160464
0.129793 0.603998 0.160403
0.129671 0.603342 0.160327
0.12958 0.60267 0.16022
0.129473 0.601968 0.160113
0.129335 0.601129 0.159976
0.129168 0.600015 0.159808
0.128954 0.59855 0.159579
0.128557 0.596338 0.159167
0.127962 0.59324 0.158556
0.127199 0.589258 0.157778
0.200671 0.590585 0.154818
0.257847 0.583032 0.148318
0.460014 0.641123 0.161685
0.663783 0.668421 0.184939
0.741543 0.635523 0.174517
0.801282 0.596704 0.172259
0.854597 0.571008 0.168307
0.896941 0.548501 0.166033
0.934203 0.529061 0.161883
0.935943 0.514031 0.157656
0.935714 0.500526 0.153857
0.93521 0.488777 0.150591
0.934371 0.478935 0.147845
0.933791 0.470893 0.145632
0.933715 0.464637 0.143969
0.933623 0.459663 0.142626
0.933577 0.455863 0.141619
0.933654 0.452934 0.140871
0.933745 0.450752 0.140307
0.933715 0.448997 0.139834
0.141207 0.658183 0.166293
0.141161 0.657679 0.166262
0.141115 0.657145 0.166232
0.14107 0.656626 0.166201
0.141024 0.656092 0.166171
0.140978 0.655573 0.16614
0.140932 0.655039 0.16611
0.140871 0.654383 0.166064
0.140795 0.653544 0.166018
0.140688 0.65243 0.165957
0.140536 0.65095 0.165866
0.140337 0.649042 0.165759
0.140093 0.646601 0.165621
0.150225 0.644602 0.165942
0.234714 0.64947 0.16672
0.312139 0.648386 0.157305
0.563302 0.708141 0.178531
0.721309 0.723476 0.197879
0.791409 0.698116 0.188525
0.844327 0.669078 0.185824
0.889387 0.652735 0.18677
0.928267 0.636179 0.186633
0.940658 0.621881 0.184161
0.938781 0.611353 0.1823
0.937423 0.602152 0.180514
0.936187 0.594308 0.178882
0.935088 0.587579 0.177249
0.934325 0.582162 0.175875
0.933898 0.577981 0.174807
0.933898 0.574884 0.174014
0.933944 0.572488 0.173419
0.933974 0.570672 0.172961
0.934005 0.569345 0.172625
0.145403 0.704051 0.169543
0.145373 0.703639 0.169512
0.145342 0.703197 0.169482
0.145296 0.70277 0.169436
0.145266 0.702327 0.169406
0.14522 0.7019 0.169375
0.14519 0.701457 0.169345
0.145144 0.700923 0.169299
0.145083 0.700221 0.169253
0.145006 0.69929 0.169177
0.1449 0.69807 0.169085
0.144732 0.6963 0.168948
0.144533 0.694057 0.168765
0.144274 0.691188 0.168536
0.193957 0.690318 0.169787
0.270756 0.689357 0.169574
0.390845 0.708232 0.161074
0.645045 0.771908 0.196536
0.763485 0.770657 0.206607
0.834424 0.753216 0.197574
0.882063 0.742657 0.199954
0.923003 0.731365 0.201816
0.954299 0.720989 0.203235
0.951782 0.710857 0.201389
0.95021 0.702678 0.2
0.949554 0.696422 0.1991
0.94902 0.691371 0.198367
0.948791 0.687221 0.19765
0.948669 0.683894 0.197024
0.948562 0.681315 0.196521
0.948501 0.679347 0.196155
0.948409 0.677836 0.195865
0.948363 0.676677 0.195651
0.150057 0.743069 0.176989
0.150072 0.742779 0.177066
0.150088 0.742473 0.177157
0.150103 0.742168 0.177249
0.150118 0.741863 0.177325
0.150134 0.741558 0.177417
0.150149 0.741268 0.177493
0.150164 0.740887 0.177615
0.150195 0.740398 0.177752
0.15024 0.739757 0.177935
0.15024 0.738857 0.178103
0.150011 0.737362 0.177691
0.149691 0.735439 0.177157
0.14931 0.732982 0.176486
0.148806 0.729854 0.17557
0.236225 0.730953 0.175708
0.301823 0.730831 0.168902
0.488762 0.766308 0.16788
0.716258 0.819699 0.206409
0.807157 0.805478 0.207996
0.863386 0.800107 0.206668
0.909087 0.795911 0.207263
0.944839 0.790112 0.207691
0.956039 0.784497 0.207843
0.956008 0.780011 0.207553
0.955993 0.776318 0.20737
0.955962 0.773114 0.207248
0.95584 0.77026 0.207172
0.955764 0.768002 0.207111
0.955718 0.766217 0.207065
0.955688 0.764858 0.207034
0.955673 0.763806 0.207019
0.955642 0.763012 0.206989
0.150896 0.771389 0.174731
0.150881 0.771099 0.174731
0.150851 0.770825 0.174716
0.150835 0.770535 0.174701
0.15082 0.770245 0.174685
0.15079 0.76994 0.17467
0.150774 0.76965 0.174655
0.150744 0.769299 0.17464
0.150713 0.768841 0.174624
0.150668 0.768215 0.174578
0.150607 0.767407 0.174548
0.150515 0.766354 0.174502
0.150423 0.765011 0.174441
0.150301 0.763317 0.17435
0.150134 0.761212 0.174258
0.182864 0.760464 0.175113
0.278294 0.763699 0.177493
0.345907 0.761837 0.165179
0.610941 0.828748 0.188968
0.780911 0.859815 0.220462
0.843885 0.842634 0.214405
0.887922 0.840009 0.213947
0.928161 0.837263 0.214969
0.954681 0.833188 0.215351
0.954711 0.829114 0.214588
0.954757 0.825711 0.213977
0.954818 0.823011 0.213504
0.955077 0.821042 0.213291
0.955322 0.819501 0.213153
0.955505 0.818326 0.213046
0.955657 0.817411 0.21297
0.955764 0.816724 0.212909
0.955856 0.816205 0.212863
0.152758 0.797223 0.176028
0.152743 0.796948 0.175982
0.152728 0.796689 0.175982
0.152712 0.796414 0.175967
0.152697 0.796139 0.175952
0.152667 0.795865 0.175937
0.152651 0.79559 0.175921
0.152621 0.795254 0.175906
0.15259 0.794812 0.175875
0.152544 0.794217 0.175845
0.152499 0.793454 0.175799
0.152422 0.792462 0.175753
0.152316 0.791196 0.175677
0.152209 0.789593 0.175601
0.152056 0.78761 0.175494
0.151888 0.785214 0.175372
0.244434 0.784207 0.178241
0.314153 0.786755 0.173312
0.516014 0.829633 0.173266
0.732509 0.880476 0.213092
0.820752 0.876509 0.220462
0.864546 0.87129 0.217182
0.908156 0.870024 0.218997
0.941039 0.868742 0.220325
0.951553 0.866545 0.22063
0.951568 0.864302 0.220432
0.951659 0.862531 0.220249
0.95172 0.861128 0.220096
0.951766 0.860044 0.219974
0.951812 0.85919 0.219883
0.951843 0.858549 0.219806
0.951873 0.858061 0.21976
0.951919 0.857633 0.219684
0.154055 0.82063 0.17882
0.15404 0.820356 0.17879
0.154009 0.820081 0.178744
0.153994 0.819791 0.178714
0.153979 0.819516 0.178683
0.153964 0.819211 0.178637
0.153948 0.818936 0.178592
0.153918 0.818586 0.178546
0.153903 0.818128 0.178485
0.153857 0.817533 0.178408
0.153811 0.816739 0.178302
0.15375 0.815702 0.178164
0.153658 0.814389 0.177981
0.153552 0.812726 0.177752
0.153429 0.810666 0.177478
0.153292 0.808301 0.177203
0.203113 0.808392 0.178836
0.293568 0.809094 0.179843
0.400122 0.820035 0.166415
0.675639 0.891844 0.204837
0.798901 0.906828 0.225467
0.845991 0.895232 0.217823
0.889815 0.895079 0.22031
0.925856 0.894377 0.221927
0.951156 0.89366 0.222965
0.951263 0.891569 0.222782
0.951339 0.88986 0.222629
0.951339 0.888487 0.222522
0.951354 0.887419 0.222431
0.95137 0.886595 0.222354
0.95137 0.885969 0.222309
0.95137 0.885481 0.222263
0.95137 0.885115 0.222232
0.154665 0.831159 0.180102
0.154665 0.831159 0.180102
0.154665 0.831159 0.180102
0.154665 0.831159 0.180102
0.154665 0.831159 0.180102
0.154665 0.831159 0.180102
0.154665 0.831159 0.180102
0.154665 0.831159 0.180102
0.154665 0.831159 0.180102
0.154665 0.831159 0.180102
0.154665 0.831159 0.180102
0.154665 0.831159 0.180102
0.154665 0.831159 0.180102
0.154665 0.831159 0.180102
0.154665 0.831159 0.180102
0.154528 0.828901 0.179843
0.154391 0.826246 0.179538
0.271504 0.830381 0.183261
0.344671 0.82681 0.171603
0.611048 0.896544 0.195026
0.777478 0.930861 0.226352
0.835325 0.915953 0.221393
0.873625 0.914961 0.220691
0.911299 0.915068 0.223117
0.939681 0.914961 0.22446
0.950011 0.913771 0.224781
0.950118 0.912169 0.224628
0.95021 0.910918 0.224506
0.950271 0.909926 0.224414
0.950317 0.909163 0.224353
0.950362 0.908583 0.224292
0.950378 0.908156 0.224262
0.950408 0.90782 0.224231
0.154665 0.831159 0.180102
0.154665 0.831159 0.180102
0.154665 0.831159 0.180102
0.154665 0.831159 0.180102
0.154665 0.831159 0.180102
0.154665 0.831159 0.180102
0.154665 0.831159 0.180102
0.154665 0.831159 0.180102
0.154665 0.831159 0.180102
0.154665 0.831159 0.180102
0.154665 0.831159 0.180102
0.154665 0.831159 0.180102
0.154665 0.831159 0.180102
0.154665 0.831159 0.180102
0.154665 0.831159 0.180102
0.154665 0.831159 0.180102
0.154665 0.831159 0.180102
0.249378 0.834318 0.18349
0.322713 0.836332 0.174838
0.546548 0.892317 0.184131
0.751827 0.943343 0.222599
0.823026 0.935073 0.225299
0.861326 0.931319 0.221653
0.899626 0.931441 0.224063
0.929198 0.93138 0.225971
0.949981 0.93106 0.226978
0.949828 0.929488 0.226734
0.949722 0.928252 0.226535
0.949676 0.927306 0.226398
0.949676 0.926604 0.226307
0.949691 0.92607 0.22623
0.949691 0.925673 0.226184
0.949706 0.925368 0.226154
0.154665 0.831159 0.180102
0.154665 0.831159 0.180102
0.154665 0.831159 0.180102
0.154665 0.831159 0.180102
0.154665 0.831159 0.180102
0.154665 0.831159 0.180102
0.154665 0.831159 0.180102
0.154665 0.831159 0.180102
0.154665 0.831159 0.180102
0.154665 0.831159 0.180102
0.154665 0.831159 0.180102
0.154665 0.831159 0.180102
0.154665 0.831159 0.180102
0.154665 0.831159 0.180102
0.154665 0.831159 0.180102
0.154665 0.831159 0.180102
0.154665 0.831159 0.180102
0.225269 0.834485 0.182391
0.310475 0.837125 0.178408
0.485695 0.875944 0.17438
0.72105 0.937179 0.216342
0.811337 0.942611 0.227543
0.850599 0.937835 0.221698
0.889845 0.940719 0.22443
0.920745 0.943008 0.226673
0.943755 0.944762 0.228443
0.950683 0.943893 0.228779
0.950729 0.942779 0.228672
0.950744 0.941909 0.22858
0.950744 0.941222 0.228504
0.950759 0.940719 0.228458
0.950759 0.940322 0.228412
0.950729 0.940002 0.228367
0.154665 0.831159 0.180102
0.154665 0.831159 0.180102
0.154665 0.831159 0.180102
0.154665 0.831159 0.180102
0.154665 0.831159 0.180102
0.154665 0.831159 0.180102
0.154665 0.831159 0.180102
0.154665 0.831159 0.180102
0.154665 0.831159 0.180102
0.154665 0.831159 0.180102
0.154665 0.831159 0.180102
0.154665 0.831159 0.180102
0.154665 0.831159 0.180102
0.154665 0.831159 0.180102
0.154665 0.831159 0.180102
0.154665 0.831159 0.180102
0.154665 0.831159 0.180102
0.200565 0.833768 0.181857
0.298466 0.837415 0.18085
0.428748 0.858671 0.169284
