modules/camera-engine/ios/LUTs/panasonic-food-film.cube
TITLE "Generated by Resolve"
LUT_3D_SIZE 9
0.0841993 0.0840009 0.0777905
0.0902724 0.0843519 0.0781415
0.231434 0.103532 0.0713512
0.530907 0.14107 0.0990311
0.728817 0.168658 0.126299
0.846326 0.189364 0.140764
0.871092 0.195514 0.145129
0.871092 0.195514 0.145129
0.871092 0.195514 0.145129
0.0843214 0.0873426 0.0779278
0.0856947 0.0858015 0.077821
0.201297 0.102068 0.0771649
0.520516 0.139452 0.0973678
0.725658 0.168383 0.126009
0.844785 0.188998 0.140414
0.871092 0.195514 0.145129
0.871092 0.195514 0.145129
0.871092 0.195514 0.145129
0.0817426 0.182803 0.0986801
0.0818341 0.173236 0.0963302
0.128573 0.148486 0.0851911
0.450065 0.163424 0.0897688
0.710643 0.171923 0.123461
0.842878 0.188556 0.140002
0.871092 0.195514 0.145129
0.871092 0.195514 0.145129
0.871092 0.195514 0.145129
0.121157 0.442817 0.190448
0.120287 0.439673 0.189212
0.123369 0.43093 0.18497
0.350683 0.415763 0.128664
0.655741 0.357137 0.149844
0.821103 0.287144 0.149935
0.859937 0.240467 0.145663
0.859068 0.221744 0.142153
0.858946 0.216358 0.141512
0.163836 0.607156 0.242802
0.163638 0.606256 0.242542
0.163409 0.605173 0.242222
0.19556 0.593927 0.214832
0.575418 0.61004 0.181704
0.782834 0.585626 0.210376
0.851453 0.555505 0.215061
0.851606 0.545815 0.213336
0.851652 0.542245 0.212696
0.186648 0.714046 0.270405
0.186542 0.713497 0.270359
0.186419 0.712825 0.270283
0.186084 0.711025 0.2701
0.42298 0.718563 0.197818
0.723903 0.745953 0.219699
0.843214 0.745525 0.232197
0.84303 0.741192 0.231769
0.843 0.739651 0.231647
0.207401 0.772656 0.265003
0.207401 0.772656 0.265003
0.207401 0.772656 0.265003
0.207401 0.772656 0.265003
0.344457 0.776089 0.217655
0.679805 0.8168 0.23476
0.82295 0.831144 0.25069
0.841886 0.830488 0.252216
0.841886 0.829328 0.251972
0.207401 0.772656 0.265003
0.207401 0.772656 0.265003
0.207401 0.772656 0.265003
0.207401 0.772656 0.265003
0.300526 0.770626 0.222705
0.660883 0.818616 0.234104
0.809689 0.839918 0.251972
0.841703 0.844907 0.255467
0.841703 0.844907 0.255467
0.207401 0.772656 0.265003
0.207401 0.772656 0.265003
0.207401 0.772656 0.265003
0.207401 0.772656 0.265003
0.285725 0.768643 0.226688
0.653788 0.817746 0.233341
0.80528 0.839216 0.251499
0.841703 0.844907 0.255467
0.841703 0.844907 0.255467
0.0842298 0.0840467 0.078706
0.0885939 0.0842451 0.0788434
0.217929 0.102892 0.0750591
0.526665 0.140368 0.0988785
0.727626 0.168551 0.126253
0.845762 0.189227 0.140642
0.871092 0.195514 0.145129
0.871092 0.195514 0.145129
0.871092 0.195514 0.145129
0.0842451 0.0854353 0.0778973
0.0841993 0.0840009 0.0777905
0.189899 0.101152 0.0782788
0.517296 0.138949 0.0968643
0.724498 0.168276 0.125902
0.844205 0.188861 0.140291
0.871092 0.195514 0.145129
0.871092 0.195514 0.145129
0.871092 0.195514 0.145129
0.0818494 0.170504 0.0956741
0.0816663 0.160403 0.0930953
0.122896 0.138384 0.083238
0.445274 0.156664 0.0885328
0.713924 0.169818 0.124117
0.842298 0.188418 0.139864
0.871092 0.195514 0.145129
0.871092 0.195514 0.145129
0.871092 0.195514 0.145129
0.120058 0.438804 0.188861
0.119173 0.435615 0.187594
0.121309 0.428382 0.184222
0.347127 0.411124 0.127489
0.655436 0.350683 0.148043
0.821027 0.28098 0.148836
0.860121 0.235737 0.144747
0.858717 0.217624 0.141588
0.859495 0.213306 0.141344
0.163592 0.606012 0.242466
0.163394 0.605127 0.242206
0.163165 0.604013 0.241886
0.192721 0.592401 0.216419
0.573861 0.608194 0.181186
0.782269 0.583474 0.209934
0.851484 0.553079 0.214633
0.851621 0.543297 0.212894
0.851698 0.539666 0.212253
0.186511 0.713344 0.270344
0.186404 0.712795 0.270283
0.186282 0.712123 0.270207
0.185962 0.710307 0.269993
0.419989 0.717357 0.197574
0.722835 0.744823 0.219455
0.843183 0.744427 0.23209
0.843 0.740108 0.231678
0.842969 0.738476 0.231586
0.207401 0.772656 0.265003
0.207401 0.772656 0.265003
0.207401 0.772656 0.265003
0.207401 0.772656 0.265003
0.341497 0.775708 0.217929
0.678599 0.815946 0.234455
0.822217 0.830289 0.250431
0.841886 0.829648 0.252033
0.841856 0.828489 0.251774
0.207401 0.772656 0.265003
0.207401 0.772656 0.265003
0.207401 0.772656 0.265003
0.207401 0.772656 0.265003
0.297246 0.770245 0.223178
0.659434 0.818448 0.233951
0.808804 0.839765 0.251881
0.841703 0.844907 0.255467
0.841703 0.844907 0.255467
0.207401 0.772656 0.265003
0.207401 0.772656 0.265003
0.207401 0.772656 0.265003
0.207401 0.772656 0.265003
0.283467 0.768154 0.228367
0.652338 0.817563 0.233188
0.804379 0.839063 0.251408
0.841703 0.844907 0.255467
0.841703 0.844907 0.255467
0.0937667 0.0935836 0.150088
0.0959029 0.0934462 0.149386
0.210468 0.10753 0.191989
0.518242 0.139605 0.1561
0.725597 0.168505 0.15021
0.84419 0.188617 0.159548
0.868544 0.195529 0.162341
0.868589 0.195438 0.161776
0.868589 0.195407 0.161547
0.0933547 0.0932174 0.14609
0.0933394 0.0932021 0.1458
0.180255 0.104387 0.185428
0.50634 0.137331 0.14995
0.722789 0.16817 0.147143
0.842863 0.187991 0.157733
0.86865 0.195285 0.160723
0.868681 0.195209 0.160143
0.868696 0.195178 0.159915
0.0918593 0.153628 0.140337
0.0916304 0.146136 0.139391
0.113497 0.129244 0.127214
0.450614 0.144823 0.107424
0.717739 0.167575 0.144579
0.841215 0.187274 0.155596
0.868788 0.194995 0.158694
0.868833 0.194903 0.158068
0.868833 0.194873 0.157855
0.124544 0.445014 0.211643
0.124239 0.443259 0.211139
0.121416 0.427543 0.203647
0.335164 0.398474 0.142016
0.653269 0.333913 0.157214
0.81706 0.264561 0.156222
0.853819 0.221546 0.151492
0.855222 0.20943 0.150454
0.858198 0.205509 0.150958
0.16257 0.60354 0.248783
0.162387 0.602579 0.248447
0.162158 0.601373 0.248005
0.18706 0.588464 0.226093
0.568612 0.602075 0.18555
0.777905 0.576059 0.212757
0.848554 0.545342 0.217075
0.848569 0.535393 0.214969
0.847913 0.531136 0.213931
0.186358 0.712505 0.270253
0.186252 0.71194 0.270191
0.18613 0.711284 0.27013
0.185794 0.709407 0.26978
0.416297 0.715923 0.197345
0.721447 0.743465 0.21912
0.843137 0.743069 0.231968
0.842969 0.738735 0.231601
0.842939 0.737102 0.231525
0.207401 0.772656 0.265003
0.207401 0.772656 0.265003
0.207401 0.772656 0.265003
0.207401 0.772656 0.265003
0.337758 0.775219 0.218311
0.677104 0.814878 0.234089
0.821302 0.829221 0.250095
0.841901 0.828672 0.25182
0.841856 0.827512 0.251575
0.207401 0.772656 0.265003
0.207401 0.772656 0.265003
0.207401 0.772656 0.265003
0.207401 0.772656 0.265003
0.293233 0.769802 0.223743
0.657694 0.818219 0.233768
0.807721 0.839597 0.251759
0.841703 0.844907 0.255467
0.841703 0.844907 0.255467
0.207401 0.772656 0.265003
0.207401 0.772656 0.265003
0.207401 0.772656 0.265003
0.207401 0.772656 0.265003
0.280674 0.767529 0.230442
0.650584 0.817365 0.233005
0.803311 0.838895 0.251286
0.841703 0.844907 0.255467
0.841703 0.844907 0.255467
0.107836 0.159777 0.481041
0.10782 0.159747 0.480873
0.190051 0.17023 0.49749
0.504982 0.164935 0.456077
0.725536 0.182147 0.389624
0.843687 0.199268 0.359518
0.875395 0.212787 0.357733
0.87541 0.212757 0.356695
0.87541 0.212741 0.356359
0.107439 0.159152 0.478294
0.107408 0.159091 0.47808
0.16463 0.167666 0.493736
0.496986 0.164324 0.457145
0.722179 0.181491 0.386587
0.841825 0.198322 0.356344
0.87541 0.212696 0.354879
0.87541 0.21265 0.353857
0.87541 0.212634 0.353506
0.104799 0.178408 0.462745
0.105318 0.172763 0.463874
0.124498 0.156207 0.428611
0.439704 0.159869 0.41912
0.717723 0.180591 0.383017
0.839704 0.197452 0.352087
0.87541 0.212558 0.351354
0.87541 0.212528 0.350317
0.87541 0.212512 0.349966
0.140002 0.445914 0.453117
0.138323 0.44062 0.452323
0.136278 0.434119 0.451301
0.355123 0.393896 0.399893
0.655879 0.308721 0.302007
0.813306 0.239506 0.271321
0.85272 0.211688 0.258274
0.859724 0.209018 0.281437
0.863355 0.208606 0.29015
0.174868 0.610956 0.377386
0.174762 0.609735 0.377142
0.174655 0.608255 0.376867
0.189395 0.594324 0.346838
0.577996 0.59762 0.258518
0.773938 0.56025 0.249516
0.844053 0.532204 0.24593
0.843412 0.519432 0.243687
0.843748 0.515236 0.242878
0.222278 0.723827 0.326833
0.222171 0.723278 0.326818
0.222065 0.722606 0.326711
0.221759 0.72076 0.326467
0.426841 0.713954 0.239994
0.716915 0.737545 0.250111
0.832914 0.733303 0.259754
0.834409 0.729625 0.259602
0.834562 0.728222 0.25948
0.244633 0.780118 0.299382
0.24445 0.780072 0.299275
0.244251 0.780026 0.299153
0.243732 0.779934 0.298817
0.31545 0.766445 0.248676
0.65977 0.806409 0.256519
0.808042 0.820829 0.272206
0.8318 0.819409 0.273777
0.831769 0.818357 0.273472
0.232578 0.7776 0.29221
0.232395 0.777554 0.292119
0.232197 0.777523 0.291981
0.231662 0.777401 0.291676
0.276478 0.763638 0.259953
0.640528 0.812604 0.2542
0.798535 0.832319 0.273823
0.834714 0.836149 0.275853
0.834775 0.836179 0.275807
0.228305 0.776638 0.289769
0.228138 0.776608 0.289662
0.227909 0.776547 0.28954
0.227359 0.77644 0.289219
0.260105 0.760983 0.26772
0.633844 0.811612 0.252689
0.794003 0.831724 0.272694
0.835004 0.836225 0.274998
0.835004 0.836225 0.274937
0.195178 0.247868 0.682231
0.195209 0.247837 0.682185
0.176211 0.250523 0.687236
0.437949 0.23769 0.645045
0.709621 0.229465 0.615244
0.84538 0.244221 0.60412
0.882948 0.263584 0.613306
0.882902 0.263401 0.613001
0.882887 0.26334 0.612894
0.19559 0.247272 0.681376
0.195621 0.247242 0.681331
0.194614 0.245701 0.680247
0.423163 0.238392 0.647044
0.705516 0.229328 0.615106
0.843503 0.243259 0.603387
0.882841 0.263066 0.612436
0.882795 0.262882 0.612131
0.88278 0.262806 0.612024
0.196078 0.246571 0.680369
0.196124 0.246494 0.680278
0.196139 0.246464 0.680217
0.404318 0.239307 0.649622
0.70045 0.229129 0.614939
0.841215 0.242008 0.602335
0.882689 0.26244 0.611429
0.882658 0.262257 0.611124
0.882643 0.262165 0.610971
0.214908 0.426032 0.687358
0.213733 0.421225 0.687022
0.21239 0.415274 0.686427
0.29456 0.365652 0.659892
0.651728 0.284504 0.59855
0.811292 0.234958 0.566384
0.877699 0.254429 0.598398
0.882322 0.260319 0.607736
0.882322 0.260227 0.607584
0.248753 0.64358 0.666865
0.248753 0.642557 0.66746
0.248753 0.641291 0.668177
0.239139 0.630381 0.663615
0.59266 0.600488 0.600122
0.777951 0.551476 0.550988
0.849363 0.51191 0.536263
0.850797 0.498955 0.536187
0.851347 0.494072 0.536202
0.271031 0.747433 0.6159
0.270832 0.746944 0.616175
0.270573 0.746319 0.61651
0.269886 0.744686 0.617365
0.454292 0.728008 0.547219
0.740932 0.734066 0.520745
0.832792 0.721553 0.497429
0.839002 0.716121 0.496605
0.839094 0.714443 0.496712
0.28777 0.808347 0.565393
0.287114 0.807767 0.565072
0.286107 0.806867 0.564569
0.283467 0.804486 0.563363
0.325612 0.780941 0.508782
0.708293 0.807645 0.480339
0.821836 0.810117 0.467262
0.844419 0.805539 0.460014
0.844388 0.804395 0.460121
0.283024 0.806394 0.555978
0.282963 0.806363 0.555886
0.282872 0.806332 0.555688
0.282612 0.806226 0.555184
0.283772 0.782254 0.506325
0.684764 0.817838 0.455512
0.811032 0.829816 0.448081
0.846281 0.831006 0.444083
0.846281 0.831006 0.443854
0.28127 0.805661 0.552529
0.281178 0.805615 0.552331
0.281132 0.8056 0.552224
0.280888 0.805493 0.551705
0.276234 0.782712 0.510262
0.67776 0.816846 0.451804
0.807431 0.829709 0.445518
0.846433 0.831052 0.440284
0.846448 0.831052 0.440055
0.205234 0.333761 0.78555
0.205203 0.333715 0.785519
0.205203 0.333715 0.785504
0.380407 0.330114 0.764096
0.681727 0.310887 0.732891
0.843153 0.328557 0.739727
0.891569 0.338399 0.739696
0.891539 0.338247 0.739498
0.891539 0.33817 0.739406
0.204868 0.333257 0.785092
0.204837 0.333211 0.785061
0.204837 0.333211 0.785046
0.363622 0.329747 0.76556
0.677165 0.310277 0.732357
0.841169 0.327871 0.7393
0.891508 0.337972 0.739147
0.891493 0.337819 0.738949
0.891493 0.337774 0.738888
0.204456 0.332677 0.784558
0.204425 0.332631 0.784512
0.204379 0.332586 0.784482
0.343633 0.329351 0.767361
0.671443 0.30959 0.731746
0.838834 0.327199 0.73875
0.891447 0.337469 0.738491
0.891432 0.337316 0.738293
0.891417 0.337255 0.738231
0.19263 0.364309 0.777813
0.191043 0.359152 0.777096
0.189044 0.352651 0.776181
0.23476 0.330678 0.765728
0.623606 0.297566 0.717708
0.83238 0.325567 0.737408
0.891264 0.33608 0.736721
0.891249 0.335927 0.736522
0.891249 0.335882 0.736477
0.298909 0.65127 0.828321
0.298634 0.649958 0.828351
0.298299 0.648371 0.828397
0.297337 0.643977 0.828443
0.566217 0.593912 0.761013
0.771466 0.536278 0.730068
0.855955 0.495171 0.715175
0.855833 0.48217 0.713924
0.855756 0.477333 0.713451
0.327962 0.775631 0.81619
0.327749 0.775036 0.816144
0.327504 0.774319 0.816098
0.326802 0.772351 0.815946
0.470207 0.752483 0.772229
0.747021 0.73843 0.744503
0.842954 0.726467 0.73431
0.85655 0.720607 0.730877
0.856779 0.718944 0.730785
0.341619 0.831708 0.788785
0.341283 0.831174 0.7888
0.340902 0.830518 0.788846
0.339818 0.828733 0.788968
0.357031 0.803571 0.763302
0.708309 0.809079 0.728923
0.820294 0.807111 0.724468
0.849088 0.800488 0.718257
0.849058 0.79942 0.718334
0.345754 0.839597 0.784833
0.345739 0.839582 0.784772
0.345708 0.839567 0.78471
0.345663 0.839536 0.784588
0.347112 0.817975 0.762676
0.689448 0.830381 0.718929
0.810941 0.833356 0.719081
0.850919 0.836683 0.713283
0.85127 0.836606 0.713039
0.345251 0.839323 0.783642
0.345235 0.839307 0.783581
0.345205 0.839292 0.78352
0.345129 0.839261 0.783352
0.343679 0.819348 0.762966
0.681849 0.830045 0.717388
0.807736 0.83331 0.718517
0.847837 0.836332 0.712489
0.851148 0.836545 0.711788
0.273732 0.415869 0.848341
0.273671 0.415808 0.84831
0.27361 0.415747 0.848264
0.346258 0.408499 0.832212
0.659907 0.399725 0.806546
0.827787 0.414313 0.811902
0.890944 0.42504 0.819211
0.890929 0.424842 0.819059
0.890929 0.424781 0.819013
0.273136 0.415274 0.84799
0.273075 0.415213 0.847959
0.273014 0.415137 0.847929
0.331273 0.407568 0.833967
0.65539 0.399359 0.806241
0.825513 0.41352 0.811353
0.890944 0.424536 0.818799
0.890944 0.424338 0.818647
0.890944 0.424277 0.818601
0.272404 0.414542 0.847578
0.272343 0.414481 0.847547
0.272343 0.414481 0.847532
0.314549 0.408423 0.836942
0.649821 0.398886 0.805844
0.822736 0.412451 0.810636
0.890959 0.423911 0.81828
0.890974 0.423651 0.818097
0.890974 0.42359 0.818036
0.246784 0.404929 0.837278
0.247593 0.403113 0.837018
0.248371 0.400626 0.836728
0.252613 0.393759 0.835904
0.629618 0.396368 0.80415
0.815137 0.409537 0.808743
0.891005 0.422156 0.816846
0.89102 0.421912 0.816663
0.89102 0.421836 0.816602
0.339101 0.656519 0.885405
0.338827 0.655238 0.885237
0.338598 0.653758 0.885115
0.337942 0.649729 0.884764
0.542535 0.589334 0.82565
0.757748 0.528496 0.797055
0.851881 0.495628 0.789654
0.852293 0.4813 0.78732
0.852522 0.476158 0.786511
0.373724 0.790158 0.888594
0.37348 0.789532 0.888533
0.373129 0.788724 0.888441
0.372213 0.786542 0.888197
0.454948 0.761563 0.858259
0.745388 0.744778 0.829374
0.839307 0.724239 0.817029
0.860624 0.718349 0.81474
0.860716 0.716823 0.814679
0.393408 0.849454 0.876219
0.392981 0.848951 0.876341
0.392447 0.848371 0.876448
0.391867 0.846738 0.876921
0.398596 0.826856 0.869459
0.719615 0.818631 0.826749
0.822553 0.811444 0.821042
0.855741 0.802945 0.813855
0.855741 0.801923 0.81387
0.403494 0.862516 0.870939
0.403494 0.862516 0.870939
0.403449 0.862516 0.870893
0.403372 0.862486 0.870802
0.393362 0.848493 0.859312
0.691722 0.841352 0.817273
0.812284 0.840085 0.816587
0.849348 0.838651 0.813565
0.855283 0.837522 0.812619
0.402899 0.862348 0.870222
0.402869 0.862348 0.870176
0.402823 0.862333 0.87013
0.402747 0.862303 0.870039
0.393484 0.852369 0.861891
0.684016 0.841047 0.816602
0.809522 0.842802 0.816205
0.846845 0.843717 0.812619
0.854902 0.844572 0.812024
0.310536 0.454078 0.870588
0.310536 0.454078 0.870588
0.310536 0.454078 0.870588
0.347845 0.450568 0.862242
0.658595 0.438941 0.833631
0.827802 0.455177 0.840375
0.890394 0.467613 0.846937
0.890394 0.467613 0.846937
0.890394 0.467613 0.846937
0.310536 0.454078 0.870588
0.310536 0.454078 0.870588
0.310536 0.454078 0.870588
0.333288 0.450477 0.864347
0.654169 0.439246 0.833692
0.825483 0.454734 0.840253
0.890394 0.467613 0.846937
0.890394 0.467613 0.846937
0.890394 0.467613 0.846937
0.310536 0.454078 0.870588
0.310536 0.454078 0.870588
0.310536 0.454078 0.870588
0.314168 0.450355 0.867231
0.647715 0.439536 0.833524
0.822644 0.4542 0.840085
0.890394 0.467613 0.846937
0.890394 0.467613 0.846937
0.890394 0.467613 0.846937
0.298512 0.444923 0.864775
0.302327 0.447227 0.866346
0.307897 0.451057 0.868742
0.288838 0.451835 0.873152
0.628855 0.440269 0.832883
0.814832 0.452705 0.839612
0.890394 0.467613 0.846937
0.890394 0.467613 0.846937
0.890394 0.467613 0.846937
0.363912 0.665476 0.906523
0.363561 0.664073 0.906249
0.363088 0.662287 0.905913
0.361074 0.656413 0.904662
0.524697 0.585946 0.847837
0.749294 0.525246 0.820371
0.8486 0.496498 0.816648
0.850889 0.483131 0.814298
0.85066 0.478172 0.81326
0.397986 0.794156 0.911955
0.397711 0.793561 0.911925
0.397406 0.792767 0.911849
0.39646 0.790494 0.911543
0.435737 0.762066 0.887678
0.741146 0.749126 0.861112
0.835248 0.728573 0.849805
0.857023 0.721691 0.848569
0.856977 0.719768 0.848188
0.421836 0.854994 0.907774
0.421637 0.854551 0.907805
0.421363 0.854017 0.90782
0.420661 0.852552 0.907881
0.416754 0.831388 0.895644
0.722362 0.823026 0.862959
0.820996 0.81294 0.853956
0.858381 0.806363 0.853315
0.859602 0.805173 0.853056
0.434623 0.870283 0.903868
0.434577 0.870268 0.903822
0.434516 0.870253 0.903777
0.43447 0.870253 0.903716
0.421622 0.860258 0.896345
0.702663 0.850675 0.859388
0.814679 0.846387 0.854765
0.852201 0.840223 0.852888
0.860746 0.838437 0.851255
0.433814 0.870115 0.903181
0.433814 0.870115 0.903181
0.433768 0.8701 0.903136
0.433661 0.870085 0.903044
0.427817 0.866606 0.90045
0.695125 0.850965 0.858579
0.812314 0.85185 0.854719
0.850034 0.848859 0.852277
0.860517 0.849317 0.851118
0.310536 0.454078 0.870588
0.310536 0.454078 0.870588
0.310536 0.454078 0.870588
0.338338 0.450538 0.86363
0.655665 0.43917 0.833677
0.826261 0.454856 0.840284
0.890394 0.467613 0.846937
0.890394 0.467613 0.846937
0.890394 0.467613 0.846937
0.310536 0.454078 0.870588
0.310536 0.454078 0.870588
0.310536 0.454078 0.870588
0.322789 0.450477 0.865934
0.650828 0.439399 0.833616
0.823941 0.454414 0.840146
0.890394 0.467613 0.846937
0.890394 0.467613 0.846937
0.890394 0.467613 0.846937
0.310536 0.454078 0.870588
0.310536 0.454078 0.870588
0.310536 0.454078 0.870588
0.307836 0.449989 0.868208
0.644022 0.439658 0.833402
0.821103 0.453895 0.839979
0.890394 0.467613 0.846937
0.890394 0.467613 0.846937
0.890394 0.467613 0.846937
0.3084 0.451438 0.868971
0.310536 0.454078 0.870588
0.310536 0.454078 0.870588
0.309285 0.45095 0.869627
0.624994 0.440436 0.832746
0.81323 0.452461 0.839551
0.890394 0.467613 0.846937
0.890394 0.467613 0.846937
0.890394 0.467613 0.846937
0.363043 0.662135 0.905882
0.362432 0.660334 0.905501
0.361669 0.658167 0.905028
0.359655 0.652216 0.903777
0.519326 0.581048 0.847471
0.747295 0.518975 0.819089
0.847837 0.490913 0.816144
0.850538 0.477272 0.813428
0.850065 0.472053 0.812131
0.401053 0.79411 0.914946
0.400793 0.793423 0.914885
0.400488 0.792615 0.914794
0.39968 0.790402 0.914595
0.430076 0.760876 0.891966
0.739162 0.74844 0.865354
0.834607 0.728527 0.854582
0.856764 0.720989 0.853254
0.856718 0.719081 0.852934
0.429404 0.856275 0.914046
0.429206 0.855848 0.914076
0.428962 0.855314 0.914122
0.428321 0.853864 0.914244
0.422141 0.833448 0.902693
0.721645 0.823575 0.871427
0.820264 0.813214 0.861784
0.857328 0.806287 0.862043
0.859525 0.804959 0.861921
0.445258 0.872724 0.912612
0.445258 0.872724 0.912612
0.445258 0.872724 0.912612
0.445258 0.872724 0.912612
0.43386 0.864683 0.907179
0.705928 0.852171 0.871107
0.815167 0.847257 0.865583
0.851057 0.840665 0.862623
0.860624 0.838544 0.861433
0.445258 0.872724 0.912612
0.445258 0.872724 0.912612
0.445258 0.872724 0.912612
0.445258 0.872724 0.912612
0.445258 0.872724 0.912612
0.699733 0.853635 0.87097
0.812741 0.855085 0.866514
0.849729 0.852277 0.864057
0.861234 0.850935 0.863844
