modules/camera-engine/ios/LUTs/panasonic-txd-rag-film-cned2.cube
# Created by Adobe Lightroom plugin Export LUT (1.24.0)
# www.johnrellis.com/lightroom/exportlut.htm
# Photo: 兔小呆 电影动态范围2测试样片 (8).jpg
# Color profile: C:\Program Files (x86)\Common Files\Adobe\Color\Profiles\Recommended\sRGB Color Space Profile.icm
LUT_3D_SIZE 9
DOMAIN_MIN 0.0 0.0 0.0
DOMAIN_MAX 1.0 1.0 1.0
0.057588 0.047486 0.049805
0.093874 0.050538 0.049989
0.168002 0.056001 0.039826
0.297093 0.063539 0.024140
0.497505 0.056977 0.011566
0.720119 0.027283 0.001892
0.891600 0.054047 0.003784
0.988190 0.186191 0.000000
1.000000 0.305486 0.000000
0.056458 0.071229 0.056458
0.083162 0.071901 0.054261
0.163882 0.087953 0.038972
0.298741 0.103609 0.022797
0.503105 0.113069 0.006439
0.729305 0.108888 0.000000
0.893645 0.160281 0.000000
0.984649 0.248631 0.000000
1.000000 0.349645 0.000000
0.035584 0.120729 0.068360
0.064027 0.120485 0.068269
0.138918 0.131777 0.053956
0.307836 0.183627 0.017151
0.511162 0.221042 0.000000
0.731594 0.248173 0.000000
0.888304 0.300755 0.000000
0.980560 0.372595 0.000000
1.000000 0.450568 0.000000
0.000000 0.233860 0.095735
0.000000 0.235264 0.097017
0.038605 0.241733 0.090883
0.253696 0.284306 0.046784
0.520134 0.366735 0.000000
0.719356 0.421057 0.000000
0.866728 0.474861 0.000000
0.964935 0.532189 0.000000
1.000000 0.586603 0.000000
0.000000 0.414435 0.155459
0.000000 0.416510 0.158785
0.000000 0.422675 0.160922
0.080232 0.443549 0.141665
0.441413 0.506950 0.041993
0.705898 0.577234 0.000000
0.842557 0.633692 0.000000
0.938293 0.686488 0.000000
1.000000 0.720180 0.127016
0.000000 0.598871 0.259159
0.000000 0.597284 0.264012
0.000000 0.595819 0.272740
0.104860 0.601434 0.279881
0.368444 0.627741 0.269474
0.629145 0.680812 0.239536
0.821134 0.726375 0.240177
0.919341 0.768032 0.274449
0.983093 0.799008 0.325658
0.000000 0.706020 0.403571
0.000000 0.706477 0.412512
0.202640 0.708797 0.431647
0.341802 0.715938 0.455818
0.458564 0.728695 0.474434
0.597101 0.752193 0.476967
0.770565 0.785885 0.469276
0.898802 0.818143 0.483894
0.970886 0.845640 0.498817
0.373724 0.805631 0.572290
0.398077 0.807279 0.579065
0.448798 0.810697 0.593713
0.512444 0.815976 0.611841
0.582055 0.823819 0.629572
0.657649 0.835142 0.642298
0.755581 0.851926 0.644434
0.869718 0.875090 0.641871
0.956329 0.893095 0.641993
0.553185 0.903655 0.700496
0.565240 0.904082 0.703883
0.592920 0.905028 0.711788
0.632563 0.907042 0.722713
0.679438 0.909758 0.734463
0.731044 0.914397 0.745388
0.789273 0.922545 0.752651
0.859007 0.934997 0.753964
0.932921 0.942809 0.747402
0.069825 0.045594 0.074861
0.096498 0.046937 0.068482
0.174014 0.040620 0.069764
0.304173 0.034272 0.056519
0.500420 0.005463 0.048493
0.716182 0.025055 0.024140
0.889403 0.053559 0.003571
0.989044 0.169192 0.000000
1.000000 0.301122 0.000000
0.050355 0.076417 0.074800
0.089143 0.074067 0.074708
0.165652 0.076081 0.070192
0.302525 0.078614 0.051942
0.505547 0.075929 0.038788
0.725917 0.047791 0.023743
0.893126 0.127443 0.000000
0.985534 0.232609 0.000000
1.000000 0.341650 0.000000
0.035828 0.125368 0.084535
0.075715 0.126284 0.088716
0.144411 0.135073 0.081300
0.306676 0.175082 0.052033
0.512261 0.202304 0.022766
0.731106 0.232273 0.000000
0.886778 0.287633 0.000000
0.979736 0.362066 0.000000
1.000000 0.441169 0.000000
0.000000 0.239872 0.117037
0.000000 0.241367 0.119875
0.065827 0.246281 0.120211
0.259800 0.285893 0.093050
0.518791 0.362371 0.000000
0.715633 0.414771 0.000000
0.864256 0.468391 0.000000
0.966735 0.526818 0.000000
1.000000 0.580194 0.036530
0.000000 0.417395 0.177157
0.000000 0.419501 0.181979
0.000000 0.424750 0.188266
0.117830 0.443549 0.177615
0.447761 0.505913 0.118257
0.704860 0.576349 0.013428
0.842069 0.634333 0.000000
0.938567 0.684352 0.083558
1.000000 0.714199 0.192844
0.000000 0.597772 0.279973
0.000000 0.596246 0.285252
0.000000 0.595148 0.296330
0.160250 0.600916 0.307561
0.384619 0.625971 0.304601
0.633722 0.678157 0.283207
0.820554 0.723293 0.287907
0.917845 0.764187 0.317510
0.982605 0.797482 0.362066
0.000000 0.706416 0.418524
0.019806 0.707118 0.427771
0.232395 0.709865 0.448096
0.359442 0.716915 0.472572
0.471229 0.729122 0.491951
0.604211 0.752041 0.497322
0.772671 0.785061 0.493050
0.898466 0.817868 0.507622
0.970794 0.846098 0.519005
0.379126 0.806607 0.579187
0.403449 0.808316 0.585992
0.454902 0.811795 0.601129
0.518944 0.816953 0.619745
0.587915 0.824582 0.637720
0.661585 0.835416 0.650660
0.758114 0.852079 0.653834
0.870726 0.875425 0.652674
0.956817 0.893767 0.653376
0.551568 0.904295 0.702480
0.563989 0.904753 0.705989
0.592523 0.905760 0.714199
0.633478 0.907805 0.725704
0.681117 0.910460 0.737789
0.732876 0.914977 0.749111
0.790524 0.922942 0.756710
0.859861 0.935271 0.758236
0.933532 0.943053 0.752041
0.104067 0.037354 0.129000
0.144839 0.043275 0.125887
0.178866 0.041993 0.112154
0.339055 0.004730 0.129641
0.504173 0.003723 0.118288
0.699123 0.019684 0.105959
0.877195 0.034760 0.108492
0.989044 0.125582 0.103975
1.000000 0.278935 0.114443
0.036316 0.079957 0.135225
0.112673 0.068055 0.135622
0.178378 0.071626 0.119234
0.327916 0.048157 0.128084
0.502037 0.003693 0.121523
0.706844 0.019745 0.120516
0.882628 0.035035 0.113283
0.986908 0.203220 0.103975
1.000000 0.323308 0.121736
0.000000 0.138796 0.135744
0.033722 0.138918 0.136843
0.158511 0.140688 0.137209
0.309483 0.152316 0.133608
0.509270 0.162417 0.122530
0.721096 0.186923 0.110811
0.884977 0.244236 0.112398
0.983062 0.327794 0.118044
1.000000 0.415625 0.146670
0.000000 0.248814 0.154635
0.000000 0.252018 0.159060
0.115602 0.258549 0.176638
0.276280 0.288823 0.175296
0.514336 0.351781 0.134554
0.710445 0.393927 0.110628
0.865904 0.445777 0.119081
0.969970 0.504540 0.149538
1.000000 0.558099 0.199100
0.000000 0.422766 0.218936
0.000000 0.425391 0.226780
0.000000 0.429908 0.242466
0.195315 0.443641 0.250919
0.463691 0.501518 0.230259
0.701320 0.569848 0.193301
0.838376 0.627924 0.197482
0.935668 0.669673 0.241459
1.000000 0.702663 0.301762
0.000000 0.597711 0.322759
0.000000 0.596216 0.329870
0.000000 0.595697 0.345098
0.238315 0.601099 0.366247
0.416693 0.623102 0.376379
0.642664 0.672724 0.370825
0.817929 0.717342 0.378546
0.914855 0.758633 0.399329
0.982177 0.793851 0.430915
0.000000 0.708492 0.449348
0.123201 0.709010 0.458747
0.276066 0.712459 0.480781
0.393774 0.718959 0.507622
0.497688 0.729763 0.529137
0.618555 0.751522 0.540032
0.777096 0.783810 0.541924
0.897581 0.817838 0.556817
0.970611 0.846952 0.561669
0.383551 0.808957 0.593622
0.410101 0.810727 0.600855
0.463844 0.814145 0.616541
0.531670 0.819303 0.636744
0.600122 0.826352 0.655146
0.671290 0.836088 0.668696
0.763210 0.852323 0.674311
0.872892 0.876188 0.675776
0.958251 0.895018 0.676722
0.543755 0.905913 0.706416
0.557733 0.906340 0.710262
0.589014 0.907500 0.719203
0.633875 0.909728 0.732265
0.684108 0.912200 0.745388
0.736629 0.916533 0.757595
0.793362 0.924041 0.766079
0.861784 0.935790 0.768246
0.935149 0.943694 0.762966
0.155581 0.019196 0.227726
0.202426 0.020752 0.233066
0.291783 0.029297 0.229801
0.356756 0.004913 0.208286
0.567651 0.008453 0.226627
0.753536 0.021180 0.235630
0.867430 0.027985 0.215549
0.975433 0.036133 0.209720
1.000000 0.251713 0.262760
0.058320 0.064424 0.239811
0.147158 0.053803 0.241947
0.283238 0.063874 0.241886
0.358404 0.049866 0.216312
0.573663 0.008881 0.240909
0.742275 0.020539 0.240452
0.863798 0.027649 0.220890
0.971771 0.127047 0.236912
1.000000 0.293736 0.269871
0.000000 0.149172 0.246983
0.000000 0.141665 0.250462
0.191592 0.132021 0.258854
0.348425 0.155062 0.239078
0.561761 0.148898 0.261418
0.716823 0.127779 0.242527
0.859464 0.190280 0.250675
0.965911 0.286564 0.266880
1.000000 0.388861 0.290532
0.000000 0.270787 0.264714
0.000000 0.272892 0.266117
0.000000 0.277348 0.269078
0.298466 0.290440 0.278233
0.506859 0.308263 0.273228
0.700771 0.335973 0.267857
0.853910 0.386908 0.278202
0.961547 0.450355 0.300969
1.000000 0.518029 0.331823
0.000000 0.428779 0.283116
0.000000 0.431800 0.287480
0.000000 0.437049 0.301091
0.274968 0.448951 0.342504
0.479713 0.494148 0.359014
0.691127 0.552728 0.339055
0.827970 0.597833 0.347417
0.931640 0.639796 0.376715
1.000000 0.674342 0.412604
0.000000 0.601526 0.372381
0.000000 0.600366 0.378943
0.000000 0.599023 0.399207
0.304936 0.603326 0.438178
0.457923 0.620356 0.467781
0.650874 0.666835 0.479225
0.811246 0.711147 0.485725
0.909636 0.752255 0.496651
0.982849 0.784207 0.512322
0.000000 0.711727 0.480323
0.070466 0.712459 0.491157
0.287816 0.715663 0.517266
0.424323 0.721645 0.550042
0.529473 0.730953 0.578302
0.635950 0.750881 0.596643
0.781338 0.783383 0.606500
0.896208 0.818112 0.618280
0.971160 0.847623 0.614984
0.360662 0.811643 0.609674
0.394873 0.813382 0.618006
0.458930 0.817350 0.633997
0.539178 0.822416 0.656916
0.614099 0.828702 0.678431
0.683589 0.837186 0.694026
0.769467 0.852811 0.702632
0.875700 0.876951 0.706630
0.960601 0.896880 0.708339
0.524376 0.908843 0.713588
0.536431 0.909270 0.715785
0.573297 0.910582 0.725154
0.627375 0.913024 0.740414
0.685847 0.915435 0.756893
0.741756 0.919432 0.770901
0.797696 0.925811 0.780545
0.864744 0.936858 0.783932
0.937346 0.944732 0.780179
0.192660 0.009186 0.381842
0.245029 0.009094 0.391547
0.381140 0.009186 0.409369
0.515587 0.011261 0.398505
0.599115 0.013245 0.361547
0.789792 0.024567 0.370184
0.921355 0.031342 0.402838
0.983062 0.071687 0.386603
1.000000 0.181827 0.367712
0.078065 0.040192 0.390448
0.177249 0.029084 0.397772
0.354711 0.016297 0.415656
0.516625 0.050843 0.410315
0.602777 0.014313 0.373297
0.790219 0.024750 0.385382
0.915099 0.071778 0.412940
0.973907 0.161288 0.390997
1.000000 0.224491 0.374640
0.000000 0.129854 0.394141
0.000000 0.122866 0.399512
0.223209 0.120302 0.420020
0.496651 0.163943 0.435523
0.597803 0.161929 0.399817
0.783993 0.185275 0.421912
0.886290 0.241489 0.428229
0.960754 0.257115 0.401465
1.000000 0.309453 0.391485
0.000000 0.269902 0.415290
0.000000 0.268925 0.419135
0.000000 0.264744 0.426978
0.341558 0.272068 0.448249
0.557061 0.326360 0.434119
0.740444 0.362524 0.464057
0.849241 0.351263 0.431647
0.950530 0.380438 0.420447
1.000000 0.483680 0.468818
0.000000 0.445045 0.440803
0.000000 0.449134 0.445045
0.000000 0.455055 0.450080
0.101564 0.458350 0.452796
0.484199 0.482918 0.477668
0.676326 0.501366 0.472328
0.819059 0.530755 0.474769
0.931426 0.571740 0.490883
1.000000 0.621057 0.513909
0.000000 0.612634 0.461524
0.000000 0.612024 0.462287
0.000000 0.608759 0.465553
0.215671 0.606897 0.486244
0.494057 0.620935 0.545251
0.654719 0.661097 0.572381
0.804410 0.701778 0.571069
0.905913 0.733852 0.575219
0.987762 0.762356 0.587457
0.000000 0.720027 0.510918
0.000000 0.718196 0.516777
0.092653 0.717861 0.537133
0.387671 0.723415 0.576684
0.549554 0.732815 0.623194
0.650752 0.749447 0.652552
0.783688 0.783200 0.669429
0.895781 0.817777 0.673610
0.973358 0.845670 0.665797
0.212161 0.812955 0.613397
0.278019 0.814115 0.621790
0.391730 0.818601 0.642481
0.515282 0.825254 0.672206
0.619623 0.831785 0.701778
0.696407 0.838956 0.723384
0.775692 0.853727 0.736538
0.878721 0.878172 0.743160
0.963836 0.899016 0.743038
0.440711 0.912871 0.710811
0.467353 0.912871 0.716091
0.525078 0.913603 0.728725
0.603967 0.917662 0.749477
0.678767 0.920653 0.769284
0.746273 0.923827 0.787442
0.803952 0.928771 0.799924
0.868284 0.938445 0.805020
0.940856 0.946380 0.802884
0.206455 0.021118 0.551019
0.266239 0.022431 0.560876
0.421302 0.023377 0.583185
0.626276 0.024598 0.598993
0.747036 0.027649 0.581048
0.824582 0.029603 0.536889
0.931762 0.035187 0.515618
1.000000 0.282963 0.564141
1.000000 0.370092 0.567895
0.046509 0.020966 0.551995
0.181094 0.021942 0.560967
0.380774 0.023468 0.582849
0.614923 0.024689 0.602991
0.747707 0.066590 0.588495
0.824521 0.029603 0.545800
0.929870 0.047883 0.529046
0.997009 0.336461 0.578363
1.000000 0.394293 0.574426
0.000000 0.110842 0.552972
0.000000 0.109102 0.558770
0.247166 0.101900 0.577325
0.562585 0.131838 0.609308
0.733455 0.230411 0.607813
0.810056 0.217411 0.567193
0.906188 0.286198 0.558251
0.981903 0.424353 0.604211
1.000000 0.440681 0.586267
0.000000 0.244572 0.563195
0.000000 0.241184 0.565179
0.000000 0.233829 0.571527
0.377356 0.256992 0.597742
0.686061 0.368505 0.625635
0.768795 0.392248 0.594751
0.874754 0.455665 0.606439
0.957549 0.506920 0.625238
1.000000 0.491798 0.591760
0.000000 0.439948 0.594171
0.000000 0.440497 0.596368
0.000000 0.442359 0.601099
0.000000 0.434485 0.604395
0.519432 0.458778 0.626703
0.713924 0.534905 0.623407
0.841886 0.576562 0.648646
0.931670 0.555169 0.616999
1.000000 0.558465 0.595209
0.000000 0.620417 0.619532
0.000000 0.622431 0.621546
0.000000 0.626917 0.626459
0.000000 0.622950 0.622614
0.376623 0.620874 0.623377
0.650965 0.645136 0.649561
0.792844 0.655665 0.641291
0.906706 0.677424 0.643183
0.999878 0.709407 0.652369
0.000000 0.742611 0.610407
0.000000 0.741238 0.610346
0.000000 0.732998 0.605035
0.078645 0.726497 0.610925
0.474434 0.731777 0.644404
0.664424 0.747280 0.696803
0.784298 0.779965 0.722103
0.893584 0.811246 0.717800
0.977874 0.832425 0.711574
0.000000 0.822751 0.631800
0.000000 0.820401 0.635950
0.028199 0.818723 0.649012
0.388861 0.824521 0.676295
0.571771 0.833768 0.713497
0.701472 0.841489 0.751186
0.781857 0.854032 0.773526
0.880308 0.880064 0.785397
0.967315 0.901335 0.781247
0.100862 0.919158 0.703883
0.211398 0.919310 0.708919
0.353735 0.919768 0.722316
0.498848 0.920134 0.744167
0.632563 0.926665 0.775479
0.739681 0.930510 0.803128
0.811215 0.933074 0.821775
0.873259 0.940703 0.830137
0.945495 0.948699 0.830777
0.255741 0.030030 0.691890
0.308263 0.030945 0.699550
0.453132 0.033906 0.717281
0.668879 0.036225 0.737453
0.851591 0.043458 0.739925
0.914519 0.163241 0.713954
0.964294 0.106508 0.669093
1.000000 0.255192 0.641627
1.000000 0.454170 0.682185
0.076020 0.029145 0.690242
0.219089 0.030030 0.695460
0.411841 0.033021 0.714107
0.650355 0.036255 0.736507
0.842466 0.129854 0.742275
0.905669 0.232700 0.718044
0.953765 0.211490 0.675166
1.000000 0.319188 0.653956
1.000000 0.484627 0.692439
0.052094 0.081819 0.685817
0.064393 0.062165 0.689815
0.293828 0.031250 0.703670
0.593957 0.042878 0.732448
0.812497 0.250401 0.748959
0.885618 0.351965 0.726925
0.933349 0.348302 0.690700
0.987335 0.427802 0.678676
1.000000 0.544396 0.713710
0.000000 0.208865 0.685145
0.000000 0.205600 0.686488
0.000000 0.202792 0.692409
0.421088 0.234318 0.717464
0.741207 0.358587 0.750454
0.852262 0.479377 0.738094
0.901335 0.486549 0.710414
0.965301 0.543236 0.710201
1.000000 0.609674 0.736019
0.000000 0.391821 0.707088
0.000000 0.389746 0.707088
0.000000 0.385504 0.707027
0.000000 0.379339 0.709987
0.555291 0.437507 0.735470
0.811246 0.575921 0.753262
0.867185 0.598932 0.733120
0.942351 0.640558 0.741634
1.000000 0.665156 0.752102
0.000000 0.602075 0.739528
0.000000 0.601984 0.739925
0.000000 0.601617 0.740902
0.000000 0.600305 0.742275
0.290288 0.586053 0.734859
0.674586 0.622400 0.751034
0.826932 0.689754 0.751797
0.923827 0.719173 0.770962
1.000000 0.693965 0.742306
0.000000 0.745388 0.742702
0.000000 0.745815 0.743374
0.000000 0.746670 0.744991
0.000000 0.742672 0.740719
0.261112 0.736049 0.733700
0.572168 0.742245 0.744442
0.773953 0.762783 0.767788
0.888975 0.768673 0.757443
0.990051 0.788083 0.755520
0.000000 0.855344 0.727810
0.000000 0.854765 0.728878
0.000000 0.846464 0.725612
0.000000 0.831754 0.720516
0.388617 0.832486 0.733486
0.626154 0.841276 0.762631
0.786221 0.853147 0.803220
0.883757 0.880430 0.825864
0.970214 0.901244 0.818357
0.000000 0.941253 0.729183
0.000000 0.937774 0.730312
0.000000 0.932921 0.736110
0.021393 0.928923 0.750179
0.462318 0.929381 0.772030
0.665126 0.937652 0.805509
0.809110 0.940124 0.841764
0.880583 0.943877 0.858671
0.951446 0.951965 0.863188
0.355383 0.039246 0.796536
0.383978 0.040375 0.800778
0.502647 0.045045 0.811612
0.701747 0.051575 0.832700
0.895232 0.057099 0.839994
0.971069 0.328893 0.824949
0.999847 0.379736 0.800717
1.000000 0.370001 0.764828
1.000000 0.440986 0.740108
0.242222 0.036805 0.793057
0.311345 0.038087 0.796750
0.466682 0.043977 0.808988
0.683040 0.051179 0.830747
0.884123 0.140383 0.840330
0.963836 0.364874 0.826749
0.993469 0.415625 0.803830
1.000000 0.408515 0.769436
1.000000 0.472480 0.746914
0.100679 0.035889 0.789487
0.101228 0.035798 0.791379
0.364111 0.039948 0.801022
0.630274 0.049989 0.824216
0.851102 0.243320 0.842008
0.947356 0.433204 0.831205
0.981048 0.489570 0.812406
1.000000 0.486030 0.781613
1.000000 0.535576 0.762997
0.004486 0.165682 0.783658
0.011322 0.161990 0.785122
0.003021 0.168399 0.789212
0.487251 0.201846 0.810697
0.778134 0.337438 0.841550
0.920256 0.511894 0.839567
0.961059 0.574945 0.823850
0.994903 0.574975 0.799069
1.000000 0.610040 0.784512
0.000000 0.327459 0.794980
0.000000 0.324193 0.794553
0.000000 0.318730 0.794125
0.000000 0.322728 0.797482
0.604913 0.413092 0.829892
0.867643 0.568566 0.847166
0.937102 0.655543 0.836057
0.973175 0.659602 0.816861
1.000000 0.685969 0.809445
0.000000 0.541619 0.827878
0.000000 0.539727 0.827359
0.000000 0.536034 0.826078
0.000000 0.532403 0.824063
0.188998 0.527977 0.826841
0.709255 0.601282 0.842771
0.908690 0.717983 0.848783
0.949889 0.733577 0.833341
1.000000 0.755825 0.832731
0.000000 0.731044 0.846799
0.000000 0.730800 0.846738
0.000000 0.730098 0.846464
0.000000 0.728969 0.845579
0.000000 0.726070 0.844480
0.480446 0.713100 0.835996
0.795193 0.740230 0.849393
0.918334 0.802731 0.848325
0.992126 0.823758 0.855283
0.000000 0.861051 0.841276
0.000000 0.860868 0.841367
0.000000 0.860227 0.841672
0.000000 0.856718 0.840726
0.000000 0.846403 0.832181
0.461250 0.845914 0.833860
0.695186 0.849027 0.841215
0.875334 0.865293 0.859403
0.977996 0.873838 0.851835
0.000000 0.962158 0.820676
0.000000 0.961730 0.821073
0.000000 0.960296 0.822568
0.000000 0.955657 0.825742
0.000000 0.947448 0.825559
0.444648 0.944121 0.829007
0.705440 0.950896 0.845853
0.888487 0.950835 0.884489
0.962463 0.957397 0.897642
0.363409 0.047730 0.872129
0.416175 0.050538 0.876310
0.555383 0.058930 0.891325
0.758907 0.063447 0.909361
0.948943 0.108644 0.912749
1.000000 0.414343 0.899504
1.000000 0.527184 0.886320
1.000000 0.537377 0.869230
1.000000 0.513878 0.837736
0.363104 0.047883 0.872801
0.416541 0.050904 0.877012
0.555657 0.059174 0.892088
0.754360 0.063661 0.909606
0.937438 0.174960 0.913085
1.000000 0.431830 0.900328
1.000000 0.542382 0.887694
1.000000 0.554955 0.870909
1.000000 0.533227 0.840543
0.198215 0.043183 0.871183
0.303441 0.045319 0.872953
0.480934 0.054719 0.884794
0.707454 0.063355 0.907836
0.906523 0.246281 0.913054
0.998901 0.468299 0.903868
1.000000 0.576135 0.891356
1.000000 0.593103 0.874998
1.000000 0.573999 0.846647
0.114595 0.052766 0.871611
0.116548 0.042969 0.871855
0.262974 0.044526 0.873716
0.591119 0.117403 0.898466
0.840452 0.316777 0.914458
0.973419 0.512657 0.910918
1.000000 0.623285 0.898741
1.000000 0.647425 0.883268
1.000000 0.631769 0.856229
0.000000 0.240391 0.874479
0.000000 0.237125 0.874418
0.000000 0.234043 0.874601
0.236790 0.269291 0.884001
0.689052 0.379400 0.914061
0.920195 0.548821 0.920470
1.000000 0.670253 0.910674
1.000000 0.706355 0.894224
1.000000 0.695216 0.868894
0.000000 0.453040 0.903380
0.000000 0.444221 0.902953
0.000000 0.432807 0.902281
0.000000 0.428260 0.902373
0.191745 0.450874 0.910063
0.773251 0.574914 0.925566
0.969604 0.705470 0.925414
1.000000 0.765530 0.905516
1.000000 0.758755 0.881865
0.000000 0.688380 0.934478
0.000000 0.682368 0.934752
0.000000 0.673945 0.934844
0.000000 0.669032 0.934508
0.000000 0.670741 0.933806
0.346471 0.656764 0.926726
0.842985 0.718563 0.938201
0.992920 0.821042 0.920378
1.000000 0.827054 0.897704
0.000000 0.861357 0.936492
0.000000 0.860472 0.936767
0.000000 0.858854 0.937224
0.000000 0.857572 0.937377
0.000000 0.855741 0.936614
0.000000 0.844327 0.930419
0.564141 0.830167 0.936522
0.899779 0.844175 0.939513
0.995331 0.896544 0.914794
0.000000 0.983032 0.926574
0.000000 0.983032 0.926696
0.000000 0.983032 0.926909
0.000000 0.983032 0.927001
0.000000 0.983032 0.926635
0.000000 0.981476 0.926635
0.486397 0.976715 0.924163
0.768734 0.974182 0.927367
0.976135 0.965270 0.925719
