modules/camera-engine/ios/LUTs/panasonic-golden-rice-field.cube
TITLE "Generated by Resolve"
LUT_3D_SIZE 33
0.0113375 0.00727855 0.00207523
0.0113375 0.00727855 0.00207523
0.0113375 0.00727855 0.00207523
0.029099 0.00723278 0.00202945
0.0537575 0.00694286 0.00173953
0.0772259 0.00602731 0.000823987
0.0946822 0.00576791 0.000549325
0.115694 0.00697337 0.00163272
0.145983 0.0104982 0.000991836
0.198505 0.017319 0.00146487
0.279759 0.0260777 0
0.398871 0.04448 0.00764477
0.522515 0.0649729 0.0212711
0.612863 0.078996 0.0289006
0.694987 0.0906386 0.0362249
0.760037 0.0996567 0.0424048
0.802014 0.103975 0.0446021
0.845441 0.108751 0.0490272
0.88481 0.1131 0.0504311
0.9075 0.114366 0.0516365
0.917876 0.114763 0.0520485
0.917876 0.114763 0.0520485
0.917876 0.114763 0.0520485
0.917876 0.114763 0.0520485
0.917876 0.114763 0.0520485
0.917876 0.114763 0.0520485
0.917876 0.114763 0.0520485
0.917876 0.114763 0.0520485
0.917876 0.114763 0.0520485
0.917876 0.114763 0.0520485
0.917876 0.114763 0.0520485
0.917876 0.114763 0.0520485
0.917876 0.114763 0.0520485
0.0113375 0.00727855 0.00207523
0.0113375 0.00727855 0.00207523
0.0113375 0.00727855 0.00207523
0.0202945 0.00726329 0.00207523
0.044358 0.00709544 0.00190738
0.0690776 0.00634775 0.00115969
0.0885939 0.00579843 0.000595102
0.108934 0.00645457 0.00115969
0.138125 0.00941482 0.00128176
0.188602 0.016083 0.00135805
0.267735 0.0244907 0
0.387839 0.0424201 0.00645457
0.514092 0.0640421 0.0204166
0.607858 0.0783398 0.0285039
0.691203 0.0901808 0.0358282
0.757534 0.0991836 0.0424048
0.800443 0.103807 0.0444343
0.844114 0.108598 0.0489815
0.884138 0.113054 0.0503853
0.90663 0.114336 0.051606
0.917876 0.114763 0.0520485
0.917876 0.114763 0.0520485
0.917876 0.114763 0.0520485
0.917876 0.114763 0.0520485
0.917876 0.114763 0.0520485
0.917876 0.114763 0.0520485
0.917876 0.114763 0.0520485
0.917876 0.114763 0.0520485
0.917876 0.114763 0.0520485
0.917876 0.114763 0.0520485
0.917876 0.114763 0.0520485
0.917876 0.114763 0.0520485
0.917876 0.114763 0.0520485
0.0113375 0.00727855 0.00207523
0.0113375 0.00727855 0.00207523
0.0113375 0.00727855 0.00207523
0.01149 0.00727855 0.00207523
0.035172 0.007187 0.00199893
0.0598611 0.00679026 0.00158694
0.0819715 0.00590524 0.000701915
0.1019 0.00598154 0.00062562
0.130617 0.00849927 0.00164797
0.17911 0.0148775 0.00115969
0.256977 0.0232242 0
0.376333 0.0402991 0.00511177
0.50544 0.0631418 0.0195468
0.602716 0.0776837 0.0280919
0.687251 0.0896925 0.0354009
0.755001 0.0986954 0.0424048
0.798871 0.103624 0.0442512
0.842786 0.108446 0.0489357
0.883452 0.113008 0.0503548
0.905745 0.11429 0.0515755
0.917876 0.114763 0.0520485
0.917876 0.114763 0.0520485
0.917876 0.114763 0.0520485
0.917876 0.114763 0.0520485
0.917876 0.114763 0.0520485
0.917876 0.114763 0.0520485
0.917876 0.114763 0.0520485
0.917876 0.114763 0.0520485
0.917876 0.114763 0.0520485
0.917876 0.114763 0.0520485
0.917876 0.114763 0.0520485
0.917876 0.114763 0.0520485
0.917876 0.114763 0.0520485
0.0113375 0.00727855 0.00207523
0.0113375 0.00727855 0.00207523
0.0113375 0.00727855 0.00207523
0.0113375 0.00727855 0.00207523
0.0260471 0.00724804 0.00204471
0.0504311 0.00700389 0.00180056
0.0744945 0.00610361 0.000900282
0.0959793 0.00579843 0.000564584
0.123751 0.00775158 0.00189212
0.169207 0.0136416 0.0009308
0.246067 0.0221408 0
0.364691 0.0381781 0.00361639
0.496468 0.062211 0.0186618
0.597452 0.0769513 0.0277104
0.683085 0.089128 0.0349279
0.752209 0.0982071 0.0422522
0.798138 0.103639 0.0440223
0.841428 0.108293 0.0488899
0.88246 0.112917 0.050309
0.904845 0.11426 0.051545
0.917876 0.114763 0.0520485
0.917876 0.114763 0.0520485
0.917876 0.114763 0.0520485
0.917876 0.114763 0.0520485
0.917876 0.114763 0.0520485
0.917876 0.114763 0.0520485
0.917876 0.114763 0.0520485
0.917876 0.114763 0.0520485
0.917876 0.114763 0.0520485
0.917876 0.114763 0.0520485
0.917876 0.114763 0.0520485
0.917876 0.114763 0.0520485
0.917876 0.114763 0.0520485
0.0112917 0.0229191 0.00202945
0.0113069 0.0207675 0.00204471
0.0113222 0.0185855 0.00205997
0.0113222 0.0163882 0.00205997
0.016968 0.0141909 0.00207523
0.0409094 0.0118715 0.00196841
0.0653239 0.00914015 0.00143435
0.0897231 0.00578317 0.000579843
0.117205 0.00712596 0.00167849
0.159594 0.012314 0.000793469
0.234928 0.0210574 0
0.351461 0.0361028 0.002121
0.486595 0.0609903 0.0176242
0.592096 0.0761883 0.0273289
0.678859 0.0885634 0.0344549
0.749462 0.0977798 0.0419928
0.797726 0.103716 0.0437934
0.839994 0.108141 0.0487526
0.881193 0.112779 0.0502785
0.903944 0.114229 0.0514992
0.917876 0.114763 0.0520485
0.917876 0.114763 0.0520485
0.917876 0.114763 0.0520485
0.917876 0.114763 0.0520485
0.917876 0.114763 0.0520485
0.917876 0.114763 0.0520485
0.917876 0.114763 0.0520485
0.917876 0.114763 0.0520485
0.917876 0.114763 0.0520485
0.917876 0.114763 0.0520485
0.917876 0.114763 0.0520485
0.917876 0.114763 0.0520485
0.917876 0.114763 0.0520485
0.0110781 0.0403601 0.00181582
0.0111238 0.0381323 0.0018616
0.0111543 0.0358892 0.00190738
0.0111849 0.0336309 0.0019379
0.0112154 0.0313573 0.00196841
0.0315709 0.02916 0.00204471
0.0562905 0.0267185 0.0018616
0.0833143 0.0230869 0.000976577
0.11078 0.0202335 0.00166323
0.150225 0.0199283 0.0011902
0.22327 0.0225681 0.000411994
0.337606 0.0340734 0.000686656
0.476402 0.059617 0.0165255
0.586664 0.0754101 0.0269474
0.674662 0.088014 0.0339818
0.746731 0.0973526 0.0417182
0.797253 0.103792 0.0435645
0.83856 0.107988 0.0486
0.879942 0.112642 0.0502327
0.903029 0.114183 0.0514687
0.917876 0.114763 0.0520485
0.917876 0.114763 0.0520485
0.917876 0.114763 0.0520485
0.917876 0.114763 0.0520485
0.917876 0.114763 0.0520485
0.917876 0.114763 0.0520485
0.917876 0.114763 0.0520485
0.917876 0.114763 0.0520485
0.917876 0.114763 0.0520485
0.917876 0.114763 0.0520485
0.917876 0.114763 0.0520485
0.917876 0.114763 0.0520485
0.917876 0.114763 0.0520485
0.0103761 0.0577859 0.00111391
0.0105135 0.0557107 0.0012665
0.0106355 0.0535744 0.00138857
0.0107424 0.0513771 0.00149538
0.0108339 0.0491035 0.00157168
0.0221408 0.0469215 0.00178531
0.04654 0.0445563 0.00195315
0.0760967 0.041062 0.00132753
0.104097 0.0376593 0.00155642
0.141741 0.0366064 0.00216678
0.210636 0.0388495 0.00233463
0.321324 0.0436561 0
0.465049 0.0590982 0.0153658
0.581216 0.0746166 0.0265354
0.670451 0.0874342 0.0334936
0.74403 0.0969406 0.0414282
0.796704 0.103838 0.0433509
0.83711 0.107836 0.0484474
0.878691 0.11249 0.0501869
0.902129 0.114153 0.0514382
0.917876 0.114763 0.0520485
0.917876 0.114763 0.0520485
0.917876 0.114763 0.0520485
0.917876 0.114763 0.0520485
0.917876 0.114763 0.0520485
0.917876 0.114763 0.0520485
0.917876 0.114763 0.0520485
0.917876 0.114763 0.0520485
0.917876 0.114763 0.0520485
0.917876 0.114763 0.0520485
0.917876 0.114763 0.0520485
0.917876 0.114763 0.0520485
0.917876 0.114763 0.0520485
0.00885023 0.0764019 0
0.00881971 0.0746166 0
0.00881971 0.0728008 0
0.00885023 0.0709239 0
0.00894179 0.068986 0
0.00924697 0.0670176 0
0.0336461 0.065507 0.000579843
0.0646677 0.0631266 0.00140383
0.0972 0.0599069 0.00192264
0.136202 0.0598306 0.0043183
0.201251 0.0615549 0.0049897
0.306569 0.0646677 0.0010071
0.449714 0.0786603 0.0167086
0.57528 0.0846113 0.0282292
0.665232 0.0867475 0.0328679
0.740703 0.096437 0.041001
0.796063 0.103914 0.0430915
0.83537 0.107652 0.0482643
0.877165 0.112322 0.0501411
0.90103 0.114107 0.0513924
0.917876 0.114763 0.0520485
0.917876 0.114763 0.0520485
0.917876 0.114763 0.0520485
0.917876 0.114763 0.0520485
0.917876 0.114763 0.0520485
0.917876 0.114763 0.0520485
0.917876 0.114763 0.0520485
0.917876 0.114763 0.0520485
0.917876 0.114763 0.0520485
0.917876 0.114763 0.0520485
0.917876 0.114763 0.0520485
0.917876 0.114763 0.0520485
0.917876 0.114763 0.0520485
0.010605 0.100618 0.00204471
0.010605 0.0986496 0.00187686
0.0105745 0.0965896 0.00167849
0.0105287 0.0944686 0.00148013
0.0103761 0.0925612 0.00128176
0.0101472 0.0905318 0.0010071
0.0196384 0.0892805 0.00143435
0.0501411 0.0882277 0.00239567
0.0868544 0.0849622 0.00205997
0.12517 0.084184 0.00360113
0.183322 0.0859236 0.00340276
0.282612 0.090135 0
0.433768 0.104967 0.0153506
0.565728 0.112367 0.0292668
0.65893 0.108644 0.0342718
0.736416 0.098085 0.04065
0.795026 0.10396 0.0427405
0.833021 0.107408 0.0480201
0.875135 0.112093 0.0500801
0.899611 0.114046 0.0513313
0.917876 0.114763 0.0520485
0.917876 0.114763 0.0520485
0.917876 0.114763 0.0520485
0.917876 0.114763 0.0520485
0.917876 0.114763 0.0520485
0.917876 0.114763 0.0520485
0.917876 0.114763 0.0520485
0.917876 0.114763 0.0520485
0.917876 0.114763 0.0520485
0.917876 0.114763 0.0520485
0.917876 0.114763 0.0520485
0.917876 0.114763 0.0520485
0.917876 0.114763 0.0520485
0.0110781 0.130434 0.00500496
0.0110781 0.128832 0.00480659
0.011017 0.127123 0.00456245
0.010956 0.125368 0.00430304
0.0108949 0.123583 0.00404364
0.0108186 0.121767 0.00376898
0.0107576 0.119921 0.00349432
0.0295109 0.118166 0.00355535
0.069398 0.11487 0.00294499
0.109972 0.110857 0.00251774
0.161608 0.110857 0.00323491
0.254261 0.11545 0
0.408469 0.133715 0.0117494
0.552911 0.147005 0.0254826
0.647181 0.145159 0.0314794
0.731304 0.13489 0.0406348
0.792782 0.120577 0.0431373
0.829923 0.107088 0.0476997
0.87245 0.111788 0.0499886
0.898405 0.11397 0.0512398
0.917876 0.114763 0.0520485
0.917876 0.114763 0.0520485
0.917876 0.114763 0.0520485
0.917876 0.114763 0.0520485
0.917876 0.114763 0.0520485
0.917876 0.114763 0.0520485
0.917876 0.114763 0.0520485
0.917876 0.114763 0.0520485
0.917876 0.114763 0.0520485
0.917876 0.114763 0.0520485
0.917876 0.114763 0.0520485
0.917876 0.114763 0.0520485
0.917876 0.114763 0.0520485
0.00546273 0.151934 0
0.00540169 0.150347 0
0.00576791 0.149783 0
0.00614939 0.149203 0
0.0065156 0.148577 0
0.00689708 0.147967 0
0.00727855 0.147326 0
0.00773632 0.146563 0.000289921
0.040177 0.145556 0.00199893
0.0864576 0.139895 0
0.135241 0.137438 0
0.22269 0.148653 0.00296025
0.374624 0.165301 0.00932326
0.534218 0.182467 0.0239872
0.637476 0.18381 0.0303807
0.719493 0.176638 0.0356298
0.783291 0.165347 0.0392309
0.824674 0.145373 0.0465858
0.86894 0.122911 0.0499733
0.896819 0.113878 0.051133
0.917876 0.114763 0.0520485
0.917876 0.114763 0.0520485
0.917876 0.114763 0.0520485
0.917876 0.114763 0.0520485
0.917876 0.114763 0.0520485
0.917876 0.114763 0.0520485
0.917876 0.114763 0.0520485
0.917876 0.114763 0.0520485
0.917876 0.114763 0.0520485
0.917876 0.114763 0.0520485
0.917876 0.114763 0.0520485
0.917876 0.114763 0.0520485
0.917876 0.114763 0.0520485
0.00953689 0.214054 0.00294499
0.00939956 0.211627 0.00228885
0.00924697 0.209216 0.00170901
0.00909438 0.206744 0.00111391
0.00894179 0.204242 0.000518807
0.0087892 0.201831 0
0.00865187 0.199573 0
0.00846876 0.196811 0
0.00827039 0.193256 0
0.0578775 0.189929 0
0.11078 0.185061 0
0.1794 0.183658 0
0.304479 0.19736 0.00157168
0.489113 0.218326 0.0171359
0.616464 0.223224 0.0285954
0.707607 0.218677 0.0354772
0.77528 0.208835 0.0378576
0.813153 0.192477 0.0408942
0.857481 0.180072 0.0449683
0.895293 0.158099 0.0492866
0.917967 0.131304 0.0518654
0.917876 0.114763 0.0520485
0.917876 0.114763 0.0520485
0.917876 0.114763 0.0520485
0.917876 0.114763 0.0520485
0.917876 0.114763 0.0520485
0.917876 0.114763 0.0520485
0.917876 0.114763 0.0520485
0.917876 0.114763 0.0520485
0.917876 0.114763 0.0520485
0.917876 0.114763 0.0520485
0.917876 0.114763 0.0520485
0.917876 0.114763 0.0520485
0.0180667 0.311955 0.0375525
0.0176699 0.309941 0.0368658
0.0172427 0.307897 0.0361486
0.0168154 0.305852 0.0354467
0.0163882 0.303731 0.0347143
0.0159457 0.301595 0.0339818
0.0155032 0.299474 0.0332494
0.0149844 0.296895 0.0323644
0.0140536 0.2925 0.0302281
0.0200351 0.28658 0.0273136
0.0855879 0.287938 0.0292973
0.143587 0.285847 0.0261387
0.274144 0.290089 0.0178225
0.428626 0.281437 0.0234684
0.582498 0.279057 0.0294804
0.69575 0.268208 0.0338598
0.767132 0.261921 0.0398108
0.806989 0.241947 0.0417639
0.848341 0.226413 0.04271
0.886458 0.214511 0.0444038
0.909041 0.197681 0.044831
0.912383 0.18024 0.0464637
0.918135 0.158404 0.0500954
0.91783 0.13727 0.0517128
0.917952 0.119448 0.0520485
0.917876 0.114763 0.0520485
0.917876 0.114763 0.0520485
0.917876 0.114763 0.0520485
0.917876 0.114763 0.0520485
0.917876 0.114763 0.0520485
0.917876 0.114763 0.0520485
0.917876 0.114763 0.0520485
0.917876 0.114763 0.0520485
0.0334783 0.398032 0.0658885
0.0331121 0.396277 0.0652628
0.0326696 0.394278 0.0645304
0.0321965 0.392157 0.0637369
0.0317388 0.390082 0.062974
0.0312657 0.387961 0.0621958
0.030808 0.38587 0.0614176
0.0302281 0.383291 0.0604715
0.0294957 0.379797 0.059205
0.0285191 0.375067 0.0574807
0.0478523 0.371099 0.056199
0.120531 0.370214 0.0542916
0.180758 0.368093 0.0480049
0.388907 0.402564 0.046952
0.526528 0.368277 0.0504005
0.659815 0.348806 0.0487678
0.751629 0.321569 0.0453651
0.799039 0.304723 0.0437781
0.844724 0.281224 0.0434272
0.882795 0.269368 0.0456703
0.904021 0.254444 0.0448768
0.909651 0.238575 0.0443427
0.910445 0.225711 0.0444343
0.909514 0.213748 0.0444038
0.909606 0.202625 0.0445716
0.910384 0.1935 0.045182
0.911513 0.185687 0.0459449
0.912627 0.178744 0.0466163
0.913756 0.172625 0.0474861
0.915145 0.167193 0.0488441
0.916518 0.163027 0.0495155
0.917662 0.159777 0.0499428
0.918517 0.157259 0.0502174
0.0449683 0.466804 0.084947
0.0446937 0.465568 0.0846723
0.0443885 0.464302 0.0843366
0.0440986 0.46302 0.0840162
0.0437934 0.461692 0.0836652
0.043473 0.46038 0.0833295
0.043183 0.459098 0.0829938
0.0428626 0.457542 0.0825818
0.0425422 0.455497 0.0820172
0.0420996 0.452796 0.0812695
0.0415503 0.44921 0.0802777
0.0829938 0.450034 0.0809491
0.160159 0.455009 0.0775006
0.226703 0.444343 0.0591592
0.492912 0.499855 0.0746471
0.60885 0.45127 0.0713512
0.721523 0.414176 0.0657969
0.786664 0.382223 0.0566873
0.835966 0.360449 0.0535134
0.875471 0.337545 0.0503395
0.902541 0.321935 0.0476692
0.913649 0.307225 0.046128
0.912947 0.290898 0.0441444
0.911513 0.280034 0.0449226
0.911162 0.272282 0.0458839
0.91014 0.263874 0.0454108
0.909926 0.256901 0.0451057
0.909712 0.251194 0.0448615
0.909545 0.246632 0.0446174
0.909422 0.24303 0.0444343
0.909377 0.240269 0.0443122
0.909651 0.238544 0.0443427
0.90988 0.237232 0.044358
0.0618143 0.54197 0.100069
0.0616159 0.540963 0.0998856
0.0614176 0.53994 0.0996872
0.0612192 0.538903 0.0994888
0.0610208 0.537865 0.0993057
0.0608225 0.536812 0.0991073
0.0606241 0.53579 0.0989242
0.0603799 0.534508 0.0986801
0.0600443 0.532784 0.0983597
0.0595407 0.530434 0.0979019
0.0588846 0.527337 0.0973068
0.0580301 0.523308 0.0965286
0.129046 0.5243 0.0954604
0.200793 0.529976 0.0894179
0.289357 0.516762 0.062211
0.57969 0.577081 0.0937057
0.679454 0.532738 0.0912795
0.767224 0.487175 0.0858015
0.82208 0.458686 0.0779736
0.867857 0.432074 0.0711833
0.900099 0.409186 0.0656748
0.914931 0.392874 0.0612345
0.914321 0.379217 0.0584726
0.914595 0.36672 0.0556497
0.914794 0.354696 0.0530404
0.914733 0.343893 0.0507973
0.914107 0.336507 0.0495003
0.914427 0.33193 0.0488594
0.914565 0.328405 0.0484016
0.913848 0.325429 0.0480659
0.913359 0.322988 0.0477913
0.913329 0.321157 0.0475929
0.913375 0.319768 0.0474403
0.0737163 0.611337 0.112795
0.0735485 0.610574 0.112642
0.0734112 0.609735 0.112459
0.0732586 0.608865 0.112276
0.073106 0.608011 0.112078
0.0729534 0.607141 0.111894
0.0728008 0.606271 0.111711
0.0726329 0.605264 0.111498
0.0724498 0.604044 0.111284
0.0722057 0.602411 0.110979
0.0718853 0.60029 0.110582
0.071458 0.597513 0.110079
0.0708629 0.593835 0.109361
0.170428 0.59527 0.106233
0.243549 0.591073 0.0905928
0.386389 0.596048 0.0742351
0.658381 0.651209 0.114336
0.740124 0.606714 0.107256
0.806195 0.578958 0.108095
0.858228 0.555169 0.107225
0.895659 0.531594 0.10219
0.915892 0.510582 0.0946059
0.916655 0.492592 0.0899062
0.916167 0.474296 0.0842298
0.91577 0.460929 0.0793622
0.915801 0.450233 0.075349
0.915816 0.442267 0.0732738
0.915862 0.435981 0.0717021
0.915892 0.431052 0.0704509
0.915953 0.427604 0.0696574
0.915999 0.425071 0.0690776
0.916045 0.423117 0.0686351
0.916075 0.421653 0.0682994
0.0846723 0.66685 0.118242
0.0845808 0.666239 0.118196
0.0844892 0.66566 0.118151
0.0843824 0.665064 0.118105
0.0842908 0.664454 0.118044
0.0841993 0.663859 0.117998
0.0841077 0.663264 0.117952
0.0840162 0.662531 0.117891
0.0838636 0.66157 0.117815
0.0836805 0.660288 0.117708
0.0834516 0.65861 0.117601
0.0831464 0.656443 0.117479
0.0827497 0.653666 0.117311
0.0964218 0.65037 0.116808
0.211078 0.650507 0.110903
0.295766 0.647272 0.0885939
0.506996 0.679393 0.094377
0.722805 0.712169 0.127794
0.797848 0.692576 0.125475
0.854826 0.675395 0.129717
0.898482 0.657481 0.130266
0.9196 0.636866 0.124483
0.927367 0.619165 0.120424
0.925414 0.606058 0.118212
0.923858 0.595132 0.116014
0.922927 0.585901 0.113893
0.92224 0.578378 0.112169
0.921798 0.572106 0.110689
0.921508 0.567056 0.109483
0.921248 0.563272 0.108553
0.921019 0.560479 0.107866
0.920851 0.558358 0.107332
0.920729 0.556756 0.10695
0.0906844 0.716106 0.126238
0.0906539 0.715709 0.126177
0.0906081 0.715312 0.126116
0.0905776 0.714916 0.12607
0.090547 0.714519 0.126009
0.0905013 0.714107 0.125948
0.0904707 0.71371 0.125887
0.090425 0.713222 0.125826
0.0903639 0.712566 0.125734
0.0902876 0.711711 0.125612
0.0902266 0.710597 0.125521
0.0903029 0.709194 0.125902
0.0903944 0.707408 0.126375
0.0904402 0.705043 0.126802
0.158373 0.697612 0.120439
0.252552 0.695735 0.109224
0.353109 0.6963 0.0877089
0.625635 0.749187 0.117098
0.777005 0.759518 0.136812
0.836332 0.752895 0.136934
0.888823 0.743435 0.13994
0.920272 0.734554 0.141558
0.941466 0.725917 0.139635
0.941329 0.718975 0.138628
0.941039 0.712123 0.138018
0.940658 0.705882 0.137621
0.940322 0.70071 0.137209
0.939986 0.696361 0.136645
0.939696 0.692958 0.136172
0.939467 0.690227 0.135729
0.939284 0.688151 0.135393
0.939147 0.68658 0.135134
0.93904 0.685389 0.134936
0.0938888 0.752132 0.128801
0.0938582 0.751797 0.128786
0.0938277 0.751446 0.128771
0.0937972 0.751095 0.128756
0.0937667 0.750744 0.12874
0.0937362 0.750393 0.12871
0.0937057 0.750027 0.128695
0.0936751 0.749599 0.128679
0.0936141 0.74902 0.128649
0.0935531 0.748272 0.128603
0.0934615 0.747265 0.128542
0.0933547 0.745983 0.128481
0.0932021 0.744335 0.128389
0.093019 0.74226 0.128267
0.0927901 0.739681 0.12813
0.209812 0.732219 0.120363
0.304936 0.732738 0.0996109
0.449149 0.740429 0.087892
0.740948 0.809522 0.144976
0.811215 0.799435 0.14226
0.86949 0.794873 0.144457
0.911055 0.788449 0.146304
0.93225 0.783307 0.145953
0.939742 0.779019 0.145678
0.939574 0.775296 0.145434
0.939452 0.772183 0.145235
0.939361 0.769619 0.145052
0.939437 0.767086 0.144732
0.939559 0.765087 0.144533
0.939651 0.763561 0.144381
0.939696 0.762402 0.144259
0.939742 0.761532 0.144183
0.939773 0.760861 0.144121
0.0994125 0.785519 0.127535
0.099321 0.785153 0.127581
0.0992294 0.784802 0.127626
0.0991531 0.784451 0.127672
0.0990463 0.78407 0.127718
0.09897 0.783719 0.127764
0.0988785 0.783368 0.12781
0.0987716 0.782925 0.127871
0.0986191 0.78233 0.127947
0.0984207 0.781552 0.128038
0.0981613 0.780545 0.128176
0.0978714 0.779293 0.128313
0.0975357 0.777768 0.128466
0.0971237 0.77583 0.128649
0.0966201 0.773449 0.128878
0.139559 0.768551 0.127886
0.263371 0.762615 0.11516
0.371954 0.766857 0.0931563
0.666743 0.829816 0.133547
0.785657 0.834562 0.145769
0.849332 0.834501 0.148714
0.897139 0.829816 0.150301
0.923476 0.82443 0.150072
0.941543 0.820829 0.14963
0.941299 0.817548 0.149233
0.941176 0.81474 0.148943
0.941085 0.812451 0.148699
0.941009 0.81062 0.148501
0.940948 0.809201 0.148348
0.940902 0.808103 0.148241
0.940856 0.807279 0.14815
0.940826 0.806622 0.148089
0.94081 0.806149 0.148028
0.107866 0.81474 0.123964
0.107744 0.814435 0.12401
0.107607 0.814145 0.124056
0.107485 0.81384 0.124102
0.107362 0.813535 0.124147
0.10724 0.813245 0.124193
0.107134 0.81294 0.124239
0.106981 0.812573 0.1243
0.106783 0.812085 0.124361
0.106508 0.811444 0.124468
0.106172 0.81062 0.12459
0.10573 0.809537 0.124743
0.105165 0.808133 0.124956
0.104448 0.806394 0.125216
0.103563 0.804211 0.125536
0.102922 0.801587 0.125811
0.22649 0.793942 0.120424
0.335454 0.795911 0.100999
0.545357 0.827237 0.109392
0.766125 0.867781 0.152468
0.828565 0.865187 0.152651
0.882322 0.864942 0.155108
0.917372 0.860792 0.155627
0.936202 0.856474 0.154788
0.943389 0.853452 0.154391
0.943297 0.850935 0.15404
0.943221 0.848875 0.15375
0.94316 0.847257 0.153536
0.943114 0.845975 0.153353
0.943069 0.844984 0.153216
0.943053 0.84419 0.153094
0.943038 0.84361 0.153017
0.943023 0.843153 0.152941
0.120745 0.838895 0.11957
0.120607 0.838621 0.119615
0.120455 0.838346 0.119661
0.120302 0.838071 0.119722
0.12015 0.837781 0.119768
0.119982 0.837491 0.119829
0.119829 0.837217 0.11989
0.119661 0.836881 0.119936
0.119402 0.836423 0.120027
0.119066 0.835813 0.120134
0.118654 0.835035 0.120287
0.11809 0.834012 0.12047
0.117388 0.832715 0.120714
0.116503 0.831067 0.121019
0.115404 0.829038 0.121386
0.114076 0.826581 0.121843
0.179614 0.819638 0.11986
0.303548 0.816236 0.107454
0.421546 0.822003 0.0962539
0.730983 0.892973 0.151141
0.809995 0.88719 0.152316
0.867552 0.890166 0.158022
0.907027 0.887404 0.159228
0.927367 0.884565 0.158373
0.944137 0.882139 0.158099
0.944106 0.880003 0.157839
0.94406 0.878233 0.15761
0.94403 0.876844 0.157443
0.944015 0.875761 0.157305
0.943999 0.874907 0.157198
0.943984 0.874266 0.157122
0.943969 0.873762 0.157061
0.943969 0.873396 0.157015
0.126192 0.849378 0.117784
0.126192 0.849378 0.117784
0.126192 0.849378 0.117784
0.126192 0.849378 0.117784
0.126192 0.849378 0.117784
0.126192 0.849378 0.117784
0.126192 0.849378 0.117784
0.126192 0.849378 0.117784
0.126192 0.849378 0.117784
0.126192 0.849378 0.117784
0.126192 0.849378 0.117784
0.126192 0.849378 0.117784
0.126192 0.849378 0.117784
0.126192 0.849378 0.117784
0.126192 0.849378 0.117784
0.125383 0.847395 0.117983
0.123873 0.844633 0.118502
0.274205 0.834562 0.112139
0.39472 0.841215 0.101076
0.66772 0.895384 0.137407
0.791867 0.9037 0.152377
0.852537 0.905959 0.157595
0.895644 0.906706 0.161044
0.92018 0.90483 0.161074
0.936934 0.903288 0.160723
0.943709 0.901518 0.16054
0.943755 0.900023 0.160357
0.943801 0.898848 0.16022
0.943832 0.897917 0.160098
0.943847 0.8972 0.160006
0.943877 0.896666 0.159945
0.943893 0.896239 0.159899
0.943893 0.895933 0.159854
0.126192 0.849378 0.117784
0.126192 0.849378 0.117784
0.126192 0.849378 0.117784
0.126192 0.849378 0.117784
0.126192 0.849378 0.117784
0.126192 0.849378 0.117784
0.126192 0.849378 0.117784
0.126192 0.849378 0.117784
0.126192 0.849378 0.117784
0.126192 0.849378 0.117784
0.126192 0.849378 0.117784
0.126192 0.849378 0.117784
0.126192 0.849378 0.117784
0.126192 0.849378 0.117784
0.126192 0.849378 0.117784
0.126192 0.849378 0.117784
0.126192 0.849378 0.117784
0.249546 0.843839 0.112383
0.37052 0.850614 0.102937
0.593484 0.888121 0.120516
0.778714 0.917372 0.155123
0.838209 0.915908 0.155856
0.88539 0.917556 0.160494
0.913985 0.916411 0.161349
0.929046 0.914885 0.160601
0.94287 0.91368 0.160632
0.942962 0.912688 0.160647
0.943038 0.91191 0.160662
0.943099 0.911299 0.160662
0.94313 0.910826 0.160678
0.943175 0.91046 0.160678
0.943191 0.910185 0.160678
0.943206 0.909972 0.160678
0.126192 0.849378 0.117784
0.126192 0.849378 0.117784
0.126192 0.849378 0.117784
0.126192 0.849378 0.117784
0.126192 0.849378 0.117784
0.126192 0.849378 0.117784
0.126192 0.849378 0.117784
0.126192 0.849378 0.117784
0.126192 0.849378 0.117784
0.126192 0.849378 0.117784
0.126192 0.849378 0.117784
0.126192 0.849378 0.117784
0.126192 0.849378 0.117784
0.126192 0.849378 0.117784
0.126192 0.849378 0.117784
0.126192 0.849378 0.117784
0.126192 0.849378 0.117784
0.219196 0.844038 0.114351
0.343008 0.847211 0.104448
0.500786 0.86537 0.103227
0.762387 0.92105 0.156298
0.825315 0.918914 0.154635
0.875654 0.922499 0.159792
0.90837 0.923858 0.161547
0.923217 0.923781 0.160647
0.938033 0.923766 0.160601
0.942535 0.922667 0.160601
0.942535 0.921782 0.160601
0.942535 0.92108 0.160601
0.942519 0.920546 0.160601
0.942519 0.92015 0.160586
0.942519 0.919844 0.160586
0.942519 0.9196 0.160586
0.126192 0.849378 0.117784
0.126192 0.849378 0.117784
0.126192 0.849378 0.117784
0.126192 0.849378 0.117784
0.126192 0.849378 0.117784
0.126192 0.849378 0.117784
