modules/camera-engine/ios/LUTs/panasonic-warm-village.cube
TITLE "Generated by Resolve"
LUT_3D_SIZE 33
0.0386816 0.0213931 0.0218814
0.0386816 0.0213931 0.0218814
0.0386816 0.0213931 0.0218814
0.0539864 0.0213931 0.0222477
0.076997 0.0217441 0.0227207
0.101366 0.0241398 0.0229648
0.128206 0.0283513 0.022858
0.164935 0.0331579 0.0243687
0.218616 0.0365454 0.0263676
0.294987 0.0356756 0.0248722
0.385428 0.0348821 0.0250401
0.467826 0.0355383 0.0273289
0.539574 0.0361639 0.0285039
0.601038 0.0372931 0.0293736
0.651972 0.0384222 0.030457
0.696269 0.0395819 0.031281
0.738384 0.04065 0.0319677
0.779553 0.0417182 0.0324559
0.818677 0.0428779 0.0327306
0.853468 0.0436255 0.0331884
0.864256 0.0437629 0.033402
0.864256 0.0437629 0.033402
0.864256 0.0437629 0.033402
0.864256 0.0437629 0.033402
0.864256 0.0437629 0.033402
0.864256 0.0437629 0.033402
0.864256 0.0437629 0.033402
0.864256 0.0437629 0.033402
0.864256 0.0437629 0.033402
0.864256 0.0437629 0.033402
0.864256 0.0437629 0.033402
0.864256 0.0437629 0.033402
0.864256 0.0437629 0.033402
0.0386816 0.0213931 0.0218814
0.0386816 0.0213931 0.0218814
0.0386816 0.0213931 0.0218814
0.0463264 0.0213931 0.0220645
0.0679942 0.0213931 0.0225681
0.092195 0.0229038 0.0229343
0.117617 0.0266575 0.0229191
0.153323 0.0318303 0.0237888
0.205325 0.0360571 0.0260014
0.280735 0.035996 0.0251774
0.374426 0.0349432 0.0248722
0.460426 0.0354925 0.0271305
0.534493 0.0361181 0.0284428
0.597635 0.0372168 0.0292821
0.649699 0.0383764 0.0304265
0.694514 0.0395056 0.03122
0.736934 0.040589 0.0319066
0.778241 0.0416876 0.0324712
0.817548 0.0428626 0.0327459
0.852552 0.0436103 0.0331731
0.864256 0.0437629 0.033402
0.864256 0.0437629 0.033402
0.864256 0.0437629 0.033402
0.864256 0.0437629 0.033402
0.864256 0.0437629 0.033402
0.864256 0.0437629 0.033402
0.864256 0.0437629 0.033402
0.864256 0.0437629 0.033402
0.864256 0.0437629 0.033402
0.864256 0.0437629 0.033402
0.864256 0.0437629 0.033402
0.864256 0.0437629 0.033402
0.864256 0.0437629 0.033402
0.0386816 0.0213931 0.0218814
0.0386816 0.0213931 0.0218814
0.0386816 0.0213931 0.0218814
0.0387732 0.0213931 0.0218814
0.0594339 0.0213931 0.022385
0.0831769 0.022034 0.0228275
0.107378 0.0248722 0.0229801
0.141344 0.0302892 0.0231327
0.193027 0.0353094 0.0255589
0.267369 0.0364233 0.0256504
0.363073 0.0349584 0.0247196
0.452583 0.0354314 0.0269169
0.529259 0.0360723 0.0284276
0.594217 0.0371557 0.0292515
0.647379 0.0383459 0.0303807
0.692805 0.0394751 0.03122
0.735439 0.0405585 0.0318608
0.776974 0.0416571 0.0324407
0.816403 0.0428321 0.0327611
0.851606 0.0436103 0.0331426
0.864256 0.0437629 0.033402
0.864256 0.0437629 0.033402
0.864256 0.0437629 0.033402
0.864256 0.0437629 0.033402
0.864256 0.0437629 0.033402
0.864256 0.0437629 0.033402
0.864256 0.0437629 0.033402
0.864256 0.0437629 0.033402
0.864256 0.0437629 0.033402
0.864256 0.0437629 0.033402
0.864256 0.0437629 0.033402
0.864256 0.0437629 0.033402
0.864256 0.0437629 0.033402
0.0386816 0.0213931 0.0218814
0.0386816 0.0213931 0.0218814
0.0386816 0.0213931 0.0218814
0.0386816 0.0213931 0.0218814
0.0513619 0.0213931 0.0221866
0.0737621 0.021561 0.0226749
0.0979477 0.0237125 0.0229496
0.130449 0.0287022 0.0228275
0.180301 0.0345159 0.0250401
0.253529 0.0364538 0.0257877
0.351476 0.0349584 0.024567
0.444526 0.0353552 0.0267185
0.524025 0.0360266 0.0283665
0.590677 0.0370947 0.0291752
0.645075 0.0383001 0.0303502
0.691035 0.0394446 0.03122
0.733959 0.040528 0.0318608
0.775647 0.0415961 0.0323949
0.815244 0.042771 0.0326696
0.850629 0.043595 0.0331579
0.864256 0.0437629 0.033402
0.864256 0.0437629 0.033402
0.864256 0.0437629 0.033402
0.864256 0.0437629 0.033402
0.864256 0.0437629 0.033402
0.864256 0.0437629 0.033402
0.864256 0.0437629 0.033402
0.864256 0.0437629 0.033402
0.864256 0.0437629 0.033402
0.864256 0.0437629 0.033402
0.864256 0.0437629 0.033402
0.864256 0.0437629 0.033402
0.864256 0.0437629 0.033402
0.0413367 0.0329137 0.021622
0.0409552 0.031342 0.0216678
0.0405585 0.0297246 0.0216983
0.040177 0.0280919 0.0217441
0.0443275 0.0264286 0.0218509
0.0650645 0.0245975 0.0223087
0.0888228 0.0242618 0.0227512
0.119448 0.0269932 0.0229038
0.167559 0.033463 0.0244755
0.239109 0.0365148 0.0259556
0.339376 0.0349889 0.0244297
0.436133 0.0352941 0.0264744
0.518486 0.0359503 0.0283207
0.587137 0.0370031 0.0290684
0.642664 0.0382239 0.0302586
0.689235 0.0393988 0.0312047
0.732418 0.0404974 0.0318608
0.774289 0.0415656 0.0323949
0.814069 0.0427405 0.0326848
0.849653 0.043595 0.0331273
0.864256 0.0437629 0.033402
0.864256 0.0437629 0.033402
0.864256 0.0437629 0.033402
0.864256 0.0437629 0.033402
0.864256 0.0437629 0.033402
0.864256 0.0437629 0.033402
0.864256 0.0437629 0.033402
0.864256 0.0437629 0.033402
0.864256 0.0437629 0.033402
0.864256 0.0437629 0.033402
0.864256 0.0437629 0.033402
0.864256 0.0437629 0.033402
0.864256 0.0437629 0.033402
0.0451972 0.0504463 0.0214084
0.0446632 0.0480812 0.0214084
0.0441138 0.0456397 0.0214084
0.0435645 0.0432136 0.0214084
0.0429999 0.0407721 0.0214084
0.058732 0.0391852 0.0214542
0.0818036 0.0393225 0.0214389
0.111711 0.0410315 0.0214542
0.159854 0.0445258 0.0237888
0.23064 0.044358 0.0257115
0.328206 0.0371405 0.0238956
0.427085 0.0352483 0.0262913
0.51281 0.0359045 0.0282444
0.583474 0.0369268 0.0289769
0.640269 0.0381781 0.0302129
0.687373 0.0393225 0.0311437
0.730816 0.0404669 0.0318151
0.772946 0.0415351 0.0323644
0.812848 0.04271 0.0326543
0.848676 0.0435798 0.0331121
0.864256 0.0437629 0.033402
0.864256 0.0437629 0.033402
0.864256 0.0437629 0.033402
0.864256 0.0437629 0.033402
0.864256 0.0437629 0.033402
0.864256 0.0437629 0.033402
0.864256 0.0437629 0.033402
0.864256 0.0437629 0.033402
0.864256 0.0437629 0.033402
0.864256 0.0437629 0.033402
0.864256 0.0437629 0.033402
0.864256 0.0437629 0.033402
0.864256 0.0437629 0.033402
0.0499733 0.0702525 0.0226444
0.049424 0.0679332 0.0224765
0.0488289 0.0655222 0.0223087
0.0482185 0.0630045 0.0221408
0.0475929 0.0604105 0.021912
0.0560006 0.058793 0.0218204
0.0755169 0.0571603 0.021561
0.104707 0.0576181 0.0219272
0.150668 0.0605936 0.0246891
0.225834 0.0606088 0.0250553
0.3252 0.0533303 0.0222019
0.423087 0.0447547 0.0225528
0.507546 0.0368658 0.0273899
0.579705 0.0368505 0.0289464
0.637766 0.038117 0.0301671
0.685435 0.0392767 0.0311284
0.72929 0.0404059 0.031754
0.771557 0.0415045 0.0323644
0.811673 0.0426947 0.0326543
0.8477 0.043534 0.0330205
0.864256 0.0437629 0.033402
0.864256 0.0437629 0.033402
0.864256 0.0437629 0.033402
0.864256 0.0437629 0.033402
0.864256 0.0437629 0.033402
0.864256 0.0437629 0.033402
0.864256 0.0437629 0.033402
0.864256 0.0437629 0.033402
0.864256 0.0437629 0.033402
0.864256 0.0437629 0.033402
0.864256 0.0437629 0.033402
0.864256 0.0437629 0.033402
0.864256 0.0437629 0.033402
0.0552224 0.0921798 0.0292058
0.0547036 0.0900587 0.0285496
0.0542 0.0878157 0.0278325
0.053666 0.0855573 0.0271611
0.0530861 0.0831617 0.0263676
0.0526741 0.080766 0.0256199
0.0720836 0.0814527 0.0254215
0.0977493 0.0799878 0.0247654
0.1393 0.0815442 0.0267338
0.214984 0.0832837 0.0258183
0.318364 0.0786603 0.0223697
0.419883 0.0697185 0.0213931
0.504829 0.0578622 0.0213931
0.576043 0.0428473 0.0226444
0.634562 0.0380407 0.0300603
0.683116 0.0392309 0.0310979
0.727337 0.0403601 0.0317388
0.769924 0.041474 0.0323796
0.810208 0.042649 0.0326696
0.846479 0.0435187 0.0330358
0.864256 0.0437629 0.033402
0.864256 0.0437629 0.033402
0.864256 0.0437629 0.033402
0.864256 0.0437629 0.033402
0.864256 0.0437629 0.033402
0.864256 0.0437629 0.033402
0.864256 0.0437629 0.033402
0.864256 0.0437629 0.033402
0.864256 0.0437629 0.033402
0.864256 0.0437629 0.033402
0.864256 0.0437629 0.033402
0.864256 0.0437629 0.033402
0.864256 0.0437629 0.033402
0.0610666 0.120455 0.0379339
0.0607462 0.118181 0.0373083
0.0602884 0.115953 0.0366674
0.0598611 0.113817 0.0360266
0.0593576 0.111543 0.0353094
0.0588846 0.109285 0.0346227
0.0659648 0.108659 0.0341497
0.091722 0.11078 0.0325628
0.128817 0.10956 0.0303349
0.197086 0.111376 0.0281224
0.303365 0.112032 0.0239261
0.41355 0.107729 0.0213931
0.500664 0.0990921 0.0213931
0.573922 0.0835126 0.0213931
0.632731 0.0611582 0.0221561
0.680171 0.0405737 0.0294194
0.724804 0.0402991 0.0317082
0.767666 0.0413672 0.0323033
0.808286 0.0426032 0.0326543
0.8448 0.0435035 0.03299
0.864256 0.0437629 0.033402
0.864256 0.0437629 0.033402
0.864256 0.0437629 0.033402
0.864256 0.0437629 0.033402
0.864256 0.0437629 0.033402
0.864256 0.0437629 0.033402
0.864256 0.0437629 0.033402
0.864256 0.0437629 0.033402
0.864256 0.0437629 0.033402
0.864256 0.0437629 0.033402
0.864256 0.0437629 0.033402
0.864256 0.0437629 0.033402
0.864256 0.0437629 0.033402
0.0673838 0.160525 0.0478828
0.0669718 0.158068 0.047303
0.0665599 0.155581 0.0466773
0.0661173 0.152956 0.0460365
0.0656748 0.150378 0.0453956
0.0652171 0.147723 0.0447395
0.0648508 0.145327 0.0441596
0.0802014 0.146654 0.0434119
0.118517 0.151125 0.0399786
0.173785 0.147723 0.0334783
0.28011 0.152178 0.0274968
0.402029 0.152911 0.0218509
0.49691 0.14992 0.0213779
0.572305 0.140475 0.0214694
0.633097 0.121904 0.0218509
0.68072 0.0920119 0.0222171
0.723064 0.0576486 0.0242313
0.764782 0.0413062 0.0323186
0.805722 0.0424964 0.0326085
0.842603 0.0434577 0.0329595
0.864256 0.0437629 0.033402
0.864256 0.0437629 0.033402
0.864256 0.0437629 0.033402
0.864256 0.0437629 0.033402
0.864256 0.0437629 0.033402
0.864256 0.0437629 0.033402
0.864256 0.0437629 0.033402
0.864256 0.0437629 0.033402
0.864256 0.0437629 0.033402
0.864256 0.0437629 0.033402
0.864256 0.0437629 0.033402
0.864256 0.0437629 0.033402
0.864256 0.0437629 0.033402
0.076936 0.214771 0.0600748
0.0764935 0.212299 0.0595407
0.0760357 0.209735 0.0590524
0.0755474 0.207126 0.0585031
0.0750744 0.204425 0.0579232
0.0746319 0.201923 0.0573739
0.0741588 0.199451 0.0568246
0.0735943 0.196384 0.0561379
0.101595 0.200076 0.0548714
0.1552 0.207004 0.0493172
0.246265 0.202731 0.0356298
0.382605 0.210925 0.025452
0.493217 0.212451 0.021973
0.572671 0.206317 0.0221256
0.634516 0.19324 0.0223697
0.682658 0.17052 0.0226596
0.724697 0.139132 0.0229038
0.765255 0.0975662 0.0231327
0.80351 0.0548867 0.0263981
0.83975 0.0433814 0.0328832
0.864256 0.0437629 0.033402
0.864256 0.0437629 0.033402
0.864256 0.0437629 0.033402
0.864256 0.0437629 0.033402
0.864256 0.0437629 0.033402
0.864256 0.0437629 0.033402
0.864256 0.0437629 0.033402
0.864256 0.0437629 0.033402
0.864256 0.0437629 0.033402
0.864256 0.0437629 0.033402
0.864256 0.0437629 0.033402
0.864256 0.0437629 0.033402
0.864256 0.0437629 0.033402
0.0877546 0.281361 0.0717479
0.0873884 0.279133 0.071397
0.0869764 0.276768 0.0710002
0.0866102 0.274434 0.0706188
0.0861982 0.272038 0.0702068
0.0858625 0.269841 0.0698711
0.0854658 0.267582 0.0694743
0.0849928 0.264683 0.0689403
0.0843214 0.260807 0.0682536
0.13257 0.269413 0.0671855
0.210636 0.280934 0.0582742
0.343496 0.27715 0.0365301
0.480781 0.28687 0.0243992
0.570153 0.285176 0.0233005
0.634791 0.273548 0.0233158
0.685145 0.253941 0.02327
0.728466 0.228489 0.0235142
0.768475 0.19791 0.023743
0.806073 0.160967 0.0238804
0.840681 0.114931 0.0239719
0.865904 0.0628672 0.0239719
0.864256 0.0437629 0.033402
0.864256 0.0437629 0.033402
0.864256 0.0437629 0.033402
0.864256 0.0437629 0.033402
0.864256 0.0437629 0.033402
0.864256 0.0437629 0.033402
0.864256 0.0437629 0.033402
0.864256 0.0437629 0.033402
0.864256 0.0437629 0.033402
0.864256 0.0437629 0.033402
0.864256 0.0437629 0.033402
0.864256 0.0437629 0.033402
0.100496 0.357137 0.0838331
0.100221 0.355261 0.0835737
0.0999313 0.353262 0.0832837
0.0996872 0.351293 0.0830549
0.0994125 0.349294 0.0827802
0.0990768 0.347295 0.0824903
0.0987564 0.345266 0.0821546
0.0983291 0.342779 0.0817731
0.097734 0.339483 0.0812238
0.104646 0.337301 0.0813458
0.172351 0.351202 0.0781109
0.291646 0.369848 0.0650187
0.444953 0.362295 0.0360113
0.558145 0.368566 0.0268864
0.631479 0.362661 0.0254673
0.684337 0.343694 0.0248722
0.729778 0.319905 0.0247196
0.771252 0.293629 0.0247654
0.810346 0.265568 0.0248112
0.84538 0.234058 0.0248569
0.87335 0.198093 0.0247501
0.870909 0.157687 0.0244602
0.868498 0.114961 0.0241855
0.866529 0.0740368 0.0240177
0.8645 0.0486458 0.0304723
0.864256 0.0437629 0.033402
0.864256 0.0437629 0.033402
0.864256 0.0437629 0.033402
0.864256 0.0437629 0.033402
0.864256 0.0437629 0.033402
0.864256 0.0437629 0.033402
0.864256 0.0437629 0.033402
0.864256 0.0437629 0.033402
0.110658 0.428489 0.0919509
0.110445 0.4271 0.0918288
0.110216 0.425589 0.0916609
0.110002 0.424186 0.0914931
0.109773 0.42266 0.0913252
0.10956 0.421134 0.0911574
0.109331 0.419608 0.0909895
0.109087 0.417899 0.0908064
0.10869 0.415457 0.0905318
0.108232 0.412253 0.0901961
0.129396 0.413306 0.0906233
0.22414 0.434455 0.0845502
0.396963 0.458671 0.0618906
0.52607 0.440757 0.0378576
0.61796 0.441459 0.0301061
0.678477 0.430472 0.0279088
0.727749 0.411673 0.0272221
0.771221 0.389227 0.0264897
0.811109 0.364157 0.026276
0.847684 0.339117 0.0261387
0.877623 0.312047 0.0258335
0.881422 0.284794 0.0255589
0.879286 0.258076 0.0252842
0.877211 0.232593 0.0250553
0.875105 0.209216 0.0248417
0.873289 0.187915 0.0246891
0.871824 0.169879 0.0245365
0.870695 0.154391 0.024445
0.869963 0.141939 0.0243381
0.869322 0.131853 0.0242618
0.868894 0.12372 0.0242313
0.86862 0.117556 0.0241855
0.868391 0.11281 0.0241703
0.121096 0.49659 0.0993362
0.120897 0.495445 0.0992142
0.120775 0.494423 0.0991226
0.120577 0.493248 0.0990005
0.120439 0.492119 0.0988937
0.120226 0.490959 0.0987259
0.120043 0.489891 0.0986191
0.119814 0.488457 0.098497
0.119539 0.486686 0.0982986
0.119188 0.484245 0.098024
0.118685 0.481056 0.0977188
0.164309 0.486427 0.0970779
0.291264 0.511345 0.0878004
0.499336 0.535241 0.0563821
0.58941 0.504891 0.039353
0.66421 0.499367 0.0333104
0.719524 0.486824 0.0308995
0.766613 0.470878 0.0297246
0.808377 0.451545 0.0290379
0.846372 0.430808 0.0282597
0.877974 0.410651 0.0277256
0.88893 0.391485 0.0273899
0.88777 0.373571 0.0270085
0.88661 0.35639 0.0266423
0.885573 0.340963 0.0263066
0.884596 0.327153 0.0260929
0.883757 0.315633 0.0259098
0.883101 0.306294 0.0257572
0.882506 0.298802 0.0256962
0.882033 0.292882 0.0256352
0.881712 0.288304 0.0255741
0.881422 0.284779 0.0255589
0.881193 0.282109 0.0254978
0.129961 0.557977 0.104921
0.129854 0.557107 0.10486
0.129763 0.556313 0.104784
0.129625 0.55552 0.104707
0.129519 0.55465 0.104616
0.129381 0.553857 0.104585
0.12929 0.552972 0.104509
0.129122 0.551949 0.104417
0.128969 0.550652 0.104326
0.128725 0.548852 0.104158
0.12842 0.546532 0.10399
0.127977 0.543542 0.103731
0.212436 0.555123 0.101122
0.375769 0.576013 0.0865797
0.57084 0.591974 0.0549477
0.639933 0.558984 0.0431983
0.704387 0.549798 0.0383154
0.757382 0.538399 0.0350805
0.802365 0.524804 0.0333257
0.841764 0.508858 0.0323491
0.874891 0.492866 0.0317998
0.894194 0.478447 0.0311284
0.893462 0.465873 0.0303502
0.892775 0.454383 0.0296788
0.892195 0.444312 0.029099
0.891646 0.435279 0.028748
0.891218 0.427878 0.0284428
0.890852 0.421942 0.0281834
0.890593 0.417151 0.0280156
0.890379 0.41355 0.0278782
0.890196 0.410651 0.0278172
0.890043 0.408392 0.0277562
0.889921 0.406699 0.0277256
0.136217 0.611521 0.108675
0.136156 0.610895 0.108644
0.136049 0.610315 0.108583
0.136004 0.609705 0.108522
0.135943 0.609125 0.108492
0.135897 0.608499 0.108446
0.135775 0.607858 0.10837
0.135729 0.607172 0.108309
0.135576 0.606119 0.108217
0.13547 0.604883 0.108141
0.135271 0.603159 0.108003
0.134997 0.600839 0.107836
0.1346 0.597681 0.107607
0.27538 0.61677 0.101213
0.489174 0.633783 0.0733043
0.625635 0.635111 0.054902
0.681468 0.603738 0.0485389
0.742199 0.59443 0.0446784
0.792187 0.584375 0.0417182
0.834409 0.572747 0.0389563
0.869459 0.560494 0.0374151
0.897383 0.548836 0.0368048
0.897963 0.540276 0.0358892
0.897475 0.532311 0.0350652
0.897047 0.525277 0.0344549
0.896651 0.519326 0.0339513
0.896361 0.514519 0.0335393
0.896147 0.510552 0.0331884
0.895949 0.507317 0.0329442
0.895766 0.504723 0.0327459
0.895674 0.502724 0.0326085
0.895598 0.501305 0.0325322
0.895491 0.500099 0.0324559
0.141711 0.657877 0.11252
0.14168 0.657435 0.112505
0.141649 0.656977 0.112444
0.141604 0.656519 0.112428
0.141497 0.656031 0.112352
0.141451 0.655528 0.112337
0.141405 0.655024 0.112276
0.141344 0.654429 0.112261
0.141207 0.653681 0.112169
0.141115 0.652598 0.112078
0.140932 0.651209 0.11194
0.140688 0.649393 0.111818
0.140429 0.647089 0.111604
0.157931 0.646143 0.11249
0.354803 0.667857 0.0997482
0.572946 0.681147 0.0655222
0.666941 0.670771 0.0574044
0.720333 0.643641 0.053254
0.777249 0.634684 0.0508278
0.82359 0.626154 0.0490272
0.861448 0.616953 0.0474403
0.891447 0.60734 0.0462654
0.901823 0.599878 0.0450446
0.901457 0.593957 0.0437781
0.901122 0.588693 0.0426642
0.900847 0.584329 0.0417792
0.900603 0.580789 0.0410925
0.900435 0.57792 0.0406958
0.900282 0.575738 0.0403754
0.900175 0.57406 0.0401465
0.900069 0.572732 0.0399481
0.900008 0.57171 0.0398108
0.899962 0.570977 0.0396887
0.145983 0.696727 0.11577
0.145953 0.696376 0.115755
0.145922 0.695994 0.115694
0.145815 0.695583 0.115663
0.1458 0.695216 0.115618
0.145754 0.694804 0.115602
0.145739 0.694438 0.115587
0.145693 0.693996 0.115526
0.145647 0.693385 0.115496
0.14551 0.692531 0.115373
0.145434 0.691463 0.115282
0.145251 0.690074 0.115175
0.145052 0.688304 0.115023
0.144869 0.686046 0.114855
0.234028 0.692592 0.114351
0.446052 0.707942 0.0954757
0.63299 0.719829 0.0660563
0.705257 0.702739 0.0606699
0.756863 0.679515 0.0571298
0.808972 0.671412 0.0570077
0.850462 0.664088 0.0560769
0.883009 0.656443 0.0556039
0.904753 0.649531 0.0552529
0.904479 0.645014 0.0544594
0.904265 0.640955 0.0536507
0.904067 0.637644 0.0529793
0.903929 0.634852 0.0524147
0.903777 0.632685 0.0519875
0.903685 0.630976 0.0516518
0.903624 0.629664 0.0513924
0.903532 0.628641 0.051194
0.903502 0.627863 0.0510109
0.903471 0.627298 0.0509194
0.149477 0.730434 0.118563
0.149447 0.730129 0.118563
0.149432 0.729793 0.118502
0.149401 0.729473 0.118486
0.149386 0.729168 0.118486
0.149279 0.728832 0.118456
0.149264 0.728511 0.11841
0.149233 0.728115 0.118379
0.149187 0.727611 0.118318
0.149142 0.726955 0.118303
0.149004 0.726009 0.118212
0.148928 0.72488 0.118135
0.148745 0.723369 0.117983
0.148592 0.721447 0.117861
0.148333 0.719005 0.117632
0.334142 0.734905 0.108461
0.559716 0.74435 0.0782177
0.684764 0.754086 0.067689
0.740764 0.730404 0.0635996
0.790082 0.711315 0.0606699
0.836713 0.704524 0.0620127
0.872618 0.698039 0.0615702
0.899626 0.691798 0.0614939
0.907057 0.687312 0.0611429
0.906859 0.683986 0.0606851
0.906737 0.681239 0.0602731
0.9066 0.679026 0.0599374
0.906508 0.677211 0.059678
0.906416 0.675822 0.0594797
0.906371 0.674739 0.0592966
0.906325 0.673884 0.0591745
0.906264 0.673274 0.0590829
0.906233 0.672816 0.0590219
0.151965 0.758907 0.120623
0.151949 0.758648 0.120623
0.151934 0.758389 0.120607
0.151919 0.758099 0.120592
0.151904 0.757839 0.120592
0.151873 0.757534 0.120546
0.151858 0.757259 0.120531
0.151827 0.756924 0.120516
0.151797 0.756466 0.12047
0.151751 0.755901 0.120455
0.151705 0.755123 0.120378
0.151553 0.754101 0.120302
0.151476 0.752834 0.120211
0.151354 0.751202 0.120119
0.151141 0.749203 0.119966
0.206806 0.750927 0.120317
0.439216 0.767788 0.103258
0.635386 0.776425 0.0698405
0.732479 0.784405 0.0693065
0.773495 0.753933 0.0655833
0.819959 0.740627 0.0641947
0.859922 0.734615 0.0661021
0.889708 0.728801 0.0661936
0.908797 0.723812 0.0660105
0.90866 0.720821 0.0656138
0.908583 0.718379 0.0652781
0.908492 0.716411 0.0650187
0.908431 0.714794 0.0648051
0.908354 0.713573 0.0646525
0.908324 0.712612 0.0645151
0.908293 0.711849 0.0644083
0.908278 0.71133 0.064332
0.908263 0.710903 0.064271
0.153765 0.782559 0.122148
0.15375 0.78233 0.122133
0.153735 0.782101 0.122087
0.153735 0.781857 0.122087
0.153704 0.781582 0.122087
0.153704 0.781353 0.122072
0.153689 0.781109 0.122072
0.153658 0.780819 0.122072
0.153643 0.780423 0.122011
0.153613 0.779934 0.121996
0.153567 0.779232 0.121935
0.153445 0.778317 0.121904
0.153368 0.777157 0.121828
0.153277 0.775708 0.121752
0.15317 0.773922 0.121599
0.153033 0.771756 0.121508
0.347311 0.786114 0.111803
0.572778 0.794827 0.085832
0.6963 0.805142 0.069688
0.773632 0.806851 0.0703136
0.804959 0.776379 0.0672313
0.845228 0.766491 0.0673228
0.878172 0.761364 0.0695048
0.902235 0.756466 0.0699321
0.909606 0.753124 0.06981
0.909575 0.75079 0.0695506
0.909545 0.748943 0.069337
0.909529 0.747478 0.0691539
0.909529 0.746334 0.0690166
0.909514 0.745449 0.0688945
0.909499 0.744747 0.0688182
0.909499 0.744228 0.0687572
0.909499 0.743816 0.0686961
0.155047 0.801617 0.123049
0.155047 0.801434 0.123049
0.155032 0.801221 0.123049
0.155016 0.801007 0.123033
0.155001 0.800778 0.123033
0.155001 0.80058 0.123033
0.154986 0.800366 0.123033
0.154955 0.800092 0.123018
0.15494 0.799756 0.123018
0.15491 0.799298 0.122972
0.154879 0.798688 0.122957
0.154833 0.797925 0.122942
0.154757 0.796933 0.122881
0.154681 0.795682 0.12282
0.154513 0.794079 0.122728
0.154391 0.792096 0.122637
0.241108 0.796002 0.121767
0.486427 0.811429 0.100908
0.658625 0.820386 0.071931
0.751553 0.83151 0.0727245
0.803952 0.818875 0.0707103
0.831785 0.794766 0.0685435
0.865705 0.788113 0.0696422
0.892103 0.783993 0.0715038
0.909712 0.780285 0.072343
0.909712 0.778241 0.0722515
0.909712 0.776547 0.0720989
0.909667 0.775204 0.0719768
0.909667 0.774136 0.07187
0.909667 0.773266 0.0717937
0.909667 0.772641 0.0717632
0.909667 0.772183 0.0717021
0.909667 0.771832 0.0716564
0.155566 0.809644 0.123354
0.155566 0.809644 0.123354
0.155566 0.809644 0.123354
0.155566 0.809644 0.123354
0.155566 0.809644 0.123354
0.155566 0.809644 0.123354
0.155566 0.809644 0.123354
0.155566 0.809644 0.123354
0.155566 0.809644 0.123354
0.155566 0.809644 0.123354
0.155566 0.809644 0.123354
0.155566 0.809644 0.123354
0.155566 0.809644 0.123354
0.155566 0.809644 0.123354
0.155566 0.809644 0.123354
0.155474 0.808118 0.123354
0.155337 0.805997 0.123262
0.414389 0.824201 0.109239
0.620554 0.832074 0.0789502
0.725353 0.844251 0.0731823
0.798764 0.849928 0.0729381
0.828901 0.826535 0.070573
0.854353 0.810269 0.0700236
0.882078 0.80592 0.0713512
0.902571 0.802563 0.0728008
0.909529 0.800137 0.073228
0.909545 0.798657 0.0732128
0.909545 0.797421 0.0732128
0.90956 0.796506 0.0732128
0.909575 0.795773 0.073167
0.909575 0.795148 0.0731518
0.909575 0.794705 0.073106
0.909575 0.7944 0.0730907
0.155566 0.809644 0.123354
0.155566 0.809644 0.123354
0.155566 0.809644 0.123354
0.155566 0.809644 0.123354
0.155566 0.809644 0.123354
0.155566 0.809644 0.123354
0.155566 0.809644 0.123354
0.155566 0.809644 0.123354
0.155566 0.809644 0.123354
0.155566 0.809644 0.123354
0.155566 0.809644 0.123354
0.155566 0.809644 0.123354
0.155566 0.809644 0.123354
0.155566 0.809644 0.123354
0.155566 0.809644 0.123354
0.155566 0.809644 0.123354
0.155566 0.809644 0.123354
0.351156 0.825483 0.113909
0.582498 0.837201 0.0869612
0.702251 0.851698 0.0732891
0.782818 0.86334 0.0745098
0.828641 0.853727 0.0719463
0.850233 0.832547 0.0707561
0.873274 0.823072 0.0713359
0.894682 0.819654 0.0726329
0.909148 0.817075 0.0733654
0.909178 0.815702 0.0733654
0.909194 0.814664 0.0733501
0.909209 0.813825 0.0733501
0.909239 0.813123 0.0733349
0.909239 0.812573 0.0733349
0.909255 0.812192 0.0733349
0.90927 0.811841 0.0733349
0.155566 0.809644 0.123354
0.155566 0.809644 0.123354
0.155566 0.809644 0.123354
0.155566 0.809644 0.123354
0.155566 0.809644 0.123354
0.155566 0.809644 0.123354
0.155566 0.809644 0.123354
0.155566 0.809644 0.123354
0.155566 0.809644 0.123354
0.155566 0.809644 0.123354
0.155566 0.809644 0.123354
0.155566 0.809644 0.123354
0.155566 0.809644 0.123354
0.155566 0.809644 0.123354
0.155566 0.809644 0.123354
0.155566 0.809644 0.123354
0.155566 0.809644 0.123354
0.285344 0.819654 0.120165
0.543633 0.835279 0.0936141
0.682643 0.848524 0.0728771
0.767605 0.862242 0.0749065
0.823377 0.862608 0.0725567
0.84741 0.845167 0.0712596
0.867185 0.833829 0.0713359
0.887816 0.831022 0.0723735
0.904189 0.830091 0.0732738
0.908904 0.828519 0.0734722
0.908949 0.827497 0.0734722
0.90898 0.826673 0.0734569
0.90898 0.826032 0.0734569
0.908995 0.825559 0.0734569
0.90901 0.825193 0.0734569
0.90901 0.824872 0.0734417
0.155566 0.809644 0.123354
