modules/camera-engine/ios/LUTs/panasonic-txd-grainy-film.cube
# Created by Adobe Lightroom plugin Export LUT (1.24.0)
# www.johnrellis.com/lightroom/exportlut.htm
# Photo: P1015911 拷贝.jpg
# Color profile: C:\Program Files (x86)\Common Files\Adobe\Color\Profiles\Recommended\sRGB Color Space Profile.icm
LUT_3D_SIZE 5
DOMAIN_MIN 0.0 0.0 0.0
DOMAIN_MAX 1.0 1.0 1.0
0.094728 0.099367 0.084199
0.084077 0.097322 0.083131
0.558160 0.105318 0.002625
0.962921 0.074922 0.000000
1.000000 0.177005 0.000000
0.053956 0.076600 0.056672
0.085878 0.092805 0.047364
0.560327 0.248386 0.000000
0.953216 0.268467 0.000000
1.000000 0.305608 0.000000
0.000000 0.344213 0.136995
0.000000 0.267796 0.082673
0.424353 0.456367 0.000000
0.926635 0.565026 0.000000
1.000000 0.574212 0.000000
0.000000 0.694301 0.390082
0.000000 0.653864 0.324804
0.000000 0.502770 0.225040
0.781613 0.759976 0.437293
1.000000 0.812833 0.557305
0.465644 0.899260 0.750301
0.497139 0.891875 0.738521
0.581872 0.868406 0.713252
0.752712 0.871885 0.749905
0.948272 0.935302 0.816434
0.081361 0.087251 0.062898
0.081758 0.066560 0.064515
0.523491 0.000000 0.048676
0.936919 0.000000 0.000000
1.000000 0.000000 0.000000
0.007874 0.100557 0.095491
0.096010 0.100984 0.085756
0.517571 0.138216 0.060060
0.931731 0.163210 0.000000
1.000000 0.260960 0.000000
0.000000 0.432929 0.261631
0.000000 0.369848 0.201816
0.428138 0.450599 0.170443
0.908293 0.561852 0.191012
1.000000 0.578363 0.240909
0.000000 0.730007 0.478431
0.000000 0.696559 0.452003
0.060029 0.553185 0.293828
0.779446 0.756466 0.514275
1.000000 0.816342 0.614130
0.425330 0.906157 0.762631
0.508873 0.895811 0.759335
0.582666 0.871550 0.725582
0.741512 0.863340 0.747951
0.947570 0.934783 0.824399
0.121248 0.012573 0.375463
0.290471 0.000000 0.367895
0.478798 0.000000 0.298924
0.943542 0.000000 0.323064
1.000000 0.000000 0.288701
0.000000 0.143374 0.420478
0.174166 0.112428 0.411627
0.495796 0.105135 0.339605
0.929625 0.000000 0.347173
1.000000 0.248478 0.375158
0.000000 0.462318 0.545220
0.000000 0.461646 0.523491
0.442542 0.448829 0.440406
0.872251 0.510735 0.473182
1.000000 0.579492 0.506828
0.000000 0.822629 0.707240
0.000000 0.800961 0.681636
0.448951 0.709712 0.607965
0.785306 0.759396 0.659480
0.989868 0.826413 0.718563
0.000000 0.952056 0.792905
0.194644 0.937407 0.803311
0.649378 0.904845 0.809537
0.737301 0.857115 0.770596
0.949340 0.938048 0.855467
0.146883 0.000000 0.774899
0.396521 0.000000 0.772213
0.772946 0.000000 0.760891
0.915709 0.000000 0.650324
1.000000 0.410407 0.684321
0.000000 0.145998 0.781277
0.285069 0.133516 0.777829
0.725093 0.084504 0.759548
0.891417 0.242252 0.664149
1.000000 0.478004 0.698116
0.000000 0.454994 0.798459
0.000000 0.471687 0.790494
0.579461 0.512718 0.772091
0.838621 0.555261 0.719997
1.000000 0.616541 0.738766
0.000000 0.740902 0.840146
0.000000 0.747677 0.835050
0.463996 0.760067 0.819303
0.770047 0.740810 0.766293
0.994965 0.787259 0.788052
0.000000 1.000000 0.913359
0.000000 1.000000 0.905028
0.000000 0.972015 0.888243
0.786801 0.915465 0.866819
0.951934 0.941619 0.898863
0.412940 0.000000 0.959564
0.559136 0.000000 0.958099
0.839963 0.166629 0.950866
1.000000 0.421637 0.935363
1.000000 0.538598 0.872526
0.370672 0.256596 0.959503
0.531121 0.276310 0.957244
0.818112 0.355505 0.949035
1.000000 0.506310 0.934417
1.000000 0.591608 0.878538
0.000000 0.389837 0.970092
0.000000 0.454627 0.964508
0.739925 0.597345 0.949554
0.966857 0.652979 0.938415
1.000000 0.701686 0.896605
0.000000 0.629541 0.975586
0.000000 0.649439 0.973114
0.293309 0.731746 0.960876
0.858000 0.787747 0.947234
0.990692 0.821653 0.921843
0.000000 0.884489 0.978943
0.000000 0.880674 0.975067
0.000000 0.889525 0.974273
0.646326 0.919890 0.962737
0.960113 0.949462 0.959564
