modules/camera-engine/ios/LUTs/panasonic-fresh-cuisine.cube
TITLE "Generated by Resolve"
LUT_3D_SIZE 5
0.103975 0.101106 0.080766
0.319387 0.163806 0.0822766
0.779126 0.249836 0.0910201
0.895491 0.257481 0.0958877
0.895491 0.257481 0.0958877
0.117449 0.220645 0.117006
0.203693 0.229145 0.106432
0.762341 0.245991 0.089189
0.895491 0.257481 0.0958877
0.895491 0.257481 0.0958877
0.180743 0.539101 0.159747
0.181231 0.537331 0.160616
0.698924 0.645304 0.25481
0.861128 0.481025 0.197742
0.861906 0.456077 0.186923
0.2121 0.727916 0.184009
0.2121 0.727916 0.184009
0.2121 0.727916 0.184009
0.910903 0.836759 0.29984
0.921279 0.826673 0.294835
0.2121 0.727916 0.184009
0.2121 0.727916 0.184009
0.2121 0.727916 0.184009
0.898726 0.865675 0.307881
0.922393 0.842527 0.297307
0.10399 0.160281 0.243977
0.333562 0.188159 0.248859
0.786633 0.253971 0.132097
0.900053 0.258778 0.106401
0.898924 0.257816 0.102602
0.174517 0.262333 0.271611
0.197742 0.236744 0.251789
0.766369 0.249012 0.118502
0.897063 0.256992 0.0997024
0.896147 0.256687 0.097612
0.181125 0.537682 0.160433
0.181582 0.535851 0.161273
0.693553 0.640467 0.253132
0.860746 0.475074 0.195132
0.862608 0.448493 0.183581
0.2121 0.727916 0.184009
0.2121 0.727916 0.184009
0.2121 0.727916 0.184009
0.909911 0.835874 0.300191
0.921141 0.825071 0.294575
0.2121 0.727916 0.184009
0.2121 0.727916 0.184009
0.2121 0.727916 0.184009
0.897566 0.866499 0.308141
0.922393 0.842527 0.297307
0.128496 0.283162 0.639292
0.150866 0.272725 0.629511
0.81648 0.357855 0.604944
0.931105 0.348714 0.512001
0.93077 0.347875 0.508995
0.12781 0.282521 0.634775
0.127749 0.281941 0.63444
0.802457 0.355093 0.602869
0.930434 0.347036 0.505989
0.930098 0.346181 0.502892
0.372793 0.662516 0.700999
0.371435 0.657526 0.701274
0.60885 0.645167 0.671733
0.908186 0.459632 0.45301
0.909377 0.432166 0.440436
0.274479 0.745327 0.444572
0.273152 0.744549 0.441444
0.266743 0.742107 0.42565
0.900069 0.849577 0.431189
0.917876 0.831495 0.411292
0.251087 0.739178 0.385397
0.249866 0.739101 0.382162
0.243717 0.738766 0.365866
0.879545 0.879927 0.405676
0.918563 0.853529 0.382803
0.179873 0.329168 0.817105
0.17966 0.32903 0.816831
0.736095 0.348135 0.863447
0.927459 0.396399 0.861189
0.927687 0.396017 0.859998
0.178744 0.328405 0.815518
0.178561 0.328283 0.815259
0.703853 0.341588 0.858167
0.927932 0.395605 0.858778
0.928176 0.395163 0.857557
0.338979 0.601221 0.875608
0.334524 0.592447 0.872694
0.445121 0.525261 0.834485
0.922911 0.449256 0.8327
0.926482 0.437079 0.836057
0.419104 0.857069 0.876829
0.419059 0.855314 0.876707
0.418143 0.84654 0.875319
0.8757 0.875166 0.884245
0.917006 0.863539 0.877699
0.418784 0.860655 0.871794
0.418738 0.860685 0.871504
0.418509 0.860807 0.870085
0.83476 0.909194 0.87805
0.912001 0.914199 0.873503
0.181048 0.329961 0.818753
0.181048 0.329961 0.818753
0.719676 0.346777 0.86595
0.925658 0.400916 0.869657
0.925658 0.400916 0.869657
0.181048 0.329961 0.818753
0.181048 0.329961 0.818753
0.68394 0.340963 0.861601
0.925658 0.400916 0.869657
0.925658 0.400916 0.869657
0.325689 0.576791 0.875242
0.321172 0.568261 0.872572
0.435233 0.514412 0.851087
0.923262 0.442359 0.859464
0.925719 0.428122 0.859342
0.415717 0.846281 0.893706
0.415488 0.8448 0.893828
0.414786 0.837781 0.89543
0.872892 0.872023 0.920165
0.915404 0.860746 0.918288
0.417029 0.853223 0.894163
0.417029 0.853223 0.894163
0.417029 0.853223 0.894163
0.830549 0.909865 0.919814
0.916106 0.91223 0.919844
