modules/camera-engine/ios/LUTs/panasonic-film-vintage.cube
TITLE "Generated by Resolve"
LUT_3D_SIZE 33
0 0 0
0 0 0
0 0 0
0 0 0
0.0148318 0 0
0.0466773 0.0267491 0
0.0776074 0.0322118 0
0.114305 0.0368658 0
0.157015 0.0409552 0
0.205783 0.0445716 0
0.260822 0.0488594 0
0.322438 0.0539559 0
0.390707 0.0609751 0
0.465415 0.0707103 0
0.546059 0.0834363 0
0.6318 0.0983139 0
0.721477 0.112963 0
0.813046 0.125933 0
0.903593 0.137896 0
0.990234 0.148836 0
1 0.152499 0
1 0.152499 0
1 0.152499 0
1 0.152499 0
1 0.152499 0
1 0.152499 0
1 0.152499 0
1 0.152499 0
1 0.152499 0
1 0.152499 0
1 0.152499 0
1 0.152499 0
1 0.152499 0
0 0 0
0 0 0
0 0 0
0 0 0
0.00361639 0 0
0.0202182 0 0
0.0657664 0.0301518 0
0.103456 0.0356451 0
0.147616 0.040116 0
0.197604 0.0442359 0
0.253834 0.0483253 0
0.316411 0.0534218 0
0.385473 0.0603799 0
0.460868 0.0700542 0
0.542062 0.0827649 0
0.628244 0.0977035 0
0.718257 0.112474 0
0.810132 0.125551 0
0.900923 0.137545 0
0.987762 0.148531 0
1 0.152499 0
1 0.152499 0
1 0.152499 0
1 0.152499 0
1 0.152499 0
1 0.152499 0
1 0.152499 0
1 0.152499 0
1 0.152499 0
1 0.152499 0
1 0.152499 0
1 0.152499 0
1 0.152499 0
0 0 0
0 0 0
0 0 0
0 0 0
0 0 0
0.0179599 0 0
0.0538949 0.0280156 0
0.0920729 0.0342565 0
0.137819 0.0392157 0
0.189212 0.043595 0
0.246647 0.047776 0
0.310216 0.0528725 0
0.380133 0.0597848 0
0.456214 0.069398 0
0.537987 0.0820935 0
0.624628 0.0970779 0
0.715007 0.111971 0
0.807172 0.125139 0
0.898207 0.137194 0
0.98526 0.148226 0
1 0.152499 0
1 0.152499 0
1 0.152499 0
1 0.152499 0
1 0.152499 0
1 0.152499 0
1 0.152499 0
1 0.152499 0
1 0.152499 0
1 0.152499 0
1 0.152499 0
1 0.152499 0
1 0.152499 0
0 0 0
0 0 0
0 0 0
0 0 0
0 0 0
0.00735485 0 0
0.0429999 0.0261692 0
0.0801556 0.0326085 0
0.12755 0.0382239 0
0.180514 0.0429084 0
0.239231 0.0472114 0
0.303868 0.0523232 0
0.37467 0.0591745 0
0.451484 0.0687266 0
0.533837 0.0814069 0
0.620935 0.0964523 0
0.711696 0.111452 0
0.804166 0.124727 0
0.89546 0.136843 0
0.982712 0.147906 0
1 0.152499 0
1 0.152499 0
1 0.152499 0
1 0.152499 0
1 0.152499 0
1 0.152499 0
1 0.152499 0
1 0.152499 0
1 0.152499 0
1 0.152499 0
1 0.152499 0
1 0.152499 0
1 0.152499 0
0 0 0
0 0 0
0 0 0
0 0 0
0 0 0
0 0 0
0.0189517 0 0
0.0679026 0.030518 0
0.116793 0.0371252 0
0.171466 0.0421759 0
0.231571 0.0466468 0
0.297353 0.0517739 0
0.36907 0.0585641 0
0.446632 0.0680552 0
0.52961 0.0807202 0
0.617197 0.0957961 0
0.708339 0.110933 0
0.801114 0.124315 0
0.892668 0.136477 0
0.980133 0.147585 0
1 0.152499 0
1 0.152499 0
1 0.152499 0
1 0.152499 0
1 0.152499 0
1 0.152499 0
1 0.152499 0
1 0.152499 0
1 0.152499 0
1 0.152499 0
1 0.152499 0
1 0.152499 0
1 0.152499 0
0.0156863 0.0253758 0.00131228
0.0159762 0.0237888 0.00131228
0 0 0
0 0 0
0 0 0
0 0 0
0.0362707 0.0235752 0
0.077348 0.0297246 0
0.123156 0.0349432 0
0.170657 0.0405432 0
0.225666 0.0457008 0
0.29073 0.0512245 0
0.363409 0.057969 0
0.441764 0.0673838 0
0.525353 0.0800183 0
0.613443 0.0951553 0
0.704967 0.110399 0
0.798047 0.123888 0
0.889876 0.13611 0
0.977554 0.147265 0
1 0.152499 0
1 0.152499 0
1 0.152499 0
1 0.152499 0
1 0.152499 0
1 0.152499 0
1 0.152499 0
1 0.152499 0
1 0.152499 0
1 0.152499 0
1 0.152499 0
1 0.152499 0
1 0.152499 0
0.00828565 0.0536049 0
0.0099794 0.0493324 3.0518e-05
0.0115206 0.0448157 0.000320439
0.0128481 0.040589 0.00062562
0.013901 0.0365454 0.000900282
0.013962 0.0350805 0.000946059
0.0310826 0.0346227 0.00205997
0.0762341 0.0395666 0
0.124865 0.0424201 0
0.177295 0.0455787 0
0.23389 0.0487221 0
0.29308 0.0517433 0
0.358526 0.057557 0
0.436866 0.0667277 0
0.521096 0.0793317 0
0.609689 0.0944991 0
0.701595 0.109865 0
0.794995 0.123476 0
0.887083 0.13576 0
0.974975 0.146929 0
1 0.152499 0
1 0.152499 0
1 0.152499 0
1 0.152499 0
1 0.152499 0
1 0.152499 0
1 0.152499 0
1 0.152499 0
1 0.152499 0
1 0.152499 0
1 0.152499 0
1 0.152499 0
1 0.152499 0
0 0.0908064 0
0 0.0872816 0
0 0.08365 0
0 0.079881 0
0 0.0759747 0
0.000534066 0.0720226 0
0.0166171 0.0715038 0.000213626
0.0636301 0.0656291 0.00375372
0.120058 0.0666972 0
0.173922 0.0658885 0
0.232624 0.0670634 0
0.296361 0.0691997 0
0.364858 0.0708019 0
0.435508 0.0703441 0
0.515877 0.0784924 0
0.605097 0.0937057 0
0.69749 0.109209 0
0.791272 0.122957 0
0.88368 0.135317 0
0.971832 0.146548 0
1 0.152499 0
1 0.152499 0
1 0.152499 0
1 0.152499 0
1 0.152499 0
1 0.152499 0
1 0.152499 0
1 0.152499 0
1 0.152499 0
1 0.152499 0
1 0.152499 0
1 0.152499 0
1 0.152499 0
0 0.129595 0
0 0.126879 0
0 0.124086 0
0 0.121202 0
0 0.118242 0
0 0.115206 0
0 0.112352 0
0.039353 0.107576 0.00155642
0.102602 0.100511 0.00230411
0.167422 0.100008 0
0.227207 0.0971237 0
0.292317 0.0969406 0
0.36321 0.0979782 0
0.439368 0.0992905 0
0.51899 0.0973068 0
0.599664 0.0941329 0
0.692012 0.108339 0
0.786328 0.122286 0
0.879164 0.134722 0
0.967666 0.146029 0
1 0.152499 0
1 0.152499 0
1 0.152499 0
1 0.152499 0
1 0.152499 0
1 0.152499 0
1 0.152499 0
1 0.152499 0
1 0.152499 0
1 0.152499 0
1 0.152499 0
1 0.152499 0
1 0.152499 0
0 0.17023 0
0 0.168017 0
0 0.165743 0
0 0.163424 0
0 0.161044 0
0 0.158648 0
0 0.156237 0
0.00358587 0.153017 0
0.0754406 0.1467 0.00129702
0.146334 0.139193 0
0.219547 0.137591 0
0.286397 0.132753 0
0.358465 0.1308 0
0.436484 0.130022 0
0.519707 0.129503 0
0.606317 0.128252 0
0.691615 0.119326 0
0.779767 0.12137 0
0.873182 0.133944 0
0.962142 0.145327 0
1 0.152499 0
1 0.152499 0
1 0.152499 0
1 0.152499 0
1 0.152499 0
1 0.152499 0
1 0.152499 0
1 0.152499 0
1 0.152499 0
1 0.152499 0
1 0.152499 0
1 0.152499 0
1 0.152499 0
0 0.214832 0
0 0.21294 0
0 0.211017 0
0 0.209049 0
0 0.20705 0
0 0.205035 0
0 0.203021 0
0 0.200549 0
0.0313573 0.197147 0
0.115908 0.190051 0
0.195117 0.181674 0
0.277882 0.178805 0
0.35256 0.171664 0
0.431769 0.167483 0
0.516487 0.16434 0
0.605631 0.161089 0
0.697002 0.157504 0
0.787274 0.152728 0
0.869261 0.140398 0
0.95491 0.144427 0
1 0.152499 0
1 0.152499 0
1 0.152499 0
1 0.152499 0
1 0.152499 0
1 0.152499 0
1 0.152499 0
1 0.152499 0
1 0.152499 0
1 0.152499 0
1 0.152499 0
1 0.152499 0
1 0.152499 0
0 0.264271 0
0 0.262654 0
0 0.26099 0
0 0.259312 0
0 0.257603 0
0 0.255879 0
0 0.25417 0
0 0.252064 0
0 0.249271 0
0.0695354 0.245747 0
0.160647 0.237446 0
0.249104 0.227909 0
0.34316 0.223621 0
0.426093 0.213611 0
0.5122 0.206607 0
0.602472 0.200885 0
0.69546 0.195453 0
0.788739 0.189868 0
0.879332 0.184085 0
0.963668 0.178042 0
1 0.162936 0
1 0.152499 0
1 0.152499 0
1 0.152499 0
1 0.152499 0
1 0.152499 0
1 0.152499 0
1 0.152499 0
1 0.152499 0
1 0.152499 0
1 0.152499 0
1 0.152499 0
1 0.152499 0
0 0.318776 0
0 0.317388 0
0 0.315953 0
0 0.314519 0
0 0.313054 0
0 0.311574 0
0 0.310109 0
0 0.308309 0
0 0.305913 0
0 0.302892 0
0.110353 0.298299 0
0.21004 0.288685 4.57771e-05
0.308339 0.277745 0
0.414679 0.269673 0
0.50631 0.259113 0
0.598184 0.249439 0
0.692164 0.241459 0
0.786618 0.234165 0
0.878904 0.227085 0
0.966171 0.220127 0
1 0.213474 0
1 0.19971 0
1 0.18613 0
1 0.167025 0
1 0.155367 0
1 0.152499 0
1 0.152499 0
1 0.152499 0
1 0.152499 0
1 0.152499 0
1 0.152499 0
1 0.152499 0
1 0.152499 0
0 0.377981 0
0 0.376761 0
0 0.375525 0
0 0.374273 0
0 0.373007 0
0 0.371725 0
0 0.370459 0
0 0.368902 0
0 0.366842 0
0 0.364111 0
0.0164797 0.3617 0
0.156024 0.354849 0
0.264851 0.34403 0.00523384
0.373159 0.331777 0
0.487327 0.318685 0
0.591562 0.30898 0
0.687633 0.296773 0
0.783108 0.286793 0
0.876295 0.278004 0
0.964645 0.269932 0
1 0.262425 0
1 0.250614 0
1 0.238376 0
1 0.22742 0
1 0.21799 0
1 0.210117 0
1 0.203738 0
1 0.198672 0
1 0.194736 0
1 0.191699 0
1 0.189151 0
1 0.187045 0
1 0.185351 0
0 0.441886 0
0 0.440818 0
0 0.439719 0
0 0.438621 0
0 0.437507 0
0 0.436393 0
0 0.435279 0
0 0.433921 0
0 0.43212 0
0 0.429725 0
0 0.426596 0
0.0652628 0.424262 0
0.207919 0.41529 0.00386053
0.325521 0.403342 0.0145571
0.443275 0.389822 0
0.564706 0.374975 0
0.679911 0.363317 0
0.778073 0.348898 0
0.87245 0.337255 0
0.961593 0.327367 0
1 0.318761 0
1 0.308614 0
1 0.297398 0
1 0.287388 0
1 0.278767 0
1 0.27155 0
1 0.265675 0
1 0.26099 0
1 0.257298 0
1 0.254444 0
1 0.252262 0
1 0.250599 0
1 0.249348 0
0 0.509667 0
0 0.508721 0
0 0.507759 0
0 0.506783 0
0 0.505791 0
0 0.504799 0
0 0.503822 0
0 0.502617 0
0 0.50103 0
0 0.498924 0
0 0.496162 0
0 0.492576 0
0.117784 0.489693 0
0.266758 0.478767 0.0153811
0.391989 0.465843 0.0275425
0.51783 0.451209 0
0.644388 0.435309 0
0.762707 0.417243 0
0.86656 0.405722 0
0.957214 0.392844 0
1 0.3823 0
1 0.372732 0
1 0.362402 0
1 0.353216 0
1 0.345327 0
1 0.33875 0
1 0.333394 0
1 0.329137 0
1 0.325811 0
1 0.323232 0
1 0.321248 0
1 0.319753 0
1 0.318608 0
0 0.580026 0
0 0.579187 0
0 0.578332 0
0 0.577462 0
0 0.576577 0
0 0.575692 0
0 0.574823 0
0 0.573754 0
0 0.572335 0
0 0.570459 0
0 0.568002 0
0 0.564813 0
0 0.560708 0
0.179583 0.556512 0.0068513
0.33283 0.543969 0.0320439
0.463737 0.530282 0.0438239
0.595453 0.514763 0.00173953
0.724147 0.498421 0
0.841764 0.47985 0
0.947967 0.46305 0
1 0.453086 0
1 0.442267 0
1 0.432639 0
1 0.424079 0
1 0.416754 0
1 0.410666 0
1 0.405722 0
1 0.401801 0
1 0.398733 0
1 0.396353 0
1 0.394537 0
1 0.393164 0
1 0.392126 0
0 0.651255 0
0 0.650492 0
0 0.649714 0
0 0.648936 0
0 0.648142 0
0 0.647349 0
0 0.646555 0
0 0.645594 0
0 0.644312 0
0 0.642618 0
0 0.640421 0
0 0.637552 0
0 0.63386 0
0.0150301 0.630594 0
0.25098 0.622965 0.0234226
0.405859 0.609171 0.0535134
0.539635 0.595056 0.0616922
0.674205 0.578958 0.00645457
0.801419 0.562753 0
0.914946 0.54493 0
1 0.527626 0
1 0.51339 0
1 0.506889 0
1 0.498833 0
1 0.491936 0
1 0.486213 0
1 0.48159 0
1 0.477913 0
1 0.475029 0
1 0.472801 0
1 0.471107 0
1 0.469825 0
1 0.468849 0
0 0.721294 0
0 0.720592 0
0 0.71989 0
0 0.719173 0
0 0.718441 0
0 0.717723 0
0 0.717006 0
0 0.716121 0
0 0.714961 0
0 0.71342 0
0 0.711406 0
0 0.708797 0
0 0.705455 0
0 0.701228 0
0.130632 0.69897 0.00943008
0.331411 0.686992 0.0470741
0.484718 0.672389 0.0751965
0.617929 0.657816 0.083772
0.751842 0.641962 0.0120699
0.873747 0.62649 0
0.979904 0.610147 0
1 0.594537 0
1 0.581292 0
1 0.573327 0
1 0.566506 0
1 0.560861 0
1 0.556283 0
1 0.552651 0
1 0.549828 0
1 0.547646 0
1 0.545983 0
1 0.544717 0
1 0.54377 0
0.00233463 0.788022 0.00106813
0.00230411 0.787381 0.00102235
0.00225834 0.78674 0.000991836
0.00222782 0.786068 0.000946059
0.0021973 0.785412 0.000915541
0.00215152 0.784741 0.000869764
0.002121 0.78407 0.000839246
0.00207523 0.783261 0.00077821
0.00202945 0.782193 0.000732433
0.00195315 0.780774 0.000640879
0.0018616 0.778927 0.000549325
0.00173953 0.776532 0.000427253
0.00158694 0.773449 0.000274662
0.00140383 0.769558 0.000106813
0.00117494 0.764752 0
0.234653 0.760494 0.0327153
0.419196 0.746578 0.0732128
0.567514 0.731731 0.095201
0.697047 0.715892 0.114107
0.825986 0.70193 0.0180972
0.939055 0.687678 0
1 0.673289 0
1 0.659907 0
1 0.650996 0
1 0.644709 0
1 0.63949 0
1 0.635264 0
1 0.631891 0
1 0.629252 0
1 0.627222 0
1 0.625666 0
1 0.624475 0
1 0.623575 0
0.00607309 0.849592 0.00572213
0.00602731 0.848997 0.00567636
0.00598154 0.848386 0.00561532
0.00595102 0.847776 0.00556954
0.00590524 0.84715 0.00550851
0.00585946 0.846525 0.00546273
0.00581369 0.845899 0.00540169
0.00576791 0.845151 0.00534066
0.00570687 0.84416 0.0052491
0.00561532 0.842832 0.00514229
0.00550851 0.841108 0.0049897
0.00535592 0.83888 0.00480659
0.00517281 0.836011 0.00456245
0.00494392 0.832395 0.00427253
0.004654 0.827909 0.00390631
0.0991684 0.825803 0.01561
0.342275 0.814862 0.0634928
0.511604 0.800076 0.097612
0.651606 0.78558 0.11252
0.775402 0.769345 0.130083
0.894514 0.757183 0.0241398
0.996033 0.744503 0
1 0.732265 0
1 0.721828 0
1 0.716075 0
1 0.711269 0
1 0.707378 0
1 0.704295 0
1 0.701885 0
1 0.700023 0
1 0.698589 0
1 0.697505 0
1 0.696681 0
0.0100557 0.90457 0.0110018
0.0100099 0.904005 0.0109407
0.00996414 0.903441 0.0108797
0.00991836 0.902861 0.0108186
0.00988785 0.902266 0.0107576
0.00984207 0.901686 0.0106966
0.00979629 0.901091 0.0106355
0.00973526 0.900389 0.0105592
0.00965896 0.899443 0.0104677
0.00956741 0.898207 0.0103456
0.00944533 0.896574 0.0101778
0.00927749 0.894469 0.00996414
0.00907912 0.891768 0.00968948
0.00881971 0.888365 0.00935378
0.00851453 0.884153 0.00894179
0.00813306 0.879057 0.00843824
0.252659 0.875242 0.0496223
0.451438 0.861219 0.0928511
0.605203 0.846433 0.118959
0.734035 0.832868 0.126299
0.84976 0.817563 0.129198
0.95584 0.806485 0.0298619
1 0.795544 0
1 0.785458 0
1 0.778714 0
1 0.774273 0
1 0.770672 0
1 0.767819 0
1 0.765576 0
1 0.763851 0
1 0.762524 0
1 0.761517 0
1 0.760754 0
0.0139467 0.952178 0.0162356
0.013901 0.951644 0.0161593
0.0138552 0.951095 0.0160983
0.0138094 0.950545 0.0160372
0.0137636 0.949981 0.0159762
0.0137179 0.949432 0.0159152
0.0136721 0.948867 0.0158389
0.013611 0.948196 0.0157626
0.0135348 0.947295 0.015671
0.0134279 0.946105 0.0155337
0.0133059 0.944564 0.0153506
0.013138 0.94255 0.0151217
0.0129244 0.939986 0.0148318
0.0126497 0.936736 0.0144656
0.012314 0.932738 0.014023
0.0119173 0.927886 0.013489
0.145296 0.926101 0.0335699
0.38883 0.914015 0.0848096
0.558892 0.899351 0.118593
0.696391 0.885328 0.136034
0.811826 0.873075 0.136645
0.917403 0.858915 0.125017
1 0.849134 0.0350347
1 0.839979 0
1 0.83212 0
1 0.827939 0
1 0.824552 0
1 0.821866 0
1 0.819776 0
1 0.818143 0
1 0.816907 0
1 0.815976 0
1 0.815259 0
0.0158236 0.973571 0.0187686
0.0158236 0.973571 0.0187686
0.0158236 0.973571 0.0187686
0.0158236 0.973571 0.0187686
0.0158236 0.973571 0.0187686
0.0158236 0.973571 0.0187686
0.0158236 0.973571 0.0187686
0.0158236 0.973571 0.0187686
0.0158236 0.973571 0.0187686
0.0158236 0.973571 0.0187686
0.0158236 0.973571 0.0187686
0.0158236 0.973571 0.0187686
0.0158236 0.973571 0.0187686
0.0158236 0.973571 0.0187686
0.0158236 0.973556 0.0187533
0.0154116 0.968917 0.018204
0.0149386 0.963455 0.0175479
0.325643 0.958206 0.0755627
0.514443 0.943938 0.115114
0.661189 0.929747 0.139315
0.781888 0.917082 0.148028
0.883253 0.903471 0.170718
0.976913 0.893385 0.118471
1 0.885039 0.0395361
1 0.877546 0
1 0.872496 0
1 0.869276 0
1 0.866728 0
1 0.864729 0
1 0.863203 0
1 0.862028 0
1 0.861128 0
1 0.860456 0
0.0158236 0.973571 0.0187686
0.0158236 0.973571 0.0187686
0.0158236 0.973571 0.0187686
0.0158236 0.973571 0.0187686
0.0158236 0.973571 0.0187686
0.0158236 0.973571 0.0187686
0.0158236 0.973571 0.0187686
0.0158236 0.973571 0.0187686
0.0158236 0.973571 0.0187686
0.0158236 0.973571 0.0187686
0.0158236 0.973571 0.0187686
0.0158236 0.973571 0.0187686
0.0158236 0.973571 0.0187686
0.0158236 0.973571 0.0187686
0.0158236 0.973571 0.0187686
0.0158236 0.973571 0.0187686
0.0158236 0.973571 0.0187686
0.262318 0.976318 0.0638132
0.472831 0.969177 0.109133
0.629191 0.961868 0.138811
0.755337 0.953368 0.154025
0.859174 0.942397 0.154955
0.948989 0.929229 0.170657
1 0.921447 0.110613
1 0.914488 0.0433356
1 0.908675 0
1 0.905592 0
1 0.903136 0
1 0.901228 0
1 0.899748 0
1 0.898604 0
1 0.897749 0
1 0.897108 0
0.0158236 0.973571 0.0187686
0.0158236 0.973571 0.0187686
0.0158236 0.973571 0.0187686
0.0158236 0.973571 0.0187686
0.0158236 0.973571 0.0187686
0.0158236 0.973571 0.0187686
0.0158236 0.973571 0.0187686
0.0158236 0.973571 0.0187686
0.0158236 0.973571 0.0187686
0.0158236 0.973571 0.0187686
0.0158236 0.973571 0.0187686
0.0158236 0.973571 0.0187686
0.0158236 0.973571 0.0187686
0.0158236 0.973571 0.0187686
0.0158236 0.973571 0.0187686
0.0158236 0.973571 0.0187686
0.0158236 0.973571 0.0187686
0.199908 0.977371 0.0507973
0.434852 0.970764 0.101076
0.600076 0.963287 0.133913
0.73106 0.95697 0.152316
0.838087 0.95227 0.157794
0.926635 0.945724 0.184146
1 0.942382 0.147784
1 0.9402 0.0979477
1 0.938155 0.0466163
1 0.934524 0.0248722
1 0.932143 0.0215763
1 0.930282 0.0190585
1 0.928847 0.0171664
1 0.927764 0.0157473
1 0.926925 0.0146792
1 0.926299 0.0138857
0.0158236 0.973571 0.0187686
0.0158236 0.973571 0.0187686
0.0158236 0.973571 0.0187686
0.0158236 0.973571 0.0187686
0.0158236 0.973571 0.0187686
0.0158236 0.973571 0.0187686
0.0158236 0.973571 0.0187686
0.0158236 0.973571 0.0187686
0.0158236 0.973571 0.0187686
0.0158236 0.973571 0.0187686
0.0158236 0.973571 0.0187686
0.0158236 0.973571 0.0187686
0.0158236 0.973571 0.0187686
0.0158236 0.973571 0.0187686
0.0158236 0.973571 0.0187686
0.0158236 0.973571 0.0187686
0.0158236 0.973571 0.0187686
0.139544 0.977584 0.0387884
0.40209 0.972045 0.0940261
0.575601 0.964462 0.129534
0.710781 0.957931 0.150179
0.820279 0.953002 0.157687
0.909712 0.947738 0.173678
0.989013 0.942916 0.159136
1 0.94078 0.111711
1 0.938842 0.0640421
1 0.93756 0.0292363
1 0.93756 0.0292363
1 0.93756 0.0292363
1 0.93756 0.0292363
1 0.93756 0.0292363
1 0.93756 0.0292363
1 0.93756 0.0292363
0.0158236 0.973571 0.0187686
0.0158236 0.973571 0.0187686
0.0158236 0.973571 0.0187686
0.0158236 0.973571 0.0187686
0.0158236 0.973571 0.0187686
0.0158236 0.973571 0.0187686
0.0158236 0.973571 0.0187686
0.0158236 0.973571 0.0187686
0.0158236 0.973571 0.0187686
