modules/camera-engine/ios/LUTs/panasonic-light-green.cube
TITLE "Generated by LUMIX Lab"
#LUMIXPHOTOSTYLE PORT
LUT_3D_SIZE 9
0.011765 0.003922 0.007843
0.082353 0.011765 0.011765
0.227451 0.023529 0.015686
0.345098 0.035294 0.007843
0.478431 0.039216 0.003922
0.592157 0.035294 0.007843
0.705882 0.023529 0.007843
0.800000 0.027451 0.007843
0.886275 0.019608 0.007843
0.050980 0.117647 0.066667
0.113725 0.117647 0.043137
0.294118 0.105882 0.000000
0.435294 0.094118 0.000000
0.556863 0.098039 0.003922
0.705882 0.090196 0.000000
0.792157 0.098039 0.000000
0.866667 0.094118 0.000000
0.886275 0.109804 0.000000
0.074510 0.274510 0.109804
0.168627 0.282353 0.105882
0.247059 0.298039 0.090196
0.427451 0.250980 0.019608
0.580392 0.239216 0.003922
0.694118 0.243137 0.003922
0.792157 0.250980 0.000000
0.882353 0.247059 0.000000
1.000000 0.231373 0.000000
0.113725 0.415686 0.141176
0.192157 0.407843 0.137255
0.274510 0.431373 0.133333
0.360784 0.450980 0.137255
0.572549 0.388235 0.047059
0.698039 0.384314 0.023529
0.803922 0.403922 0.000000
0.901961 0.380392 0.000000
1.000000 0.380392 0.000000
0.133333 0.517647 0.164706
0.207843 0.525490 0.160784
0.329412 0.533333 0.168627
0.407843 0.576471 0.180392
0.490196 0.596078 0.192157
0.607843 0.600000 0.168627
0.807843 0.513726 0.105882
0.862745 0.513726 0.078431
0.988235 0.501961 0.023529
0.239216 0.635294 0.192157
0.262745 0.635294 0.207843
0.372549 0.647059 0.211765
0.435294 0.678431 0.239216
0.513726 0.709804 0.258824
0.611765 0.733333 0.254902
0.698039 0.737255 0.270588
0.878431 0.627451 0.192157
0.909804 0.627451 0.152941
0.282353 0.749020 0.239216
0.301961 0.752941 0.254902
0.415686 0.764706 0.266667
0.513726 0.756863 0.274510
0.541176 0.800000 0.313726
0.639216 0.831373 0.333333
0.709804 0.835294 0.345098
0.752941 0.831373 0.333333
0.815686 0.831373 0.231373
0.317647 0.823529 0.294118
0.329412 0.839216 0.298039
0.431373 0.862745 0.325490
0.525490 0.870588 0.333333
0.592157 0.878431 0.356863
0.647059 0.898039 0.360784
0.717647 0.898039 0.376471
0.760784 0.898039 0.380392
0.811765 0.878431 0.368627
0.274510 0.901961 0.352941
0.345098 0.925490 0.368627
0.447059 0.913725 0.368627
0.552941 0.921569 0.372549
0.662745 0.937255 0.372549
0.662745 0.996078 0.396078
0.717647 0.992157 0.403922
0.788235 0.988235 0.403922
0.800000 0.988235 0.403922
0.019608 0.015686 0.082353
0.094118 0.027451 0.078431
0.262745 0.027451 0.074510
0.380392 0.031373 0.074510
0.482353 0.031373 0.074510
0.588235 0.043137 0.062745
0.694118 0.039216 0.058824
0.772549 0.050980 0.047059
0.854902 0.062745 0.039216
0.054902 0.109804 0.098039
0.121569 0.133333 0.105882
0.282353 0.113725 0.066667
0.411765 0.105882 0.043137
0.494118 0.113725 0.062745
0.647059 0.109804 0.023529
0.752941 0.117647 0.015686
0.796078 0.137255 0.054902
0.882353 0.141176 0.039216
0.082353 0.270588 0.145098
0.152941 0.286275 0.152941
0.243137 0.309804 0.141176
0.411765 0.282353 0.074510
0.552941 0.266667 0.027451
0.694118 0.258824 0.019608
0.796078 0.258824 0.015686
0.878431 0.266667 0.015686
1.000000 0.266667 0.011765
0.105882 0.411765 0.196078
0.180392 0.415686 0.188235
0.278431 0.427451 0.184314
0.372549 0.454902 0.203922
0.576471 0.407843 0.113725
0.694118 0.423529 0.054902
0.823529 0.415686 0.050980
0.890196 0.411765 0.047059
0.988235 0.403922 0.043137
0.145098 0.517647 0.223529
0.227451 0.513726 0.227451
0.345098 0.537255 0.239216
0.411765 0.572549 0.231373
0.494118 0.603922 0.258824
0.682353 0.537255 0.203922
0.796078 0.525490 0.184314
0.886275 0.521569 0.121569
0.976471 0.517647 0.113725
0.184314 0.631373 0.250980
0.270588 0.643137 0.258824
0.380392 0.647059 0.266667
0.447059 0.670588 0.298039
0.541176 0.705882 0.313726
0.623529 0.721569 0.325490
0.709804 0.741176 0.337255
0.866667 0.635294 0.250980
0.933333 0.623529 0.231373
0.266667 0.733333 0.290196
0.329412 0.756863 0.313726
0.431373 0.760784 0.337255
0.529412 0.772549 0.349020
0.560784 0.800000 0.368627
0.650980 0.815686 0.388235
0.721569 0.831373 0.388235
0.756863 0.827451 0.388235
0.917647 0.725490 0.313726
0.329412 0.827451 0.364706
0.337255 0.850980 0.364706
0.443137 0.858824 0.376471
0.541176 0.862745 0.380392
0.600000 0.874510 0.419608
0.666667 0.890196 0.415686
0.721569 0.909804 0.435294
0.760784 0.898039 0.439216
0.823529 0.882353 0.427451
0.286275 0.921569 0.411765
0.352941 0.913725 0.407843
0.458824 0.921569 0.419608
0.572549 0.929412 0.431373
0.662745 0.949020 0.435294
0.670588 0.980392 0.454902
0.729412 0.988235 0.458824
0.768627 0.988235 0.462745
0.815686 0.980392 0.462745
0.027451 0.054902 0.309804
0.101961 0.062745 0.250980
0.254902 0.058824 0.219608
0.403922 0.043137 0.219608
0.501961 0.039216 0.192157
0.611765 0.027451 0.164706
0.713726 0.039216 0.141176
0.784314 0.035294 0.129412
0.850980 0.050980 0.113725
0.039216 0.129412 0.239216
0.109804 0.145098 0.231373
0.247059 0.141176 0.207843
0.384314 0.137255 0.196078
0.494118 0.137255 0.180392
0.600000 0.141176 0.164706
0.690196 0.137255 0.156863
0.776471 0.152941 0.152941
0.835294 0.152941 0.149020
0.090196 0.258824 0.235294
0.137255 0.286275 0.243137
0.254902 0.305882 0.258824
0.419608 0.278431 0.188235
0.556863 0.286275 0.164706
0.662745 0.278431 0.141176
0.792157 0.282353 0.133333
0.870588 0.282353 0.133333
0.933333 0.286275 0.152941
0.113725 0.400000 0.274510
0.184314 0.415686 0.298039
0.282353 0.439216 0.313726
0.388235 0.454902 0.301961
0.556863 0.431373 0.247059
0.682353 0.423529 0.207843
0.796078 0.431373 0.192157
0.878431 0.427451 0.192157
0.976471 0.423529 0.188235
0.145098 0.525490 0.321569
0.227451 0.525490 0.337255
0.329412 0.541176 0.349020
0.403922 0.576471 0.349020
0.505882 0.596078 0.368627
0.694118 0.545098 0.313726
0.788235 0.533333 0.286275
0.898039 0.533333 0.250980
0.972549 0.525490 0.235294
0.243137 0.635294 0.356863
0.278431 0.643137 0.368627
0.372549 0.658824 0.376471
0.498039 0.666667 0.396078
0.564706 0.701961 0.411765
0.631373 0.725490 0.435294
0.788235 0.666667 0.392157
0.862745 0.658824 0.364706
0.917647 0.639216 0.349020
0.301961 0.749020 0.403922
0.333333 0.752941 0.423529
0.431373 0.760784 0.435294
0.521569 0.780392 0.443137
0.588235 0.800000 0.458824
0.654902 0.815686 0.470588
0.729412 0.819608 0.478431
0.772549 0.835294 0.486275
0.905882 0.749020 0.392157
0.329412 0.823529 0.450980
0.345098 0.843137 0.454902
0.450980 0.854902 0.470588
0.552941 0.854902 0.482353
0.654902 0.858824 0.498039
0.701961 0.878431 0.505882
0.737255 0.894118 0.513726
0.800000 0.890196 0.517647
0.831373 0.878431 0.513726
0.313726 0.878431 0.494118
0.364706 0.913725 0.494118
0.454902 0.921569 0.498039
0.572549 0.917647 0.513726
0.662745 0.933333 0.517647
0.694118 0.976471 0.521569
0.737255 0.988235 0.533333
0.784314 0.984314 0.537255
0.815686 0.976471 0.529412
0.031373 0.094118 0.564706
0.109804 0.070588 0.513726
0.247059 0.074510 0.368627
0.380392 0.070588 0.364706
0.494118 0.050980 0.345098
0.635294 0.039216 0.341176
0.709804 0.043137 0.305882
0.792157 0.043137 0.282353
0.886275 0.043137 0.250980
0.035294 0.168627 0.439216
0.101961 0.176471 0.427451
0.243137 0.164706 0.360784
0.372549 0.160784 0.349020
0.490196 0.149020 0.341176
0.615686 0.145098 0.317647
0.698039 0.152941 0.298039
0.788235 0.152941 0.286275
0.854902 0.160784 0.282353
0.090196 0.286275 0.349020
0.141176 0.298039 0.352941
0.247059 0.317647 0.356863
0.388235 0.309804 0.356863
0.509804 0.301961 0.349020
0.615686 0.305882 0.329412
0.737255 0.309804 0.305882
0.784314 0.309804 0.317647
0.866667 0.325490 0.333333
0.121569 0.415686 0.368627
0.188235 0.415686 0.384314
0.309804 0.431373 0.427451
0.411765 0.447059 0.415686
0.545098 0.443137 0.376471
0.670588 0.447059 0.364706
0.788235 0.443137 0.333333
0.862745 0.435294 0.313726
0.964706 0.435294 0.329412
0.168627 0.525490 0.384314
0.247059 0.525490 0.415686
0.333333 0.541176 0.450980
0.435294 0.568627 0.474510
0.521569 0.592157 0.474510
0.686275 0.568627 0.443137
0.772549 0.564706 0.427451
0.870588 0.564706 0.388235
0.976471 0.541176 0.368627
0.207843 0.635294 0.443137
0.290196 0.631373 0.478431
0.396078 0.650980 0.490196
0.482353 0.686275 0.509804
0.576471 0.698039 0.505882
0.650980 0.725490 0.521569
0.803922 0.678431 0.486275
0.854902 0.674510 0.470588
0.945098 0.650980 0.423529
0.258824 0.749020 0.501961
0.329412 0.749020 0.509804
0.443137 0.760784 0.525490
0.509804 0.764706 0.529412
0.623529 0.776471 0.537255
0.674510 0.815686 0.560784
0.745098 0.815686 0.572549
0.843137 0.760784 0.549020
0.917647 0.749020 0.498039
0.376471 0.815686 0.537255
0.368627 0.831373 0.533333
0.462745 0.839216 0.537255
0.552941 0.854902 0.560784
0.666667 0.862745 0.576471
0.694118 0.878431 0.588235
0.745098 0.894118 0.600000
0.823529 0.870588 0.607843
0.835294 0.882353 0.592157
0.325490 0.894118 0.576471
0.388235 0.901961 0.576471
0.470588 0.921569 0.572549
0.576471 0.929412 0.584314
0.674510 0.929412 0.596078
0.749020 0.937255 0.603922
0.741176 0.960784 0.607843
0.803922 0.972549 0.619608
0.831373 0.980392 0.615686
0.039216 0.109804 0.749020
0.121569 0.105882 0.701961
0.250980 0.094118 0.509804
0.380392 0.082353 0.494118
0.498039 0.066667 0.470588
0.592157 0.062745 0.462745
0.698039 0.062745 0.443137
0.800000 0.058824 0.439216
0.874510 0.047059 0.403922
0.019608 0.219608 0.615686
0.090196 0.196078 0.588235
0.239216 0.192157 0.501961
0.364706 0.192157 0.482353
0.482353 0.176471 0.470588
0.596078 0.168627 0.458824
0.713726 0.160784 0.458824
0.776471 0.172549 0.435294
0.862745 0.152941 0.423529
0.062745 0.317647 0.501961
0.109804 0.321569 0.505882
0.239216 0.337255 0.509804
0.372549 0.329412 0.486275
0.490196 0.321569 0.474510
0.623529 0.313726 0.466667
0.721569 0.329412 0.443137
0.788235 0.333333 0.458824
0.870588 0.313726 0.450980
0.121569 0.423529 0.470588
0.192157 0.431373 0.482353
0.301961 0.462745 0.498039
0.400000 0.458824 0.513726
0.513726 0.474510 0.525490
0.650980 0.486275 0.501961
0.749020 0.478431 0.490196
0.819608 0.458824 0.494118
0.866667 0.454902 0.494118
0.172549 0.537255 0.498039
0.235294 0.537255 0.517647
0.345098 0.549020 0.529412
0.458824 0.592157 0.568627
0.537255 0.607843 0.568627
0.694118 0.576471 0.549020
0.780392 0.576471 0.505882
0.858824 0.568627 0.505882
0.909804 0.552941 0.517647
0.211765 0.631373 0.529412
0.286275 0.639216 0.541176
0.403922 0.658824 0.584314
0.482353 0.682353 0.600000
0.592157 0.709804 0.611765
0.674510 0.717647 0.607843
0.784314 0.682353 0.580392
0.874510 0.662745 0.549020
0.905882 0.662745 0.525490
0.278431 0.745098 0.560784
0.352941 0.745098 0.584314
0.447059 0.749020 0.615686
0.525490 0.764706 0.623529
0.619608 0.788235 0.635294
0.694118 0.796078 0.639216
0.737255 0.819608 0.631373
0.870588 0.760784 0.619608
0.905882 0.752941 0.600000
0.341176 0.807843 0.607843
0.380392 0.823529 0.627451
0.466667 0.847059 0.631373
0.560784 0.843137 0.643137
0.650980 0.854902 0.647059
0.717647 0.858824 0.666667
0.776471 0.874510 0.662745
0.807843 0.874510 0.666667
0.874510 0.839216 0.635294
0.356863 0.909804 0.643137
0.396078 0.894118 0.650980
0.490196 0.894118 0.650980
0.592157 0.909804 0.650980
0.682353 0.913725 0.666667
0.749020 0.929412 0.674510
0.768627 0.933333 0.670588
0.819608 0.964706 0.686275
0.839216 0.949020 0.686275
0.031373 0.117647 0.843137
0.133333 0.117647 0.800000
0.239216 0.109804 0.607843
0.384314 0.094118 0.592157
0.498039 0.082353 0.588235
0.611765 0.070588 0.580392
0.705882 0.070588 0.564706
0.752941 0.074510 0.545098
0.823529 0.074510 0.533333
0.023529 0.239216 0.729412
0.109804 0.223529 0.733333
0.235294 0.215686 0.674510
0.372549 0.223529 0.576471
0.482353 0.219608 0.568627
0.588235 0.211765 0.572549
0.674510 0.192157 0.552941
0.745098 0.188235 0.549020
0.874510 0.156863 0.552941
0.050980 0.345098 0.623529
0.113725 0.349020 0.627451
0.227451 0.352941 0.647059
0.376471 0.364706 0.631373
0.501961 0.349020 0.584314
0.603922 0.352941 0.580392
0.698039 0.352941 0.580392
0.788235 0.349020 0.580392
0.862745 0.313726 0.580392
0.129412 0.447059 0.576471
0.200000 0.454902 0.584314
0.250980 0.470588 0.623529
0.388235 0.478431 0.631373
0.513726 0.498039 0.615686
0.631373 0.482353 0.615686
0.737255 0.486275 0.603922
0.803922 0.466667 0.600000
0.858824 0.462745 0.600000
0.176471 0.549020 0.600000
0.250980 0.552941 0.600000
0.349020 0.572549 0.619608
0.454902 0.588235 0.631373
0.549020 0.607843 0.662745
0.666667 0.600000 0.643137
0.772549 0.596078 0.639216
0.827451 0.600000 0.623529
0.874510 0.564706 0.631373
0.219608 0.654902 0.627451
0.298039 0.654902 0.631373
0.403922 0.662745 0.647059
0.494118 0.678431 0.670588
0.592157 0.713726 0.698039
0.690196 0.698039 0.694118
0.756863 0.705882 0.698039
0.819608 0.698039 0.666667
0.890196 0.666667 0.639216
0.286275 0.749020 0.650980
0.352941 0.749020 0.658824
0.447059 0.760784 0.674510
0.521569 0.756863 0.694118
0.627451 0.768627 0.729412
0.717647 0.792157 0.733333
0.788235 0.768627 0.709804
0.843137 0.772549 0.709804
0.913725 0.749020 0.670588
0.364706 0.827451 0.666667
0.384314 0.823529 0.678431
0.486275 0.827451 0.705882
0.576471 0.847059 0.733333
0.662745 0.850980 0.737255
0.733333 0.858824 0.745098
0.772549 0.866667 0.729412
0.858824 0.831373 0.717647
0.882353 0.847059 0.713726
0.372549 0.886275 0.682353
0.427451 0.882353 0.701961
0.509804 0.890196 0.733333
0.600000 0.905882 0.737255
0.682353 0.917647 0.749020
0.756863 0.913725 0.749020
0.835294 0.913725 0.749020
0.823529 0.945098 0.745098
0.858824 0.937255 0.752941
0.019608 0.121569 0.933333
0.125490 0.133333 0.874510
0.254902 0.129412 0.670588
0.388235 0.109804 0.666667
0.498039 0.094118 0.654902
0.623529 0.090196 0.647059
0.717647 0.090196 0.643137
0.764706 0.090196 0.635294
0.819608 0.101961 0.619608
0.007843 0.254902 0.823529
0.094118 0.258824 0.831373
0.243137 0.243137 0.772549
0.364706 0.243137 0.643137
0.498039 0.231373 0.647059
0.600000 0.227451 0.643137
0.698039 0.207843 0.639216
0.749020 0.188235 0.635294
0.827451 0.203922 0.635294
0.039216 0.384314 0.725490
0.098039 0.388235 0.733333
0.219608 0.392157 0.729412
0.360784 0.380392 0.745098
0.501961 0.376471 0.658824
0.611765 0.376471 0.662745
0.705882 0.364706 0.654902
0.756863 0.349020 0.662745
0.827451 0.345098 0.658824
0.129412 0.482353 0.662745
0.160784 0.482353 0.701961
0.270588 0.490196 0.705882
0.400000 0.525490 0.741176
0.509804 0.501961 0.741176
0.627451 0.501961 0.701961
0.725490 0.490196 0.701961
0.788235 0.490196 0.701961
0.835294 0.478431 0.694118
0.188235 0.568627 0.658824
0.254902 0.572549 0.674510
0.360784 0.592157 0.698039
0.423529 0.603922 0.737255
0.549020 0.623529 0.745098
0.662745 0.627451 0.737255
0.741176 0.607843 0.725490
0.788235 0.603922 0.721569
0.882353 0.580392 0.713726
0.321569 0.670588 0.705882
0.321569 0.674510 0.713726
0.407843 0.682353 0.733333
0.501961 0.694118 0.745098
0.592157 0.709804 0.749020
0.698039 0.713726 0.764706
0.749020 0.709804 0.760784
0.827451 0.686275 0.752941
0.890196 0.666667 0.749020
0.349020 0.760784 0.729412
0.349020 0.752941 0.733333
0.458824 0.749020 0.749020
0.537255 0.752941 0.764706
0.643137 0.772549 0.776471
0.713726 0.776471 0.780392
0.764706 0.780392 0.768627
0.815686 0.784314 0.776471
0.894118 0.772549 0.756863
0.368627 0.815686 0.749020
0.411765 0.815686 0.756863
0.486275 0.819608 0.776471
0.584314 0.835294 0.768627
0.662745 0.850980 0.796078
0.737255 0.874510 0.807843
0.811765 0.866667 0.800000
0.839216 0.858824 0.800000
0.898039 0.835294 0.792157
0.364706 0.874510 0.772549
0.423529 0.890196 0.760784
0.517647 0.886275 0.764706
0.607843 0.894118 0.772549
0.682353 0.909804 0.819608
0.756863 0.925490 0.807843
0.819608 0.921569 0.823529
0.827451 0.937255 0.815686
0.882353 0.933333 0.835294
0.027451 0.141176 1.000000
0.117647 0.137255 0.925490
0.262745 0.152941 0.760784
0.384314 0.145098 0.729412
0.501961 0.129412 0.729412
0.627451 0.117647 0.721569
0.721569 0.109804 0.709804
0.776471 0.113725 0.705882
0.835294 0.086275 0.690196
0.011765 0.278431 0.894118
0.113725 0.278431 0.882353
0.243137 0.286275 0.831373
0.380392 0.290196 0.701961
0.501961 0.266667 0.713726
0.611765 0.250980 0.713726
0.709804 0.235294 0.717647
0.760784 0.211765 0.717647
0.843137 0.188235 0.721569
0.031373 0.431373 0.827451
0.121569 0.423529 0.792157
0.250980 0.411765 0.803922
0.376471 0.419608 0.803922
0.486275 0.427451 0.729412
0.611765 0.396078 0.741176
0.709804 0.380392 0.737255
0.776471 0.349020 0.741176
0.839216 0.349020 0.729412
0.101961 0.517647 0.756863
0.164706 0.513726 0.776471
0.258824 0.525490 0.803922
0.376471 0.545098 0.796078
0.505882 0.533333 0.811765
0.631373 0.521569 0.749020
0.729412 0.505882 0.756863
0.784314 0.498039 0.760784
0.850980 0.478431 0.749020
0.215686 0.607843 0.733333
0.266667 0.607843 0.756863
0.313726 0.623529 0.792157
0.439216 0.631373 0.788235
0.541176 0.643137 0.815686
0.670588 0.643137 0.807843
0.752941 0.623529 0.788235
0.815686 0.603922 0.784314
0.866667 0.588235 0.768627
0.274510 0.682353 0.764706
0.345098 0.690196 0.776471
0.435294 0.698039 0.784314
0.501961 0.721569 0.811765
0.580392 0.709804 0.827451
0.686275 0.729412 0.831373
0.760784 0.725490 0.819608
0.835294 0.694118 0.796078
0.858824 0.674510 0.803922
0.313726 0.756863 0.788235
0.376471 0.764706 0.807843
0.474510 0.764706 0.807843
0.556863 0.764706 0.819608
0.639216 0.784314 0.823529
0.717647 0.792157 0.819608
0.752941 0.788235 0.847059
0.819608 0.776471 0.831373
0.882353 0.772549 0.835294
0.372549 0.835294 0.807843
0.415686 0.835294 0.819608
0.498039 0.831373 0.827451
0.588235 0.831373 0.831373
0.666667 0.854902 0.843137
0.741176 0.850980 0.847059
0.811765 0.854902 0.839216
0.835294 0.866667 0.858824
0.890196 0.862745 0.850980
0.372549 0.898039 0.823529
0.431373 0.898039 0.831373
0.521569 0.882353 0.839216
0.615686 0.905882 0.843137
0.694118 0.905882 0.850980
0.745098 0.917647 0.850980
0.823529 0.933333 0.886275
0.894118 0.937255 0.890196
0.909804 0.988235 0.901961
0.000000 0.152941 0.996078
0.109804 0.145098 1.000000
0.258824 0.160784 0.909804
0.403922 0.164706 0.764706
0.521569 0.156863 0.764706
0.631373 0.152941 0.772549
0.733333 0.137255 0.772549
0.796078 0.125490 0.768627
0.862745 0.098039 0.764706
0.011765 0.294118 0.964706
0.109804 0.286275 0.925490
0.258824 0.309804 0.886275
0.396078 0.325490 0.796078
0.505882 0.309804 0.760784
0.623529 0.294118 0.768627
0.725490 0.266667 0.768627
0.796078 0.231373 0.768627
0.850980 0.200000 0.768627
0.050980 0.450980 0.874510
0.133333 0.447059 0.862745
0.262745 0.447059 0.866667
0.376471 0.447059 0.858824
0.517647 0.447059 0.796078
0.623529 0.423529 0.780392
0.717647 0.396078 0.792157
0.803922 0.372549 0.792157
0.862745 0.341176 0.784314
0.105882 0.552941 0.819608
0.180392 0.552941 0.827451
0.270588 0.568627 0.866667
0.388235 0.572549 0.882353
0.521569 0.556863 0.878431
0.635294 0.545098 0.823529
0.745098 0.521569 0.815686
0.819608 0.505882 0.823529
0.862745 0.478431 0.815686
0.231373 0.631373 0.768627
0.286275 0.643137 0.796078
0.321569 0.650980 0.870588
0.427451 0.654902 0.878431
0.545098 0.647059 0.882353
0.658824 0.650980 0.858824
0.749020 0.635294 0.839216
0.823529 0.623529 0.835294
0.874510 0.572549 0.843137
0.349020 0.717647 0.819608
0.333333 0.721569 0.827451
0.427451 0.717647 0.835294
0.466667 0.737255 0.878431
0.564706 0.745098 0.886275
0.678431 0.749020 0.874510
0.772549 0.729412 0.866667
0.827451 0.725490 0.854902
0.870588 0.690196 0.858824
0.368627 0.792157 0.839216
0.384314 0.768627 0.847059
0.486275 0.788235 0.858824
0.564706 0.792157 0.866667
0.639216 0.780392 0.886275
0.709804 0.784314 0.898039
0.772549 0.796078 0.905882
0.831373 0.788235 0.878431
0.894118 0.776471 0.882353
0.392157 0.858824 0.862745
0.431373 0.847059 0.874510
0.501961 0.839216 0.882353
0.600000 0.854902 0.886275
0.674510 0.862745 0.878431
0.737255 0.862745 0.882353
0.800000 0.862745 0.894118
0.850980 0.870588 0.905882
0.905882 0.839216 0.898039
0.392157 0.901961 0.874510
0.431373 0.909804 0.878431
0.521569 0.905882 0.870588
0.619608 0.898039 0.894118
0.690196 0.909804 0.898039
0.752941 0.933333 0.905882
0.835294 0.913725 0.905882
0.878431 0.992157 0.913725
0.952941 0.992157 0.964706
