modules/camera-engine/ios/LUTs/panasonic-dusk-atmosphere.cube
TITLE "Generated by Resolve"
LUT_3D_SIZE 5
0.0808118 0.073228 0.0694133
0.373724 0.130983 0.0895247
0.842115 0.18674 0.117189
1 0.205005 0.13402
1 0.205005 0.13402
0.0879377 0.244907 0.0800946
0.237324 0.224979 0.0774395
0.832715 0.187869 0.116167
1 0.205005 0.13402
1 0.205005 0.13402
0.143496 0.670756 0.132143
0.143038 0.66511 0.131975
0.703548 0.664408 0.159228
0.957153 0.563958 0.142733
0.957778 0.535332 0.138491
0.162387 0.922347 0.148058
0.162387 0.922347 0.148058
0.162387 0.922347 0.148058
0.953277 0.935714 0.173556
0.972686 0.927626 0.173541
0.162387 0.922347 0.148058
0.162387 0.922347 0.148058
0.162387 0.922347 0.148058
0.918959 0.949081 0.173739
0.972976 0.949172 0.173831
0.0717784 0.0655375 0.185138
0.358846 0.123857 0.192691
0.841398 0.18616 0.209232
1 0.200931 0.186435
1 0.200763 0.172869
0.0855879 0.225254 0.179614
0.196368 0.187869 0.156588
0.831342 0.186252 0.184848
1 0.202029 0.159426
1 0.203723 0.146105
0.14313 0.666255 0.132006
0.142672 0.660578 0.131823
0.69955 0.658961 0.158068
0.957107 0.556985 0.141726
0.957931 0.527901 0.137438
0.162387 0.922347 0.148058
0.162387 0.922347 0.148058
0.162387 0.922347 0.148058
0.951522 0.933593 0.17351
0.972656 0.925475 0.17351
0.162387 0.922347 0.148058
0.162387 0.922347 0.148058
0.162387 0.922347 0.148058
0.917082 0.949081 0.173754
0.972976 0.949172 0.173831
0.112978 0.179034 0.658228
0.231327 0.175051 0.646082
0.851499 0.235325 0.633143
1 0.247044 0.649622
1 0.246677 0.645518
0.109606 0.178897 0.653513
0.111833 0.17734 0.651514
0.833539 0.233097 0.627558
1 0.24625 0.641581
1 0.245777 0.637552
0.206683 0.685115 0.652064
0.206989 0.679484 0.651804
0.661234 0.645609 0.603937
0.96025 0.517891 0.514763
0.965988 0.482261 0.505211
0.168429 0.92195 0.499779
0.167865 0.921935 0.49749
0.166033 0.92163 0.486397
0.939696 0.912581 0.459495
0.969909 0.904387 0.456123
0.161898 0.920684 0.45771
0.161608 0.920592 0.455406
0.160235 0.920165 0.443915
0.905562 0.939254 0.438636
0.971008 0.939223 0.434852
0.162402 0.225483 0.959533
0.162234 0.22536 0.959075
0.828046 0.260578 0.991699
1 0.277623 1
1 0.277592 1
0.161212 0.224811 0.956802
0.160998 0.224704 0.956359
0.808743 0.258457 0.987198
1 0.277562 1
1 0.277516 1
0.221881 0.652308 0.961135
0.220661 0.644541 0.960235
0.579599 0.571649 0.930388
0.98439 0.459831 0.925551
0.98793 0.427466 0.926085
0.245624 0.963684 0.943862
0.245502 0.961074 0.943328
0.244877 0.947601 0.940673
0.917784 0.916381 0.906004
0.967025 0.907835 0.904341
0.245945 0.969528 0.936446
0.245945 0.969558 0.936034
0.245945 0.969757 0.933898
0.880278 0.964981 0.896941
0.965515 0.964736 0.89398
0.163561 0.226291 0.962539
0.163561 0.226291 0.962539
0.818982 0.259358 0.996048
1 0.277882 1
1 0.277882 1
0.163561 0.226291 0.962539
0.163561 0.226291 0.962539
0.798581 0.257343 0.994644
1 0.277882 1
1 0.277882 1
0.21973 0.6309 0.976486
0.218204 0.622385 0.97583
0.5561 0.549371 0.951385
0.986267 0.438468 0.958099
0.99147 0.407141 0.964508
0.255924 0.961273 0.987594
0.255695 0.95848 0.987427
0.254551 0.944167 0.986633
0.911437 0.909728 0.964111
0.966476 0.901289 0.964675
0.256855 0.973114 0.988251
0.256855 0.973114 0.988251
0.256855 0.973114 0.988251
0.871138 0.963592 0.963623
0.961913 0.96289 0.962615
