modules/camera-engine/ios/LUTs/panasonic-forest-green-cool.cube
TITLE "Generated by Resolve"
LUT_3D_SIZE 33
0.00662242 0.00927749 0.00830091
0.00662242 0.00927749 0.00830091
0.00697337 0.00929274 0.00833143
0.0163882 0.0102693 0.00917067
0.0263676 0.0112612 0.0100404
0.0473335 0.0130465 0.0111391
0.068574 0.0147707 0.0122072
0.0954452 0.0159152 0.0129549
0.122927 0.0170138 0.0136416
0.161151 0.0173953 0.0135348
0.200107 0.0179751 0.0134432
0.252262 0.0217441 0.0135653
0.304845 0.0264591 0.013901
0.365881 0.0470436 0.0178073
0.427268 0.0684825 0.0219425
0.492027 0.106477 0.0325322
0.556695 0.144686 0.0447242
0.617716 0.191501 0.0626688
0.680323 0.239384 0.0827039
0.749249 0.321981 0.10811
0.811017 0.404425 0.12488
0.818387 0.418036 0.125063
0.825238 0.431403 0.12491
0.825406 0.431388 0.1252
0.825559 0.431373 0.12549
0.825818 0.431495 0.12575
0.826093 0.431601 0.126024
0.826078 0.431739 0.126131
0.826047 0.431861 0.126238
0.826185 0.431861 0.126253
0.826322 0.431846 0.126268
0.826352 0.431846 0.126421
0.826352 0.431846 0.126543
0.00662242 0.00927749 0.00830091
0.00662242 0.00927749 0.00830091
0.00683604 0.00929274 0.00831617
0.0130159 0.0102541 0.00880446
0.0228733 0.0112764 0.00955215
0.0421912 0.0131838 0.0108949
0.0635538 0.0149081 0.0119783
0.0919051 0.0159304 0.0129549
0.119554 0.0169833 0.013611
0.159487 0.0167849 0.0130617
0.198688 0.0173953 0.0129549
0.253468 0.0213931 0.0129549
0.306325 0.026276 0.0132448
0.37055 0.0486458 0.0164187
0.432319 0.0704662 0.0206455
0.501564 0.113039 0.0327764
0.566506 0.151476 0.0456092
0.629847 0.202304 0.0666514
0.691844 0.250065 0.086244
0.753445 0.328832 0.108721
0.814359 0.411063 0.12459
0.818265 0.417945 0.124819
0.825101 0.431296 0.124651
0.825238 0.431403 0.12491
0.825406 0.431388 0.1252
0.825559 0.431373 0.12549
0.825818 0.431495 0.125765
0.82594 0.431617 0.125887
0.825925 0.431739 0.125978
0.825925 0.431739 0.125978
0.826062 0.431739 0.126009
0.826078 0.431739 0.126131
0.826093 0.431724 0.126268
0.00662242 0.00927749 0.00830091
0.00662242 0.00927749 0.00830091
0.00683604 0.00929274 0.00831617
0.0128176 0.0102541 0.00877394
0.01944 0.0112764 0.00910964
0.0386358 0.0131838 0.0103914
0.0583658 0.0150454 0.0117189
0.0868238 0.0160525 0.0127108
0.115938 0.0169833 0.013611
0.156008 0.0167544 0.0130159
0.196933 0.0167849 0.0124666
0.251942 0.020798 0.0124666
0.307424 0.0259098 0.0126345
0.371908 0.0484169 0.0157473
0.436881 0.0719921 0.0192111
0.506477 0.114916 0.0316014
0.57612 0.157839 0.0464027
0.639872 0.208804 0.0680552
0.703517 0.260914 0.0896468
0.763973 0.339773 0.110933
0.817761 0.418082 0.124163
0.821439 0.424674 0.124315
0.824964 0.431174 0.124376
0.825101 0.431296 0.124651
0.825238 0.431403 0.12491
0.825406 0.431388 0.1252
0.825544 0.431388 0.125475
0.825666 0.43151 0.125597
0.825788 0.431632 0.125719
0.825788 0.431632 0.125719
0.825788 0.431632 0.125719
0.825803 0.431617 0.125856
0.825818 0.431617 0.125994
0.007187 0.0142061 0.0100099
0.007187 0.0127718 0.00946059
0.00723278 0.0127413 0.00944533
0.00955215 0.0118105 0.00875868
0.015198 0.0130159 0.00943008
0.0316777 0.0149996 0.0107881
0.0514534 0.0169223 0.0120394
0.0818341 0.0187381 0.0132753
0.111345 0.0196078 0.0141604
0.157702 0.0182193 0.0132448
0.199069 0.0182193 0.012665
0.260838 0.022446 0.0123293
0.316655 0.0278782 0.0125429
0.385733 0.0557717 0.0162966
0.450874 0.0796063 0.0198062
0.522377 0.126619 0.0346685
0.592386 0.169574 0.0502937
0.654108 0.222919 0.0725719
0.716548 0.274998 0.0928817
0.767437 0.345022 0.111269
0.820554 0.423377 0.123781
0.821195 0.424613 0.124025
0.824704 0.431067 0.124102
0.824964 0.431174 0.124376
0.825101 0.431296 0.124636
0.825086 0.431418 0.124743
0.825254 0.431403 0.125032
0.825391 0.431388 0.125185
0.825513 0.43151 0.125307
0.825513 0.43151 0.125307
0.825513 0.43151 0.125307
0.825666 0.43151 0.12546
0.825666 0.431495 0.125597
0.00761425 0.0192416 0.0117342
0.00759899 0.017731 0.0111543
0.00766003 0.0162966 0.010605
0.00979629 0.0152895 0.00959792
0.0112001 0.0147402 0.00976577
0.0277104 0.0166171 0.0115663
0.0444343 0.0187381 0.0124666
0.0749523 0.0206302 0.0135958
0.106355 0.0223087 0.014725
0.15317 0.0208286 0.0137942
0.200809 0.0196689 0.0128939
0.263127 0.0239109 0.0125277
0.325719 0.0295109 0.0124056
0.395178 0.0578164 0.0161898
0.464866 0.0870375 0.0203861
0.536614 0.134249 0.035935
0.608957 0.18114 0.0543984
0.670542 0.234638 0.0766461
0.729686 0.289631 0.0958267
0.77937 0.359503 0.112932
0.823392 0.428901 0.123354
0.823911 0.429923 0.123583
0.824445 0.430945 0.123842
0.824704 0.431067 0.124102
0.824964 0.431174 0.124376
0.824948 0.431296 0.124483
0.824948 0.431418 0.12459
0.825086 0.431418 0.124743
0.825238 0.431403 0.124895
0.825223 0.431403 0.124895
0.825223 0.431403 0.12488
0.82536 0.431403 0.125032
0.825528 0.431388 0.1252
0.00892653 0.0348058 0.0184634
0.00920119 0.0349126 0.0176699
0.00926223 0.033463 0.0170901
0.0113375 0.0330205 0.0152285
0.014313 0.0319829 0.0136263
0.0211643 0.033463 0.0161746
0.0354314 0.0360723 0.018143
0.0691234 0.0348058 0.0208591
0.100038 0.0365301 0.0207065
0.146532 0.0312505 0.0176242
0.194522 0.0296635 0.0166018
0.263142 0.0264744 0.013489
0.326024 0.0319829 0.0133364
0.398886 0.0598306 0.0166476
0.46865 0.089128 0.0208743
0.541207 0.137774 0.0369116
0.613794 0.184756 0.0556954
0.67686 0.241749 0.0795453
0.735195 0.296407 0.0980545
0.775738 0.354559 0.112169
0.820218 0.42388 0.12311
0.821637 0.426383 0.123018
0.822187 0.42742 0.123262
0.823362 0.42916 0.123415
0.823636 0.429282 0.123705
0.824186 0.43003 0.123857
0.82417 0.430152 0.123964
0.824231 0.430549 0.124025
0.824384 0.430533 0.124178
0.824582 0.430915 0.124117
0.824582 0.43093 0.124102
0.824704 0.431052 0.124224
0.824842 0.431037 0.124376
0.0101625 0.05037 0.0251621
0.0104372 0.0504616 0.0243534
0.0107881 0.0505837 0.0234989
0.0127108 0.0501869 0.0218967
0.0155947 0.0497597 0.0192416
0.0254673 0.0504616 0.0189364
0.0314946 0.0522316 0.0226139
0.0592355 0.0526741 0.025391
0.0942092 0.0508278 0.0285191
0.1402 0.045594 0.0236057
0.187884 0.0401617 0.0204166
0.256825 0.0364843 0.0171817
0.325978 0.0344854 0.0142672
0.3991 0.0622721 0.0175174
0.472236 0.0910658 0.0213169
0.544884 0.139773 0.0375067
0.618418 0.188128 0.0568856
0.681498 0.245319 0.0806897
0.741024 0.30367 0.100359
0.780941 0.361395 0.113954
0.816953 0.418784 0.12285
0.818433 0.421317 0.122759
0.819898 0.423865 0.122667
0.821088 0.42562 0.122835
0.822263 0.427359 0.123003
0.822812 0.428107 0.123171
0.823362 0.428855 0.123339
0.823438 0.429221 0.1234
0.823499 0.429603 0.123461
0.823682 0.429969 0.1234
0.82388 0.430335 0.123339
0.824002 0.430472 0.123445
0.824125 0.430579 0.123568
0.0132296 0.0759442 0.0371099
0.0135805 0.0775464 0.0370336
0.0138705 0.0776989 0.036286
0.0144808 0.0792096 0.0365606
0.0163729 0.0787671 0.0353704
0.024918 0.0767224 0.0268711
0.0355993 0.0775464 0.026627
0.0487831 0.0841688 0.0351568
0.0764172 0.0849928 0.0383001
0.143084 0.0771954 0.0420539
0.190463 0.0717327 0.0370947
0.261601 0.0630655 0.0289921
0.330434 0.0598001 0.0256657
0.398154 0.065507 0.0200504
0.471397 0.0941024 0.0237278
0.545449 0.140246 0.0377356
0.619043 0.188586 0.057145
0.682002 0.245777 0.0809339
0.741512 0.304082 0.100572
0.779446 0.358953 0.113527
0.815671 0.416312 0.122667
0.815824 0.416495 0.122637
0.817273 0.418982 0.122576
0.817685 0.419867 0.122576
0.81886 0.421607 0.122744
0.81883 0.421744 0.122713
0.819394 0.422477 0.122896
0.819089 0.42182 0.122988
0.81915 0.422187 0.123049
0.819059 0.421927 0.122957
0.819226 0.422278 0.122896
0.81976 0.423148 0.122911
0.819883 0.423301 0.123018
0.0159457 0.101183 0.0487831
0.0162509 0.102739 0.0486458
0.016556 0.104326 0.0485237
0.0170901 0.105837 0.0487678
0.017792 0.107271 0.0489204
0.0239719 0.105501 0.0440528
0.0344091 0.103456 0.0341497
0.0565194 0.107927 0.0374304
0.0653391 0.116533 0.0485542
0.124407 0.111864 0.0508888
0.19324 0.103532 0.0555276
0.264317 0.094728 0.0462501
0.335317 0.0864729 0.037705
0.402747 0.0909438 0.0315862
0.470436 0.097261 0.0262913
0.544625 0.143252 0.0403296
0.619638 0.188998 0.0573739
0.682567 0.246204 0.0811475
0.742016 0.304509 0.100786
0.779889 0.359304 0.11371
0.814404 0.413916 0.122454
0.814527 0.414038 0.122454
0.814649 0.41416 0.122438
0.815045 0.415061 0.122438
0.815442 0.415946 0.122438
0.815427 0.416068 0.122423
0.815396 0.416205 0.122377
0.815106 0.415564 0.122484
0.814817 0.414939 0.122576
0.81471 0.414679 0.122484
0.814603 0.41442 0.122377
0.815122 0.415259 0.122408
0.815641 0.416129 0.122408
0.0232395 0.134447 0.0711528
0.0242161 0.137865 0.0725414
0.024506 0.139361 0.0723583
0.0260777 0.142351 0.0732586
0.0265965 0.143755 0.0734417
0.0285344 0.143572 0.0725719
0.0343175 0.142 0.0694285
0.0453956 0.141939 0.0570382
0.0708171 0.146471 0.0558633
0.0959335 0.161028 0.0775921
0.161517 0.154635 0.0779278
0.277104 0.139818 0.0789502
0.347982 0.13167 0.0688792
0.427848 0.13077 0.0616007
0.494697 0.135729 0.0553597
0.549432 0.153002 0.0509651
0.624308 0.198306 0.0676585
0.680232 0.243748 0.0802472
0.739925 0.302098 0.100053
0.779751 0.359121 0.113664
0.81442 0.413901 0.122469
0.81442 0.413901 0.122469
0.814527 0.414038 0.122454
0.814527 0.414038 0.122454
0.814939 0.414908 0.122454
0.814939 0.414908 0.122454
0.814908 0.415045 0.122423
0.814908 0.415045 0.122423
0.814603 0.41442 0.122515
0.814603 0.414405 0.122515
0.814511 0.414176 0.122423
0.814511 0.41416 0.122423
0.815 0.414984 0.122438
0.0297551 0.167575 0.0931868
0.0306706 0.170825 0.0944381
0.0315709 0.174075 0.0956893
0.0330663 0.176837 0.0964065
0.0345769 0.179553 0.0970932
0.036408 0.179263 0.0962234
0.0383764 0.179034 0.0952316
0.0458228 0.178988 0.0895247
0.0570993 0.179278 0.0784772
0.110414 0.186282 0.0806744
0.131365 0.20444 0.104341
0.243717 0.191546 0.099855
0.361135 0.176638 0.10219
0.441062 0.175769 0.0941024
0.52018 0.175448 0.086183
0.574578 0.19144 0.0818494
0.629267 0.208118 0.0784314
0.684962 0.253239 0.0906081
0.737713 0.299519 0.0993057
0.777661 0.356542 0.113054
0.81442 0.413916 0.122454
0.81442 0.413916 0.122454
0.81442 0.413901 0.122469
0.81442 0.413901 0.122469
0.81442 0.413901 0.122469
0.814404 0.413901 0.122469
0.814404 0.413901 0.122469
0.814404 0.413901 0.122469
0.814404 0.413901 0.122469
0.81442 0.413901 0.122469
0.81442 0.413901 0.122469
0.81442 0.413901 0.122469
0.81442 0.413901 0.122469
0.0421912 0.217945 0.134081
0.0441291 0.223819 0.138018
0.0449683 0.226825 0.139101
0.0478676 0.232563 0.143175
0.0493019 0.234714 0.143465
0.0526436 0.234211 0.141741
0.0543069 0.233417 0.140536
0.0536202 0.232166 0.138109
0.0608682 0.230076 0.131075
0.0752575 0.231174 0.123674
0.127199 0.240696 0.122347
0.196872 0.265812 0.155489
0.310124 0.252827 0.150973
0.449928 0.23624 0.143236
0.530556 0.235386 0.136126
0.609018 0.243336 0.125338
0.663722 0.259632 0.121828
0.712612 0.2963 0.123095
0.763851 0.34226 0.129747
0.775921 0.354742 0.111681
0.812848 0.412314 0.121141
0.813428 0.412284 0.121996
0.813413 0.412268 0.121996
0.813764 0.412757 0.122469
0.813764 0.412757 0.122469
0.813977 0.413123 0.122423
0.813977 0.413138 0.122423
0.814191 0.413504 0.122515
0.814191 0.41352 0.122515
0.814404 0.413886 0.122469
0.81442 0.413901 0.122469
0.81442 0.413901 0.122469
0.81442 0.413901 0.122469
0.0552834 0.270558 0.176974
0.0573434 0.276509 0.181018
0.0592813 0.282445 0.185
0.0621958 0.288197 0.189105
0.0650797 0.293843 0.193088
0.0681773 0.292653 0.190661
0.0711223 0.291417 0.188251
0.0700236 0.289769 0.18558
0.0692149 0.287953 0.18265
0.0799725 0.281041 0.169482
0.094667 0.280964 0.161746
0.200046 0.297383 0.167529
0.263127 0.327153 0.206744
0.396979 0.313161 0.190417
0.538445 0.296254 0.184039
0.618677 0.303578 0.17467
0.697795 0.311543 0.164721
0.745098 0.348684 0.163775
0.790341 0.386297 0.160281
0.801587 0.398627 0.140902
0.811536 0.411276 0.120089
0.812131 0.411292 0.120974
0.812741 0.411307 0.121859
0.813077 0.411765 0.122194
0.813474 0.412329 0.122713
0.813703 0.412726 0.122835
0.813947 0.413169 0.12285
0.814221 0.413657 0.123156
0.814481 0.414115 0.123278
0.814786 0.41474 0.123095
0.815045 0.415198 0.123095
0.815152 0.415427 0.123201
0.815213 0.415534 0.123262
0.0798505 0.339117 0.236744
0.0853285 0.347753 0.244388
0.0874189 0.353872 0.248554
0.0933089 0.362325 0.256336
0.0962844 0.368185 0.260502
0.100221 0.37055 0.262257
0.103182 0.369665 0.259831
0.106752 0.369192 0.258885
0.105562 0.367498 0.256092
0.105623 0.364279 0.251987
0.113466 0.351446 0.233509
0.126665 0.343679 0.21857
0.221149 0.364523 0.23592
0.338491 0.405646 0.270375
0.472251 0.391684 0.253483
0.611276 0.372091 0.218433
0.692531 0.379049 0.210849
0.764645 0.394598 0.192447
0.809064 0.432837 0.187243
0.832929 0.460243 0.173205
0.841306 0.473701 0.150607
0.83772 0.465537 0.146914
0.838315 0.465431 0.147784
0.835538 0.459297 0.145006
0.835843 0.459678 0.145418
0.835706 0.458305 0.150118
0.83592 0.458686 0.150286
0.837263 0.461631 0.154025
0.837568 0.462242 0.15433
0.839887 0.468498 0.148623
0.840284 0.469398 0.14818
0.842252 0.47332 0.150683
0.842481 0.473777 0.150958
0.105898 0.407523 0.297322
0.111421 0.416251 0.305074
0.11693 0.424979 0.31281
0.12285 0.433463 0.320653
0.128771 0.441901 0.32845
0.132692 0.44448 0.330297
0.136599 0.447013 0.332113
0.140307 0.447059 0.331456
0.143938 0.446998 0.330694
0.143832 0.444343 0.327031
0.143862 0.441505 0.323095
0.1523 0.425818 0.300206
0.15993 0.409201 0.277348
0.302419 0.434699 0.283467
0.413672 0.484154 0.333639
0.544305 0.467872 0.287938
0.680339 0.449424 0.247807
0.753185 0.464744 0.229908
0.82562 0.479866 0.21181
0.847913 0.50779 0.196109
0.870329 0.535668 0.181201
0.866682 0.527596 0.177371
0.862989 0.519448 0.17351
0.860197 0.51339 0.170764
0.857374 0.50724 0.168002
0.857176 0.505821 0.172427
0.857053 0.504417 0.177066
0.85832 0.507301 0.180652
0.859678 0.510338 0.18436
0.861936 0.516533 0.179126
0.864424 0.522911 0.173541
0.866423 0.527092 0.175692
0.868467 0.531151 0.178378
0.148302 0.484291 0.372519
0.154757 0.49456 0.382712
0.160372 0.50341 0.3906
0.166049 0.512734 0.40032
0.172015 0.521233 0.408209
0.176013 0.525429 0.41239
0.180072 0.528313 0.414481
0.184115 0.529595 0.415488
0.188113 0.53019 0.415213
0.194308 0.529442 0.413962
0.194385 0.527245 0.410605
0.198245 0.52282 0.405249
0.207828 0.511147 0.384665
0.207202 0.49453 0.360296
0.321386 0.502297 0.370672
0.482734 0.565881 0.3823
0.613275 0.549645 0.336385
0.730922 0.519585 0.252033
0.802686 0.535012 0.2318
0.850614 0.538155 0.215228
0.874601 0.565148 0.201678
0.876997 0.56141 0.203494
0.873289 0.55346 0.199557
0.873793 0.552239 0.199237
0.870939 0.54638 0.196384
0.870893 0.547295 0.196506
0.870604 0.546105 0.200687
0.869963 0.548272 0.199466
0.871214 0.551247 0.202869
0.870329 0.554528 0.202197
0.872969 0.560464 0.197528
0.872175 0.564828 0.196963
0.874037 0.568856 0.199496
0.190356 0.559808 0.447166
0.196521 0.569772 0.457237
0.202991 0.579995 0.467369
0.208515 0.589105 0.476921
0.214115 0.598245 0.486473
0.218082 0.602441 0.490654
0.222065 0.606653 0.49485
0.2262 0.608164 0.496025
0.230365 0.609689 0.4972
0.236988 0.609674 0.496544
0.243626 0.609537 0.495766
0.247959 0.606119 0.491295
0.252216 0.602457 0.486656
0.258442 0.598154 0.471489
0.260136 0.586892 0.450736
0.392432 0.568521 0.389563
0.55108 0.647089 0.431006
0.669245 0.618067 0.346487
0.786587 0.588296 0.261753
0.832822 0.590845 0.241764
0.878981 0.59469 0.223423
0.881621 0.591043 0.224384
0.883711 0.587289 0.226017
0.884199 0.586175 0.225666
0.884657 0.585092 0.225299
0.884672 0.586114 0.225498
0.884703 0.587182 0.225696
0.884215 0.589349 0.224689
0.883757 0.591562 0.223545
0.883009 0.59469 0.223148
0.882322 0.597864 0.22266
0.881468 0.601892 0.222904
0.880705 0.606012 0.22298
0.226307 0.630381 0.529397
0.229389 0.638132 0.540352
0.23566 0.648203 0.55053
0.238193 0.654841 0.559945
0.243717 0.663905 0.569528
0.244404 0.666804 0.573587
0.248341 0.671 0.577798
0.248569 0.672801 0.579812
0.252689 0.674327 0.581003
0.254276 0.675029 0.581338
0.260929 0.67509 0.580697
0.271565 0.67451 0.579126
0.276188 0.671534 0.575036
0.28925 0.668727 0.571176
0.299077 0.670588 0.561257
0.301869 0.674449 0.555077
0.391974 0.620737 0.480964
0.626215 0.732784 0.452979
0.745312 0.704692 0.368673
0.809064 0.634089 0.278706
0.855482 0.635752 0.257893
0.870832 0.633036 0.240024
0.873106 0.629465 0.240513
0.873503 0.628595 0.239246
0.873869 0.627558 0.238743
0.873259 0.628901 0.240284
0.873304 0.629953 0.240635
0.872221 0.632166 0.24358
0.87187 0.634318 0.242939
0.870176 0.637034 0.248203
0.86952 0.640116 0.248432
0.86714 0.642908 0.255406
0.866239 0.64683 0.256382
0.261707 0.700008 0.611231
0.264714 0.7075 0.621714
0.267979 0.715496 0.632914
0.270451 0.722026 0.642252
0.272984 0.728679 0.651759
0.273686 0.731594 0.655848
0.274403 0.734524 0.659968
0.274632 0.736339 0.661982
0.274861 0.738155 0.664027
0.276432 0.738872 0.664378
0.278004 0.739605 0.664744
0.288487 0.739055 0.663203
0.299077 0.738506 0.661646
0.31191 0.735759 0.657816
0.325017 0.732937 0.653941
0.32874 0.737331 0.64828
0.331807 0.741909 0.642634
0.468055 0.682322 0.462211
0.700526 0.817273 0.475624
0.768917 0.751415 0.385428
0.832303 0.680583 0.295537
0.846799 0.673243 0.276722
0.861723 0.670405 0.258961
0.863005 0.669902 0.257008
0.863325 0.669078 0.255802
0.862608 0.670268 0.257435
0.861906 0.671641 0.259159
0.860441 0.673564 0.262501
0.85922 0.675761 0.265721
0.857099 0.678203 0.271504
0.855253 0.680888 0.277302
0.852461 0.683421 0.284825
0.849836 0.686107 0.29247
0.277028 0.741497 0.672038
0.277668 0.744244 0.675776
0.280751 0.751858 0.686442
0.28127 0.753933 0.689372
0.283696 0.760342 0.698558
0.283833 0.761349 0.699947
0.284535 0.764218 0.703975
0.284398 0.764828 0.704677
0.284627 0.766629 0.706691
0.28426 0.766979 0.706798
0.285817 0.767712 0.707164
0.28484 0.7682 0.706905
0.295247 0.767681 0.705394
0.294652 0.767926 0.704677
0.307378 0.76524 0.700908
0.345052 0.76083 0.69575
0.349111 0.765148 0.690089
0.373999 0.772503 0.68806
0.501976 0.716197 0.518669
0.751629 0.883482 0.486015
0.821714 0.819776 0.395224
0.790707 0.692149 0.382849
0.803006 0.682307 0.365576
0.820005 0.691218 0.35523
0.821469 0.691081 0.353414
0.818601 0.68954 0.356298
0.8177 0.690669 0.358144
0.80972 0.686778 0.366079
0.807782 0.688365 0.369757
0.799481 0.685832 0.378622
0.796811 0.687892 0.384771
0.789883 0.68748 0.392599
0.786633 0.689723 0.400259
0.291951 0.781735 0.731121
0.292668 0.784421 0.734829
0.293385 0.787381 0.738857
0.293873 0.789319 0.741634
0.294347 0.791302 0.744427
0.294469 0.792279 0.745769
0.294575 0.793256 0.747112
0.294453 0.793851 0.747799
0.294331 0.794476 0.748531
0.293965 0.794827 0.748638
0.293599 0.795193 0.74876
0.292638 0.795666 0.748486
0.291676 0.796155 0.748241
0.291066 0.796384 0.747494
0.290471 0.796628 0.746761
0.326925 0.792477 0.741787
0.36463 0.788083 0.736629
0.39266 0.79498 0.734646
0.417807 0.802304 0.732601
0.570901 0.757855 0.497841
0.803784 0.948714 0.496895
0.781888 0.831037 0.481621
0.748837 0.702205 0.471
0.762844 0.703853 0.461601
0.779904 0.71313 0.451575
0.778012 0.712245 0.454047
0.775051 0.710719 0.457145
0.767544 0.707134 0.464973
0.759274 0.703059 0.473213
0.751232 0.700679 0.482216
0.742626 0.697963 0.491417
0.736126 0.697932 0.499489
0.729015 0.697459 0.507454
0.29836 0.793347 0.749523
0.299199 0.793774 0.75053
0.299916 0.796521 0.754299
0.300877 0.79707 0.755352
0.301381 0.798947 0.758038
0.301747 0.799237 0.758572
0.301869 0.800183 0.759869
0.301747 0.800183 0.759625
0.301625 0.800763 0.760327
0.301244 0.800656 0.75996
0.300893 0.800992 0.760067
0.30016 0.80087 0.759091
0.299214 0.801343 0.758801
0.297902 0.801099 0.757244
0.297276 0.801328 0.756481
0.295476 0.801205 0.754879
0.331502 0.797101 0.749966
0.452674 0.793973 0.752346
0.482826 0.800717 0.750484
0.509926 0.831724 0.763851
0.693324 0.886961 0.638636
0.809064 0.946487 0.577173
0.786694 0.830198 0.562509
0.768582 0.76199 0.57023
0.782742 0.764996 0.561761
0.784527 0.766934 0.562936
0.781949 0.765713 0.565896
0.784955 0.770245 0.570916
0.777996 0.767178 0.57882
0.782513 0.774792 0.585168
0.775708 0.773541 0.593988
0.783093 0.785397 0.601678
0.778302 0.786908 0.609583
0.304662 0.804471 0.767254
0.305409 0.804913 0.768231
0.306264 0.805402 0.769329
0.307195 0.805875 0.770291
0.308171 0.806378 0.771267
0.308537 0.806622 0.77174
0.308904 0.806867 0.772229
0.308797 0.806867 0.772
0.308675 0.806867 0.771756
0.308309 0.806745 0.771374
0.307958 0.806622 0.771008
0.30724 0.8065 0.770031
0.306523 0.806363 0.769055
0.305196 0.806119 0.767468
0.303868 0.805875 0.765881
0.302098 0.805753 0.764324
0.300298 0.805615 0.762722
0.418982 0.802762 0.765133
0.541299 0.799359 0.767346
0.573358 0.82974 0.781384
0.600488 0.861265 0.795132
0.681773 0.82742 0.646738
0.81529 0.945113 0.654734
0.806226 0.88719 0.66041
0.788922 0.821714 0.66894
0.788968 0.819547 0.671
0.78999 0.821088 0.672663
0.793088 0.825589 0.677272
0.796521 0.830533 0.682322
0.801663 0.838407 0.68806
0.807263 0.846983 0.694163
0.815351 0.859037 0.70106
0.824201 0.872206 0.708461
0.307332 0.805829 0.770825
0.307317 0.805829 0.770794
0.30808 0.806271 0.771786
0.30811 0.806287 0.771832
0.30901 0.806745 0.772732
0.308934 0.80676 0.772519
0.309255 0.806989 0.772961
0.309148 0.806882 0.772747
0.309026 0.806867 0.772488
0.308675 0.806867 0.771893
0.308309 0.806745 0.771511
0.307607 0.8065 0.770413
0.306889 0.806363 0.769421
0.305333 0.806241 0.767605
0.30399 0.805997 0.766003
0.303151 0.805982 0.765255
0.301396 0.805875 0.763714
0.389517 0.801251 0.760494
0.509773 0.797818 0.762402
0.592157 0.82388 0.792065
0.623301 0.85507 0.807034
0.634974 0.828122 0.712154
0.790738 0.94313 0.701091
0.834043 0.945541 0.718929
0.822461 0.886656 0.728923
0.822553 0.882872 0.730709
0.82359 0.884245 0.732326
0.823697 0.884443 0.732647
0.826688 0.888777 0.737087
0.827024 0.889265 0.737591
0.831815 0.89662 0.742824
0.83238 0.89752 0.743496
0.839826 0.908583 0.749706
0.30988 0.807126 0.774227
0.309865 0.807126 0.774197
0.309865 0.807126 0.774197
0.309865 0.807126 0.774197
0.309865 0.807111 0.774197
0.309743 0.807126 0.773968
0.309621 0.807126 0.773709
0.309514 0.807004 0.773465
0.309392 0.806882 0.773205
0.309026 0.806867 0.77261
0.308675 0.806867 0.771984
0.307958 0.806622 0.770901
0.30724 0.806378 0.769802
0.305699 0.806241 0.767987
0.304143 0.806119 0.76614
0.303258 0.806104 0.765362
0.302419 0.806104 0.764614
0.391073 0.801541 0.761563
0.481712 0.796414 0.757992
0.562264 0.822354 0.787213
0.642817 0.849439 0.817716
0.669062 0.837247 0.737118
0.768704 0.914458 0.719676
0.811292 0.943542 0.763165
0.850614 0.944137 0.784985
0.854231 0.944152 0.787625
0.855344 0.944167 0.788861
0.855421 0.944167 0.789059
0.855421 0.944152 0.789181
0.855421 0.944152 0.789197
0.855421 0.944152 0.789197
0.855421 0.944152 0.789197
0.855421 0.944152 0.789197
0.310231 0.807248 0.774838
0.310231 0.807141 0.774701
0.310231 0.807126 0.774685
0.310109 0.807126 0.774701
0.310109 0.807126 0.774701
0.309987 0.807126 0.774456
0.309865 0.807126 0.774197
0.309758 0.807126 0.773846
0.309636 0.807004 0.773587
0.309148 0.806882 0.772854
0.308797 0.806867 0.772244
0.307973 0.806622 0.771038
0.30724 0.806378 0.769924
0.305699 0.806241 0.768002
0.304143 0.806119 0.76614
0.303151 0.806104 0.765133
0.302296 0.806104 0.764385
0.407599 0.80235 0.764263
0.499733 0.797269 0.760891
0.564584 0.823743 0.787778
0.643534 0.850889 0.818051
0.66659 0.836545 0.735958
0.765469 0.909865 0.714336
0.809903 0.943389 0.762127
0.849302 0.944015 0.783871
0.854093 0.944137 0.787594
0.855344 0.944152 0.788968
0.855421 0.944167 0.789075
0.855421 0.944152 0.789181
0.855421 0.944152 0.789197
0.855421 0.944152 0.789197
0.855421 0.944152 0.789197
0.855421 0.944152 0.789197
0.310597 0.80737 0.775433
0.310582 0.807263 0.775296
0.310582 0.807141 0.775189
0.310475 0.807141 0.775174
0.310353 0.807141 0.775158
0.310231 0.807126 0.774929
0.310109 0.807126 0.774685
0.309972 0.807126 0.774319
0.30985 0.807126 0.773938
0.309392 0.807004 0.77322
0.308904 0.806867 0.772488
0.30808 0.806622 0.771267
0.30724 0.806378 0.770047
0.305699 0.806241 0.768109
0.304128 0.806104 0.76614
0.303166 0.806104 0.765148
0.30219 0.806104 0.764157
0.408133 0.802518 0.764355
0.517235 0.798169 0.763836
0.581964 0.824521 0.790448
0.645274 0.852384 0.81857
0.667048 0.837369 0.736278
