modules/camera-engine/ios/LUTs/panasonic-camping-vibe.cube
TITLE "Generated by Resolve"
LUT_3D_SIZE 9
0.112444 0.0948653 0.0856031
0.134478 0.0960708 0.0844129
0.246433 0.133104 0.0891127
0.521416 0.208148 0.0958877
0.783261 0.250065 0.0944991
0.869062 0.253834 0.0968795
0.869062 0.253834 0.0968795
0.869062 0.253834 0.0968795
0.869062 0.253834 0.0968795
0.100328 0.0847181 0.0648966
0.111192 0.0935378 0.0822003
0.211322 0.119966 0.0869764
0.500786 0.206928 0.0974441
0.776181 0.249607 0.0944839
0.869062 0.253834 0.0968795
0.869062 0.253834 0.0968795
0.869062 0.253834 0.0968795
0.869062 0.253834 0.0968795
0.112444 0.162768 0.0597391
0.109911 0.150423 0.0476997
0.14728 0.142412 0.0436408
0.433341 0.201801 0.0823224
0.766339 0.248417 0.094316
0.869062 0.253834 0.0968795
0.869062 0.253834 0.0968795
0.869062 0.253834 0.0968795
0.869062 0.253834 0.0968795
0.124743 0.326024 0.131212
0.124514 0.321355 0.129961
0.124224 0.315465 0.12842
0.39173 0.386252 0.158465
0.68571 0.321996 0.124666
0.882811 0.284688 0.100206
0.870008 0.254108 0.0956893
0.869062 0.253834 0.0968795
0.869062 0.253834 0.0968795
0.173892 0.537881 0.165331
0.173312 0.535119 0.164752
0.172625 0.531746 0.164065
0.170764 0.522545 0.162219
0.671977 0.651713 0.259525
0.841123 0.518151 0.222599
0.870619 0.459358 0.188373
0.871824 0.439384 0.179553
0.87274 0.432319 0.176532
0.208759 0.693172 0.181674
0.208453 0.691981 0.181064
0.208087 0.690517 0.180331
0.207095 0.68661 0.178378
0.26743 0.665629 0.171893
0.851057 0.812634 0.306249
0.921675 0.761715 0.279438
0.921141 0.752255 0.278676
0.920958 0.748775 0.278614
0.207828 0.729763 0.174945
0.207828 0.729763 0.174945
0.207828 0.729763 0.174945
0.207828 0.729763 0.174945
0.207828 0.729763 0.174945
0.635828 0.816617 0.241459
0.916152 0.859907 0.315328
0.924804 0.849851 0.307286
0.924987 0.848066 0.3066
0.207828 0.729763 0.174945
0.207828 0.729763 0.174945
0.207828 0.729763 0.174945
0.207828 0.729763 0.174945
0.207828 0.729763 0.174945
0.481498 0.76611 0.190494
0.904616 0.880552 0.324575
0.924544 0.859464 0.307927
0.924544 0.859464 0.307927
0.207828 0.729763 0.174945
0.207828 0.729763 0.174945
0.207828 0.729763 0.174945
0.207828 0.729763 0.174945
0.207828 0.729763 0.174945
0.412116 0.743328 0.170901
0.898405 0.885237 0.325643
0.924544 0.859464 0.307927
0.924544 0.859464 0.307927
0.112322 0.0948348 0.0872663
0.128237 0.0954452 0.0861372
0.239994 0.130343 0.0890822
0.518853 0.208148 0.0966201
0.782238 0.25005 0.0943923
0.869062 0.253834 0.0968795
0.869062 0.253834 0.0968795
0.869062 0.253834 0.0968795
0.869062 0.253834 0.0968795
0.109209 0.0927291 0.0804913
0.112444 0.0948653 0.0856031
0.205493 0.118364 0.0870832
0.496544 0.206455 0.0975052
0.775067 0.249516 0.0944991
0.869062 0.253834 0.0968795
0.869062 0.253834 0.0968795
0.869062 0.253834 0.0968795
0.869062 0.253834 0.0968795
0.110491 0.152605 0.0497597
0.107515 0.141527 0.0392767
0.141939 0.132097 0.0395819
0.432746 0.197238 0.0807507
0.764889 0.248173 0.0942397
0.869062 0.253834 0.0968795
0.869062 0.253834 0.0968795
0.869062 0.253834 0.0968795
0.869062 0.253834 0.0968795
0.124559 0.322271 0.130205
0.124315 0.31754 0.128954
0.124041 0.311604 0.127398
0.386816 0.380484 0.156664
0.684871 0.319219 0.123278
0.881849 0.281895 0.099382
0.869062 0.253834 0.0968795
0.869062 0.253834 0.0968795
0.869062 0.253834 0.0968795
0.173434 0.535683 0.164874
0.172854 0.532891 0.164294
0.172183 0.529534 0.163622
0.170321 0.520287 0.161761
0.668894 0.648676 0.258457
0.840345 0.515557 0.221714
0.870665 0.456107 0.186984
0.872221 0.436301 0.178241
0.873152 0.429191 0.175204
0.208515 0.692226 0.181186
0.208209 0.691035 0.180591
0.207843 0.68957 0.179858
0.206867 0.685664 0.177905
0.265858 0.66424 0.17142
0.850004 0.811521 0.306172
0.921584 0.760204 0.279316
0.921065 0.750744 0.278614
0.920882 0.747219 0.278614
0.207828 0.729763 0.174945
0.207828 0.729763 0.174945
0.207828 0.729763 0.174945
0.207828 0.729763 0.174945
0.207828 0.729763 0.174945
0.632181 0.814862 0.24004
0.915801 0.859907 0.315633
0.92488 0.849088 0.306996
0.925078 0.847288 0.30631
0.207828 0.729763 0.174945
0.207828 0.729763 0.174945
0.207828 0.729763 0.174945
0.207828 0.729763 0.174945
0.207828 0.729763 0.174945
0.475227 0.763958 0.188632
0.90425 0.881132 0.324849
0.924544 0.859464 0.307927
0.924544 0.859464 0.307927
0.207828 0.729763 0.174945
0.207828 0.729763 0.174945
0.207828 0.729763 0.174945
0.207828 0.729763 0.174945
0.207828 0.729763 0.174945
0.407095 0.742046 0.169863
0.89778 0.885573 0.325658
0.924544 0.859464 0.307927
0.924544 0.859464 0.307927
0.0874495 0.0770581 0.124086
0.0953384 0.0776226 0.12462
0.234714 0.121782 0.132769
0.515404 0.200092 0.124331
0.78706 0.251911 0.113466
0.874189 0.255024 0.11252
0.872877 0.255772 0.105776
0.87248 0.255314 0.103426
0.872389 0.255207 0.102617
0.0861372 0.0706035 0.113695
0.0859236 0.0693828 0.111894
0.191379 0.103807 0.122042
0.492119 0.196277 0.116884
0.778332 0.250401 0.10808
0.873396 0.256626 0.107973
0.872419 0.255253 0.102922
0.872435 0.253269 0.101137
0.87248 0.252338 0.100557
0.114824 0.165026 0.128176
0.109133 0.149691 0.121721
0.129992 0.134676 0.108217
0.467842 0.199054 0.105577
0.766705 0.24979 0.102068
0.872587 0.255406 0.104158
0.872496 0.252018 0.100343
0.87068 0.25417 0.100175
0.870039 0.255009 0.100114
0.123949 0.320882 0.138796
0.123339 0.315572 0.137667
0.12253 0.308995 0.136492
0.382498 0.375998 0.164767
0.683864 0.317159 0.128313
0.880278 0.278202 0.099382
0.869062 0.253834 0.0968795
0.869062 0.253834 0.0968795
0.869062 0.253834 0.0968795
0.172885 0.532982 0.164309
0.17232 0.530205 0.16376
0.171633 0.526818 0.163073
0.169757 0.517494 0.161303
0.664668 0.644694 0.256977
0.839368 0.512245 0.22063
0.870893 0.452277 0.18526
0.872724 0.432486 0.176608
0.87361 0.425406 0.173617
0.208225 0.691066 0.180606
0.207919 0.689876 0.179995
0.207553 0.688426 0.179278
0.206577 0.684489 0.17731
0.264149 0.663096 0.171405
0.848569 0.809979 0.305974
0.921492 0.758373 0.279164
0.920958 0.748837 0.278614
0.920775 0.745327 0.27863
0.207828 0.729763 0.174945
0.207828 0.729763 0.174945
0.207828 0.729763 0.174945
0.207828 0.729763 0.174945
0.207828 0.729763 0.174945
0.627649 0.81268 0.238285
0.915358 0.859907 0.316014
0.924987 0.848112 0.306615
0.925185 0.846311 0.305943
0.207828 0.729763 0.174945
0.207828 0.729763 0.174945
0.207828 0.729763 0.174945
0.207828 0.729763 0.174945
0.207828 0.729763 0.174945
0.467475 0.761303 0.186328
0.903792 0.881804 0.32517
0.924544 0.859464 0.307927
0.924544 0.859464 0.307927
0.207828 0.729763 0.174945
0.207828 0.729763 0.174945
0.207828 0.729763 0.174945
0.207828 0.729763 0.174945
0.207828 0.729763 0.174945
0.401129 0.740551 0.168627
0.897017 0.886 0.325673
0.924544 0.859464 0.307927
0.924544 0.859464 0.307927
0.113588 0.22707 0.380865
0.115511 0.226856 0.379522
0.16643 0.216342 0.376974
0.550225 0.278157 0.380545
0.795331 0.295857 0.304051
0.912261 0.27361 0.192981
0.910536 0.269947 0.181872
0.909483 0.271565 0.180346
0.909102 0.27216 0.179782
0.113741 0.226017 0.374197
0.113756 0.225834 0.373083
0.146685 0.214878 0.371176
0.51873 0.265095 0.371359
0.787747 0.296407 0.299657
0.911269 0.27071 0.185534
0.909255 0.271931 0.180011
0.908186 0.273594 0.178454
0.90779 0.274189 0.17789
0.112322 0.211185 0.37882
0.110552 0.210117 0.387091
0.120272 0.216449 0.403571
0.480842 0.248341 0.360494
0.778805 0.2972 0.294575
0.909834 0.271015 0.18085
0.907637 0.274418 0.177691
0.906798 0.276921 0.176913
0.906493 0.277852 0.176638
0.25359 0.424964 0.463203
0.252598 0.420661 0.463737
0.251057 0.41352 0.46128
0.321324 0.382895 0.417609
0.709545 0.309361 0.232197
0.904845 0.285252 0.157031
0.904189 0.284749 0.174533
0.903319 0.287373 0.173709
0.902998 0.288365 0.173419
0.185428 0.535119 0.242908
0.184878 0.532723 0.242283
0.184176 0.529641 0.241627
0.182193 0.521035 0.239597
0.636194 0.623209 0.290974
0.834607 0.503029 0.24416
0.869902 0.448539 0.208057
0.871489 0.428763 0.196857
0.871931 0.421134 0.192462
0.210498 0.684947 0.191485
0.210513 0.683833 0.190967
0.21062 0.682383 0.190204
0.210788 0.678614 0.188357
0.257923 0.659892 0.18677
0.844755 0.805814 0.318151
0.920928 0.75256 0.286488
0.920455 0.743053 0.284611
0.920287 0.739574 0.283986
0.207828 0.729763 0.174945
0.207828 0.729763 0.174945
0.207828 0.729763 0.174945
0.207828 0.729763 0.174945
0.207828 0.729763 0.174945
0.615335 0.806775 0.233524
0.913863 0.858961 0.316472
0.925277 0.845487 0.305623
0.92546 0.843687 0.304952
0.207828 0.729763 0.174945
0.207828 0.729763 0.174945
0.207828 0.729763 0.174945
0.207828 0.729763 0.174945
0.207828 0.729763 0.174945
0.446464 0.754101 0.180087
0.902068 0.883223 0.325551
0.924544 0.859464 0.307927
0.924544 0.859464 0.307927
0.207828 0.729763 0.174945
0.207828 0.729763 0.174945
0.207828 0.729763 0.174945
0.207828 0.729763 0.174945
0.207828 0.729763 0.174945
0.384649 0.73637 0.165225
0.894789 0.886976 0.325567
0.924544 0.859464 0.307927
0.924544 0.859464 0.307927
0.153338 0.306172 0.631678
0.15317 0.306035 0.631098
0.165682 0.30309 0.630457
0.345739 0.306706 0.589746
0.815045 0.377752 0.630976
0.932021 0.369253 0.553063
0.931487 0.368978 0.543755
0.931212 0.368841 0.539117
0.931121 0.368795 0.537499
0.152392 0.305394 0.628168
0.152239 0.305272 0.627604
0.15874 0.305333 0.625681
0.315709 0.302983 0.584222
0.806989 0.377295 0.62678
0.931701 0.369085 0.547509
0.931151 0.368811 0.538109
0.930892 0.368673 0.533471
0.9308 0.368627 0.531838
0.149874 0.303258 0.624247
0.151095 0.304341 0.623377
0.150896 0.304173 0.62269
0.287724 0.297047 0.587304
0.795407 0.37586 0.622492
0.931304 0.368887 0.540642
0.93077 0.368612 0.531228
0.930495 0.368475 0.526589
0.930404 0.368429 0.52488
0.151522 0.323659 0.60119
0.148669 0.320317 0.60058
0.144991 0.315999 0.599649
0.190417 0.315221 0.611612
0.739757 0.354269 0.602136
0.924056 0.368307 0.52282
0.929717 0.36788 0.512642
0.929458 0.36762 0.508171
0.929381 0.367529 0.506539
0.371069 0.659876 0.707683
0.370352 0.657237 0.707805
0.369467 0.654002 0.707988
0.366567 0.643488 0.706737
0.560449 0.630976 0.679622
0.876631 0.506813 0.520363
0.916762 0.437385 0.447974
0.918776 0.420081 0.438712
0.919646 0.415106 0.437324
0.320699 0.735836 0.548165
0.321065 0.73518 0.548989
0.321508 0.734447 0.550347
0.322667 0.732418 0.553964
0.355764 0.712901 0.536538
0.812955 0.821225 0.55227
0.915312 0.764797 0.469459
0.91249 0.751827 0.463737
0.911437 0.746822 0.461646
0.228519 0.745235 0.340032
0.228183 0.745129 0.33846
0.227771 0.744991 0.336446
0.226673 0.74461 0.331136
0.223987 0.743709 0.318227
0.508461 0.769055 0.287526
0.909468 0.86482 0.401694
0.925795 0.849363 0.39469
0.925429 0.847059 0.393408
0.219821 0.741695 0.295186
0.219669 0.741573 0.294133
0.219501 0.741436 0.292897
0.219043 0.741039 0.289464
0.217914 0.740093 0.281209
0.359854 0.733837 0.234714
0.888899 0.889967 0.392828
0.926955 0.866926 0.385382
0.92697 0.866773 0.384909
0.21825 0.740383 0.283665
0.218112 0.740261 0.282612
0.217929 0.740108 0.2813
0.217853 0.739666 0.279026
0.21767 0.738598 0.273548
0.336568 0.732906 0.236027
0.878416 0.890623 0.389242
0.926909 0.865934 0.382498
0.926986 0.865705 0.381979
0.184909 0.343816 0.77615
0.18471 0.343603 0.775967
0.185611 0.342947 0.775616
0.28101 0.354086 0.783459
0.736767 0.366888 0.823331
0.926894 0.412894 0.825162
0.927413 0.411109 0.82269
0.927657 0.410224 0.821469
0.927749 0.409918 0.821042
0.183627 0.342428 0.775051
0.183429 0.342214 0.774868
0.183185 0.341955 0.77467
0.263706 0.352148 0.782544
0.722393 0.363867 0.820935
0.927199 0.411826 0.823682
0.927718 0.410025 0.82121
0.927962 0.409186 0.82002
0.928069 0.408835 0.819562
0.182071 0.340749 0.773709
0.181872 0.34052 0.773541
0.181598 0.34023 0.773312
0.249882 0.346792 0.780499
0.703929 0.360418 0.817807
0.925139 0.41033 0.82179
0.9281 0.408728 0.819394
0.928344 0.407797 0.818173
0.928435 0.407446 0.817731
0.173022 0.355001 0.766583
0.172992 0.352377 0.766934
0.17293 0.349203 0.767468
0.196429 0.344594 0.770611
0.637736 0.346273 0.801205
0.915282 0.406943 0.818708
0.929137 0.404791 0.814404
0.929397 0.4038 0.813169
0.929488 0.403418 0.812696
0.343145 0.615091 0.835966
0.340505 0.611078 0.834424
0.337377 0.605966 0.832517
0.329137 0.591073 0.827192
0.439094 0.534508 0.789395
0.868513 0.492927 0.80293
0.928908 0.458503 0.78323
0.930938 0.451423 0.783856
0.931823 0.447898 0.783688
0.410147 0.804685 0.831571
0.409567 0.803571 0.830976
0.408881 0.802197 0.830243
0.408621 0.79855 0.829465
0.436774 0.787488 0.828885
0.781018 0.817441 0.84799
0.920516 0.773175 0.827375
0.921035 0.758892 0.824079
0.921172 0.753277 0.822644
0.413291 0.862745 0.818296
0.413153 0.862623 0.81799
0.413001 0.862486 0.817639
0.412558 0.86128 0.816632
0.411399 0.85594 0.814054
0.557488 0.848112 0.793729
0.884596 0.900603 0.824231
0.920851 0.897704 0.816297
0.920653 0.896025 0.816007
0.409445 0.859144 0.809201
0.409308 0.859022 0.80882
0.409155 0.858869 0.808392
0.408682 0.858457 0.807157
0.407599 0.857481 0.804227
0.505165 0.846693 0.774578
0.845991 0.910979 0.794858
0.921233 0.920821 0.790478
0.922042 0.920653 0.789471
0.407919 0.857771 0.805097
0.407782 0.857633 0.804715
0.40763 0.857496 0.804273
0.407156 0.857084 0.803037
0.406073 0.856092 0.800107
0.497963 0.846189 0.772625
0.828382 0.908614 0.788937
0.913695 0.920623 0.78616
0.922057 0.920623 0.783963
0.227405 0.375692 0.833692
0.227405 0.375692 0.833616
0.227405 0.375692 0.833524
0.27715 0.370138 0.831708
0.706798 0.370428 0.869276
0.925353 0.415442 0.876478
0.92639 0.415442 0.875654
0.92639 0.415442 0.875257
0.92639 0.415442 0.87512
0.227405 0.375692 0.833204
0.227405 0.375692 0.833127
0.227405 0.375692 0.833036
0.266423 0.370169 0.829618
0.688411 0.369345 0.866102
0.922744 0.415152 0.87599
0.92639 0.415442 0.875166
0.92639 0.415442 0.874769
0.92639 0.415442 0.874632
0.227405 0.375692 0.832624
0.227405 0.375692 0.832532
0.227405 0.375692 0.832441
0.25803 0.371664 0.829786
0.664485 0.367819 0.861799
0.918624 0.414176 0.87538
0.92639 0.415442 0.874571
0.92639 0.415442 0.874174
0.92639 0.415442 0.874022
0.224002 0.370474 0.827008
0.224125 0.367498 0.826932
0.223453 0.3635 0.826841
0.242649 0.377997 0.827543
0.597513 0.365255 0.852903
0.907835 0.41149 0.873472
0.92639 0.415442 0.872953
0.92639 0.415442 0.872557
0.92639 0.415442 0.872404
0.343984 0.586038 0.870344
0.342672 0.581994 0.869505
0.340887 0.576959 0.868238
0.334051 0.562753 0.862379
0.418097 0.517021 0.840726
0.851392 0.491997 0.879149
0.921386 0.461707 0.867826
0.922896 0.45156 0.867262
0.92372 0.44802 0.86743
0.432685 0.807843 0.895323
0.432761 0.807187 0.895613
0.432731 0.806012 0.895674
0.432425 0.802213 0.895323
0.448417 0.789349 0.893309
0.772869 0.805722 0.904128
0.918029 0.787915 0.908522
0.917769 0.775845 0.906905
0.917723 0.771252 0.906325
0.444617 0.864332 0.882109
0.444617 0.863798 0.882033
0.444617 0.863142 0.881926
0.444617 0.861372 0.881651
0.444617 0.857069 0.88098
0.610605 0.870039 0.89691
0.885878 0.895994 0.911269
0.920821 0.892302 0.910079
0.920607 0.890578 0.909743
0.444617 0.866545 0.87953
0.444617 0.866545 0.879438
0.444617 0.866545 0.879332
0.444617 0.866545 0.879057
0.444617 0.866545 0.878386
0.538094 0.864057 0.879667
0.852216 0.918883 0.905348
0.91606 0.919142 0.908019
0.92224 0.918914 0.909239
0.444617 0.866545 0.878584
0.444617 0.866545 0.878492
0.444617 0.866545 0.878401
0.444617 0.866545 0.878111
0.444617 0.866545 0.87744
0.527199 0.862272 0.877287
0.838453 0.919203 0.902937
0.909697 0.92192 0.90573
0.922393 0.923491 0.908385
0.227405 0.375692 0.834821
0.227405 0.375692 0.834821
0.227405 0.375692 0.834821
0.267872 0.369574 0.831662
0.69247 0.369619 0.869413
0.923445 0.415335 0.879637
0.92639 0.415442 0.879637
0.92639 0.415442 0.879637
0.92639 0.415442 0.879637
0.227405 0.375692 0.834821
0.227405 0.375692 0.834821
0.227405 0.375692 0.834821
0.260655 0.37232 0.831724
0.673136 0.368368 0.866407
0.920073 0.414542 0.879622
0.92639 0.415442 0.879637
0.92639 0.415442 0.879637
0.92639 0.415442 0.879637
0.227405 0.375692 0.834821
0.227405 0.375692 0.834821
0.227405 0.375692 0.834821
0.257618 0.36907 0.832639
0.648905 0.366735 0.86276
0.915923 0.413565 0.879606
0.92639 0.415442 0.879637
0.92639 0.415442 0.879637
0.92639 0.415442 0.879637
0.226337 0.3738 0.832853
0.227283 0.380072 0.834592
0.227436 0.3785 0.834852
0.234638 0.375647 0.834775
0.580728 0.367376 0.856214
0.905592 0.410864 0.879088
0.92639 0.415442 0.879637
0.92639 0.415442 0.879637
0.92639 0.415442 0.879637
0.337331 0.569497 0.873198
0.335241 0.565164 0.871489
0.332433 0.559609 0.869245
0.321813 0.541466 0.861234
0.394308 0.500023 0.846098
0.847944 0.478416 0.887541
0.922515 0.453498 0.877974
0.924865 0.443641 0.878279
0.925353 0.441123 0.878325
0.432563 0.803952 0.909636
0.432471 0.802808 0.909606
0.432349 0.801404 0.909575
0.431739 0.79733 0.909331
0.439506 0.784894 0.907866
0.764004 0.798703 0.918944
0.916335 0.778012 0.924239
0.917662 0.765637 0.923247
0.917693 0.761166 0.922988
0.444617 0.862181 0.901137
0.444617 0.861646 0.901045
0.444617 0.86099 0.900954
0.444617 0.859205 0.900694
0.444389 0.854704 0.900511
0.603937 0.866316 0.916487
0.882017 0.893736 0.930083
0.920378 0.888838 0.92932
0.920165 0.887114 0.92903
0.444617 0.866545 0.898711
0.444617 0.866545 0.898634
0.444617 0.866545 0.898528
0.444617 0.866545 0.898268
0.444617 0.866545 0.897642
0.53492 0.86363 0.900038
0.849882 0.91754 0.92462
0.913954 0.916686 0.928649
0.92256 0.916762 0.929381
0.444617 0.866545 0.897826
0.444617 0.866545 0.897749
0.444617 0.866545 0.897658
0.444617 0.866545 0.897398
0.444617 0.866545 0.896757
0.526207 0.861769 0.897292
0.836652 0.920684 0.921965
0.907454 0.921767 0.926619
0.92282 0.923644 0.92845
0.227405 0.375692 0.834821
0.227405 0.375692 0.834821
0.227405 0.375692 0.834821
0.265782 0.370413 0.831662
0.6869 0.369253 0.868544
0.922469 0.415106 0.879622
0.92639 0.415442 0.879637
0.92639 0.415442 0.879637
0.92639 0.415442 0.879637
0.227405 0.375692 0.834821
0.227405 0.375692 0.834821
0.227405 0.375692 0.834821
0.258869 0.371878 0.832181
0.66746 0.368017 0.865538
0.919097 0.414313 0.879622
0.92639 0.415442 0.879637
0.92639 0.415442 0.879637
0.92639 0.415442 0.879637
0.227405 0.375692 0.834821
0.227405 0.375692 0.834821
0.227405 0.375692 0.834821
0.257877 0.368109 0.832639
0.643229 0.366033 0.862196
0.914931 0.413321 0.879606
0.92639 0.415442 0.879637
0.92639 0.415442 0.879637
0.92639 0.415442 0.879637
0.22742 0.38024 0.834852
0.227436 0.378012 0.834852
0.227405 0.375799 0.834821
0.231769 0.375662 0.834791
0.574487 0.36817 0.855604
0.904768 0.410636 0.878996
0.92639 0.415442 0.879637
0.92639 0.415442 0.879637
0.92639 0.415442 0.879637
0.33431 0.563226 0.870726
0.331716 0.558373 0.868696
0.327825 0.55172 0.865766
0.316518 0.532815 0.857359
0.387335 0.494285 0.844709
0.846571 0.47274 0.886992
0.92311 0.450767 0.878386
0.925261 0.441657 0.878325
0.925566 0.438987 0.878355
0.432425 0.802274 0.90959
0.432334 0.801129 0.909575
0.432212 0.79971 0.909545
0.431327 0.795422 0.909133
0.435996 0.783383 0.907835
0.760281 0.795865 0.918563
0.915145 0.774243 0.923827
0.917693 0.762066 0.923033
0.917723 0.757549 0.922759
0.444617 0.861402 0.901152
0.444617 0.860868 0.901152
0.444617 0.860212 0.901152
0.444617 0.858412 0.901152
0.444251 0.853803 0.901839
0.601099 0.864408 0.918181
0.880644 0.892607 0.932799
0.920195 0.887449 0.932464
0.919982 0.88571 0.932311
0.444617 0.866545 0.901152
0.444617 0.866545 0.901152
0.444617 0.866545 0.901152
0.444617 0.866545 0.901152
0.444617 0.866545 0.901152
0.533547 0.86334 0.904234
0.847822 0.916426 0.929732
0.912932 0.915724 0.934325
0.922484 0.915923 0.93521
0.444617 0.866545 0.901152
0.444617 0.866545 0.901152
0.444617 0.866545 0.901152
0.444617 0.866545 0.901152
0.444617 0.866545 0.901152
0.523873 0.861738 0.902327
0.834089 0.920623 0.927916
0.906401 0.92163 0.933074
0.922789 0.923644 0.93518
