modules/camera-engine/ios/LUTs/panasonic-txd-grainy-film.cube
# Created by Adobe Lightroom plugin Export LUT (1.24.0)
# www.johnrellis.com/lightroom/exportlut.htm
# Photo: P1015911 拷贝.jpg
# Color profile: C:\Program Files (x86)\Common Files\Adobe\Color\Profiles\Recommended\sRGB Color Space Profile.icm
LUT_3D_SIZE 9
DOMAIN_MIN 0.0 0.0 0.0
DOMAIN_MAX 1.0 1.0 1.0
0.094728 0.099367 0.084199
0.022278 0.099611 0.085267
0.084077 0.097322 0.083131
0.281224 0.108217 0.065614
0.558160 0.105318 0.002625
0.811398 0.077485 0.000000
0.962921 0.074922 0.000000
1.000000 0.114290 0.000000
1.000000 0.177005 0.000000
0.091981 0.066529 0.070008
0.064759 0.066468 0.072724
0.092287 0.086122 0.068360
0.274388 0.123293 0.044465
0.547234 0.149722 0.000000
0.800443 0.150607 0.000000
0.952636 0.150362 0.000000
1.000000 0.170932 0.000000
1.000000 0.215579 0.000000
0.053956 0.076600 0.056672
0.057282 0.069734 0.052979
0.085878 0.092805 0.047364
0.278355 0.179232 0.001862
0.560327 0.248386 0.000000
0.805692 0.268864 0.000000
0.953216 0.268467 0.000000
1.000000 0.277714 0.000000
1.000000 0.305608 0.000000
0.000000 0.178317 0.077455
0.000000 0.160037 0.063172
0.040589 0.130007 0.055818
0.216342 0.243229 0.005859
0.572564 0.378546 0.000000
0.807797 0.424964 0.000000
0.949889 0.416388 0.000000
1.000000 0.414099 0.000000
1.000000 0.429328 0.000000
0.000000 0.344213 0.136995
0.000000 0.321416 0.116274
0.000000 0.267796 0.082673
0.062745 0.274113 0.078767
0.424353 0.456367 0.000000
0.782376 0.552575 0.000000
0.926635 0.565026 0.000000
1.000000 0.568109 0.000000
1.000000 0.574212 0.000000
0.000000 0.532403 0.239811
0.000000 0.512047 0.215244
0.000000 0.462348 0.166018
0.000000 0.375006 0.125429
0.194858 0.474311 0.140688
0.635950 0.640772 0.162142
0.896117 0.690242 0.248966
0.988128 0.699947 0.281651
1.000000 0.719265 0.330846
0.000000 0.694301 0.390082
0.000000 0.683131 0.370581
0.000000 0.653864 0.324804
0.000000 0.595422 0.255222
0.000000 0.502770 0.225040
0.438300 0.664515 0.318761
0.781613 0.759976 0.437293
0.947692 0.798245 0.531090
1.000000 0.812833 0.557305
0.000000 0.808347 0.573114
0.000000 0.803037 0.562432
0.000000 0.790036 0.538018
0.000000 0.764401 0.495277
0.149355 0.720180 0.437537
0.413672 0.712520 0.466804
0.686671 0.795041 0.578851
0.876646 0.849882 0.650507
0.980835 0.877134 0.704952
0.465644 0.899260 0.750301
0.473884 0.896971 0.746395
0.497139 0.891875 0.738521
0.534142 0.882628 0.726436
0.581872 0.868406 0.713252
0.645563 0.847776 0.711543
0.752712 0.871885 0.749905
0.859464 0.910338 0.786557
0.948272 0.935302 0.816434
0.092134 0.095583 0.053193
0.044923 0.094026 0.062379
0.090578 0.072786 0.063722
0.255711 0.047333 0.048280
0.516136 0.005463 0.007568
0.778012 0.000000 0.000000
0.941253 0.000000 0.000000
1.000000 0.000000 0.000000
1.000000 0.129702 0.000000
0.090608 0.069459 0.052949
0.061707 0.065126 0.054749
0.096925 0.066957 0.052766
0.259312 0.083772 0.038392
0.520958 0.092226 0.000000
0.777523 0.073548 0.000000
0.938140 0.075929 0.000000
1.000000 0.118837 0.000000
1.000000 0.183841 0.000000
0.035920 0.089662 0.064973
0.046235 0.083803 0.056977
0.087282 0.094270 0.050599
0.265385 0.162844 0.019135
0.534539 0.214603 0.000000
0.784115 0.233188 0.000000
0.940612 0.237156 0.000000
1.000000 0.252628 0.000000
1.000000 0.287816 0.000000
0.000000 0.198734 0.101137
0.000000 0.184634 0.088289
0.043122 0.141817 0.068147
0.212680 0.236973 0.043091
0.545312 0.357549 0.000000
0.786038 0.401495 0.000000
0.936461 0.398016 0.000000
1.000000 0.401068 0.000000
1.000000 0.420691 0.000000
0.000000 0.366522 0.168276
0.000000 0.347356 0.152163
0.000000 0.292332 0.109285
0.076814 0.270237 0.101167
0.418982 0.448524 0.040009
0.769375 0.543572 0.000000
0.917296 0.559106 0.000000
1.000000 0.562310 0.000000
1.000000 0.570520 0.054658
0.000000 0.547692 0.273777
0.000000 0.530785 0.255680
0.000000 0.482277 0.201419
0.000000 0.395026 0.146059
0.201419 0.467048 0.166567
0.631952 0.635645 0.208316
0.888823 0.687587 0.293523
0.982208 0.699733 0.323461
1.000000 0.720974 0.368292
0.000000 0.704250 0.422553
0.000000 0.693751 0.406622
0.000000 0.666133 0.360723
0.000000 0.611414 0.289982
0.000000 0.508995 0.242344
0.442634 0.661952 0.340551
0.781247 0.759121 0.463294
0.944274 0.799191 0.554131
1.000000 0.815030 0.578790
0.000000 0.811276 0.592523
0.000000 0.806058 0.581811
0.000000 0.792935 0.556451
0.000000 0.767880 0.513359
0.181949 0.723812 0.452796
0.408148 0.705867 0.467689
0.683162 0.791379 0.582116
0.876768 0.850248 0.661494
0.979767 0.878325 0.715419
0.482033 0.902464 0.761257
0.489937 0.900328 0.757473
0.510460 0.895079 0.748898
0.543633 0.885618 0.735409
0.588251 0.871244 0.720607
0.647456 0.850950 0.715724
0.753872 0.872007 0.753658
0.860227 0.910918 0.790677
0.948669 0.936034 0.821073
0.081361 0.087251 0.062898
0.072145 0.080873 0.062867
0.081758 0.066560 0.064515
0.265263 0.000000 0.091829
0.523491 0.000000 0.048676
0.763363 0.000000 0.020905
0.936919 0.000000 0.000000
1.000000 0.000000 0.000000
1.000000 0.000000 0.000000
0.060273 0.072145 0.073243
0.065705 0.062379 0.074342
0.095613 0.059083 0.068696
0.264775 0.003754 0.082246
0.505364 0.000000 0.057069
0.764279 0.000000 0.016510
0.936065 0.000000 0.000000
1.000000 0.000000 0.000000
1.000000 0.124208 0.000000
0.007874 0.100557 0.095491
0.016510 0.098817 0.093263
0.096010 0.100984 0.085756
0.263890 0.120302 0.082368
0.517571 0.138216 0.060060
0.768032 0.144594 0.002533
0.931731 0.163210 0.000000
1.000000 0.204257 0.000000
1.000000 0.260960 0.000000
0.000000 0.267521 0.190341
0.000000 0.251957 0.168978
0.043183 0.211368 0.130678
0.221592 0.241672 0.117067
0.530144 0.339147 0.086091
0.772213 0.367590 0.028565
0.928374 0.372992 0.000000
1.000000 0.386664 0.000000
1.000000 0.416266 0.025696
0.000000 0.432929 0.261631
0.000000 0.415961 0.241184
0.000000 0.369848 0.201816
0.119173 0.272770 0.152346
0.428138 0.450599 0.170443
0.758022 0.539544 0.180026
0.908293 0.561852 0.191012
1.000000 0.563745 0.211368
1.000000 0.578363 0.240909
0.000000 0.590692 0.352148
0.000000 0.576013 0.337285
0.000000 0.536736 0.302281
0.000000 0.450813 0.218692
0.218540 0.452461 0.219455
0.622705 0.623682 0.290471
0.870390 0.679347 0.370092
0.968322 0.697414 0.398596
1.000000 0.716976 0.429450
0.000000 0.730007 0.478431
0.000000 0.721004 0.473030
0.000000 0.696559 0.452003
0.000000 0.646326 0.374670
0.060029 0.553185 0.293828
0.450294 0.654139 0.384924
0.779446 0.756466 0.514275
0.936248 0.799130 0.595636
1.000000 0.816342 0.614130
0.000000 0.824399 0.617853
0.000000 0.818540 0.618799
0.101534 0.804623 0.609857
0.199588 0.780575 0.565606
0.271855 0.738705 0.502525
0.407752 0.694484 0.479866
0.684199 0.787930 0.601678
0.876310 0.850309 0.683528
0.977173 0.879911 0.735409
0.425330 0.906157 0.762631
0.461738 0.902464 0.763272
0.508873 0.895811 0.759335
0.541650 0.886564 0.744472
0.582666 0.871550 0.725582
0.634241 0.851072 0.712398
0.741512 0.863340 0.747951
0.855192 0.906950 0.790280
0.947570 0.934783 0.824399
0.100893 0.067414 0.173495
0.132509 0.053285 0.173800
0.198703 0.019348 0.170535
0.242527 0.003449 0.148531
0.536248 0.000000 0.206424
0.793454 0.000000 0.173526
0.947753 0.000000 0.112764
1.000000 0.000000 0.146853
1.000000 0.000000 0.152590
0.025879 0.058930 0.185458
0.096925 0.050965 0.183444
0.189792 0.030945 0.177768
0.244114 0.026947 0.152743
0.522759 0.000000 0.199710
0.774807 0.000000 0.162783
0.929839 0.000000 0.129763
1.000000 0.000000 0.150942
1.000000 0.000000 0.152560
0.000000 0.133883 0.213504
0.000000 0.126894 0.209384
0.133913 0.108614 0.203159
0.253513 0.114229 0.176761
0.519158 0.016449 0.198489
0.760037 0.000000 0.161410
0.917357 0.000000 0.173465
1.000000 0.127138 0.177554
1.000000 0.237369 0.180880
0.000000 0.257084 0.280766
0.000000 0.255467 0.274968
0.000000 0.254795 0.260197
0.242771 0.255985 0.228916
0.518761 0.285985 0.233982
0.762020 0.313268 0.237186
0.922454 0.343175 0.244663
1.000000 0.372320 0.247227
1.000000 0.418585 0.262974
0.000000 0.536187 0.468330
0.000000 0.526024 0.447456
0.000000 0.490089 0.387640
0.188449 0.405737 0.300328
0.439185 0.452399 0.305577
0.735317 0.531518 0.339330
0.891844 0.549493 0.353552
0.996002 0.563348 0.370916
1.000000 0.587274 0.391485
0.000000 0.669398 0.509789
0.000000 0.658656 0.494575
0.000000 0.629816 0.458503
0.029664 0.567224 0.402899
0.274449 0.452674 0.310460
0.640101 0.632898 0.432013
0.859037 0.691676 0.507713
0.955688 0.715206 0.529076
1.000000 0.730556 0.544213
0.000000 0.773556 0.577081
0.000000 0.766384 0.571496
0.000000 0.746304 0.558282
0.125765 0.702510 0.525414
0.236942 0.626429 0.419257
0.468879 0.645045 0.452705
0.782589 0.758053 0.589166
0.928466 0.804166 0.657252
0.994995 0.822995 0.670100
0.000000 0.849729 0.663386
0.000000 0.844144 0.663722
0.000000 0.829953 0.663752
0.367315 0.804715 0.652308
0.392523 0.766690 0.588037
0.431403 0.699397 0.517906
0.685206 0.782559 0.630426
0.876982 0.851682 0.716548
0.974182 0.882628 0.763333
0.289769 0.924071 0.779294
0.359899 0.920256 0.780453
0.482307 0.912505 0.785397
0.582300 0.900938 0.784878
0.614771 0.886717 0.762295
0.657435 0.866606 0.742061
0.743893 0.862608 0.761440
0.856687 0.908537 0.804440
0.948272 0.936187 0.837827
0.121248 0.012573 0.375463
0.181888 0.000000 0.374182
0.290471 0.000000 0.367895
0.430671 0.000000 0.356115
0.478798 0.000000 0.298924
0.776059 0.000000 0.356603
0.943542 0.000000 0.323064
1.000000 0.000000 0.279515
1.000000 0.000000 0.288701
0.000000 0.031159 0.390997
0.124392 0.013886 0.388769
0.269749 0.000000 0.382818
0.429419 0.000000 0.370031
0.486030 0.000000 0.310277
0.774014 0.000000 0.363958
0.938628 0.000000 0.328313
1.000000 0.000000 0.285222
1.000000 0.000000 0.308080
0.000000 0.143374 0.420478
0.000000 0.110689 0.419593
0.174166 0.112428 0.411627
0.406561 0.086702 0.398077
0.495796 0.105135 0.339605
0.766903 0.039185 0.387304
0.929625 0.000000 0.347173
1.000000 0.000000 0.313603
1.000000 0.248478 0.375158
0.000000 0.283238 0.467628
0.000000 0.280003 0.461738
0.000000 0.276097 0.445716
0.291417 0.270024 0.426215
0.482490 0.283055 0.382025
0.739498 0.279606 0.405035
0.907591 0.241581 0.368780
1.000000 0.330602 0.398077
1.000000 0.403754 0.414588
0.000000 0.462318 0.545220
0.000000 0.461921 0.539178
0.000000 0.461646 0.523491
0.059876 0.459449 0.492256
0.442542 0.448829 0.440406
0.702541 0.479408 0.455360
0.872251 0.510735 0.473182
0.982727 0.544060 0.491524
1.000000 0.579492 0.506828
0.000000 0.728054 0.694453
0.000000 0.729610 0.692226
0.000000 0.717678 0.668757
0.000000 0.681392 0.612268
0.429694 0.594202 0.523339
0.646509 0.633753 0.550591
0.842222 0.691371 0.600916
0.944945 0.711330 0.613458
1.000000 0.726925 0.620813
0.000000 0.822629 0.707240
0.000000 0.816709 0.699825
0.000000 0.800961 0.681636
0.000000 0.768521 0.652216
0.448951 0.709712 0.607965
0.478706 0.619348 0.509026
0.785306 0.759396 0.659480
0.921324 0.806851 0.710658
0.989868 0.826413 0.718563
0.000000 0.889006 0.730220
0.000000 0.883543 0.729305
0.000000 0.869627 0.727687
0.290623 0.845182 0.721828
0.526268 0.807584 0.701717
0.521874 0.749538 0.615778
0.679530 0.771511 0.658350
0.877409 0.852934 0.752407
0.971618 0.885710 0.794034
0.000000 0.952056 0.792905
0.000000 0.947539 0.796292
0.194644 0.937407 0.803311
0.506889 0.922667 0.810452
0.649378 0.904845 0.809537
0.680934 0.885222 0.779904
0.737301 0.857115 0.770596
0.855253 0.908354 0.819303
0.949340 0.938048 0.855467
0.104555 0.000000 0.609155
0.204959 0.000000 0.608698
0.354284 0.000000 0.604456
0.532830 0.000000 0.596307
0.697597 0.000000 0.563745
0.737728 0.000000 0.490059
0.926360 0.000000 0.508019
1.000000 0.000000 0.505852
1.000000 0.141054 0.493538
0.000000 0.000000 0.616358
0.125948 0.000000 0.614710
0.321294 0.000000 0.610437
0.517723 0.000000 0.602441
0.698268 0.000000 0.572229
0.735744 0.000000 0.497047
0.918975 0.000000 0.514916
1.000000 0.088899 0.510979
1.000000 0.193118 0.498054
0.000000 0.114717 0.631037
0.000000 0.126406 0.629236
0.209506 0.110780 0.624872
0.471626 0.065339 0.615900
0.693385 0.000000 0.602197
0.733852 0.109407 0.521080
0.907866 0.213230 0.545098
1.000000 0.275303 0.541070
1.000000 0.318029 0.529747
0.000000 0.306798 0.647883
0.000000 0.306645 0.644190
0.000000 0.279942 0.640955
0.353460 0.294499 0.631617
0.633173 0.297185 0.618494
0.715572 0.328985 0.555749
0.881254 0.402441 0.588373
0.993439 0.405646 0.570733
1.000000 0.419196 0.555230
0.000000 0.454108 0.688075
0.000000 0.455512 0.684627
0.000000 0.460578 0.675257
0.000000 0.470100 0.656062
0.507561 0.476844 0.633600
0.679133 0.492805 0.595697
0.852689 0.519341 0.615045
0.973358 0.507836 0.591974
1.000000 0.550072 0.606287
0.000000 0.623102 0.726497
0.000000 0.625086 0.723995
0.000000 0.629694 0.717220
0.000000 0.635401 0.704189
0.434821 0.636530 0.680934
0.636866 0.620874 0.636194
0.820676 0.646998 0.651392
0.938170 0.673182 0.665156
1.000000 0.699794 0.675257
0.000000 0.827298 0.811215
0.000000 0.828763 0.811002
0.000000 0.831724 0.810697
0.000000 0.827176 0.802762
0.416693 0.793362 0.759579
0.627771 0.718807 0.686122
0.779721 0.752529 0.714351
0.912047 0.801205 0.752041
0.987854 0.818509 0.756893
0.000000 0.928557 0.838529
0.000000 0.925109 0.835050
0.000000 0.913848 0.826535
0.000000 0.893614 0.811551
0.458839 0.862150 0.787686
0.651606 0.811276 0.751186
0.658595 0.743343 0.674891
0.877928 0.854032 0.791379
0.969604 0.888762 0.826444
0.000000 0.991363 0.826963
0.000000 0.988342 0.825956
0.000000 0.979522 0.825223
0.000000 0.958618 0.833158
0.542657 0.933898 0.841001
0.718837 0.910063 0.837430
0.746914 0.883604 0.801602
0.849607 0.905303 0.834470
0.950652 0.940032 0.876249
0.146883 0.000000 0.774899
0.243748 0.000000 0.774350
0.396521 0.000000 0.772213
0.579278 0.000000 0.768124
0.772946 0.000000 0.760891
0.892210 0.000000 0.722560
0.915709 0.000000 0.650324
1.000000 0.222629 0.650690
1.000000 0.410407 0.684321
0.000000 0.000000 0.774868
0.183200 0.000000 0.774258
0.366369 0.000000 0.772976
0.561242 0.000000 0.768429
0.759670 0.000000 0.760403
0.886015 0.000000 0.724422
0.908721 0.002564 0.654108
1.000000 0.274876 0.656031
1.000000 0.429908 0.687282
0.000000 0.145998 0.781277
0.000000 0.142519 0.779995
0.285069 0.133516 0.777829
0.513237 0.105165 0.768521
0.725093 0.084504 0.759548
0.870146 0.161868 0.729091
0.891417 0.242252 0.664149
0.983673 0.378546 0.673884
1.000000 0.478004 0.698116
0.000000 0.286503 0.788693
0.000000 0.279881 0.788144
0.000000 0.309026 0.784451
0.435462 0.335698 0.778378
0.676905 0.349584 0.770291
0.854398 0.384894 0.756527
0.871366 0.427497 0.696193
0.962860 0.512200 0.712551
1.000000 0.556298 0.724422
0.000000 0.454994 0.798459
0.000000 0.459388 0.796292
0.000000 0.471687 0.790494
0.146151 0.478676 0.782406
0.579461 0.512718 0.772091
0.786709 0.529259 0.761868
0.838621 0.555261 0.719997
0.940734 0.611688 0.743587
1.000000 0.616541 0.738766
0.000000 0.587335 0.813382
0.000000 0.590417 0.811521
0.000000 0.599084 0.806882
0.000000 0.614038 0.797848
0.437354 0.629877 0.781552
0.681758 0.637354 0.763119
0.799466 0.649592 0.737179
0.921263 0.673426 0.754269
1.000000 0.663722 0.738094
0.000000 0.740902 0.840146
0.000000 0.742947 0.838773
0.000000 0.747677 0.835050
0.000000 0.754635 0.828702
0.463996 0.760067 0.819303
0.654047 0.759091 0.803098
0.770047 0.740810 0.766293
0.903441 0.764920 0.779477
0.994965 0.787259 0.788052
0.000000 0.904997 0.891417
0.000000 0.905791 0.891539
0.000000 0.907042 0.891966
0.000000 0.907744 0.892668
0.428412 0.907530 0.892760
0.638636 0.883330 0.864225
0.762783 0.820371 0.804410
0.877806 0.853819 0.831571
0.968841 0.890440 0.858915
0.000000 1.000000 0.913359
0.000000 1.000000 0.910826
0.000000 1.000000 0.905028
0.000000 0.997498 0.896788
0.000000 0.972015 0.888243
0.581994 0.945769 0.876890
0.786801 0.915465 0.866819
0.830411 0.890532 0.842100
0.951934 0.941619 0.898863
0.259251 0.000000 0.881987
0.328435 0.000000 0.882506
0.456611 0.000000 0.880980
0.620935 0.000000 0.877745
0.795590 0.000000 0.872740
0.946746 0.000000 0.864866
0.997833 0.219974 0.827237
1.000000 0.316197 0.773922
1.000000 0.461097 0.772976
0.211856 0.000000 0.878660
0.291875 0.000000 0.878477
0.431617 0.000000 0.877104
0.603143 0.000000 0.874205
0.781003 0.000000 0.869169
0.934112 0.106600 0.861479
0.989654 0.268101 0.825772
0.999634 0.349340 0.774624
1.000000 0.479103 0.774716
0.089540 0.189151 0.884245
0.226230 0.190494 0.883635
0.396551 0.193545 0.881559
0.581598 0.203647 0.877653
0.762783 0.234318 0.871519
0.913329 0.299657 0.862730
0.974517 0.379767 0.830014
0.984527 0.432929 0.783261
1.000000 0.530327 0.785122
0.000000 0.303075 0.888518
0.000000 0.330816 0.886717
0.320439 0.377996 0.882750
0.535698 0.392370 0.878477
0.726009 0.418280 0.872404
0.877745 0.460182 0.864530
0.954772 0.513298 0.842008
0.965789 0.543511 0.803006
1.000000 0.607263 0.806790
0.000000 0.457038 0.885527
0.000000 0.456397 0.885039
0.000000 0.458381 0.883543
0.357977 0.499092 0.878264
0.652766 0.550164 0.869963
0.821347 0.570428 0.862974
0.929595 0.601862 0.849607
0.941863 0.623590 0.814786
1.000000 0.671534 0.824399
0.000000 0.577295 0.897063
0.000000 0.581933 0.895354
0.000000 0.590234 0.889158
0.000000 0.616236 0.882139
0.473152 0.638422 0.873442
0.740719 0.667506 0.864897
0.884062 0.681910 0.857481
0.917571 0.700160 0.829618
0.990875 0.737575 0.845121
0.000000 0.700343 0.908080
0.000000 0.704494 0.906981
0.000000 0.715724 0.904143
0.000000 0.733394 0.898680
0.451972 0.751186 0.891234
0.654292 0.762234 0.880369
0.814878 0.765866 0.868040
0.897307 0.777188 0.851041
0.985626 0.796201 0.863096
0.000000 0.826078 0.917815
0.000000 0.828672 0.917113
0.000000 0.834775 0.915282
0.000000 0.842863 0.912016
0.413550 0.849790 0.907866
0.649134 0.854948 0.902739
0.783352 0.857145 0.894072
0.868345 0.841733 0.866026
0.975341 0.867674 0.880003
0.000000 0.967742 0.947784
0.000000 0.969482 0.947906
0.000000 0.973877 0.948180
0.000000 0.977478 0.948241
0.000000 0.973632 0.948272
0.511070 0.970520 0.949218
0.734646 0.956695 0.933104
0.868956 0.928344 0.908141
0.955718 0.945647 0.928283
0.412940 0.000000 0.959564
0.459876 0.000000 0.959350
0.559136 0.000000 0.958099
0.695460 0.050629 0.955474
0.839963 0.166629 0.950866
0.961578 0.294560 0.944091
1.000000 0.421637 0.935363
1.000000 0.495369 0.905943
1.000000 0.538598 0.872526
0.401160 0.105074 0.959503
0.448432 0.108919 0.958862
0.553155 0.130922 0.958343
0.691676 0.172274 0.955810
0.835080 0.242283 0.950774
0.954864 0.341588 0.943542
1.000000 0.448554 0.934783
1.000000 0.513787 0.906218
1.000000 0.552544 0.873411
0.370672 0.256596 0.959503
0.423194 0.261845 0.958892
0.531121 0.276310 0.957244
0.672847 0.305089 0.954009
0.818112 0.355505 0.949035
0.937804 0.427588 0.942199
1.000000 0.506310 0.934417
1.000000 0.560662 0.909178
1.000000 0.591608 0.878538
0.299321 0.407050 0.960449
0.379614 0.421424 0.959197
0.498421 0.433173 0.957153
0.646143 0.454902 0.953643
0.791440 0.487434 0.948608
0.911284 0.530144 0.942351
0.996582 0.580346 0.935424
1.000000 0.622583 0.914855
1.000000 0.644556 0.886748
0.000000 0.389837 0.970092
0.000000 0.397467 0.968902
0.000000 0.454627 0.964508
0.578027 0.579065 0.953674
0.739925 0.597345 0.949554
0.871916 0.622187 0.944427
0.966857 0.652979 0.938415
1.000000 0.684810 0.922210
1.000000 0.701686 0.896605
0.000000 0.532860 0.968994
0.000000 0.539940 0.968048
0.000000 0.561761 0.965423
0.000000 0.587976 0.961486
0.549523 0.635737 0.955016
0.803128 0.697627 0.946075
0.916381 0.698146 0.934966
0.993347 0.725765 0.923339
1.000000 0.741390 0.899138
0.000000 0.629541 0.975586
0.000000 0.633661 0.974945
0.000000 0.649439 0.973114
0.000000 0.686061 0.968536
0.293309 0.731746 0.960876
0.634882 0.758450 0.954040
0.858000 0.787747 0.947234
0.966979 0.803952 0.942077
0.990692 0.821653 0.921843
0.000000 0.751369 0.979767
0.000000 0.750851 0.980011
0.000000 0.753445 0.979644
0.000000 0.773220 0.976806
0.000000 0.811429 0.969726
0.541192 0.838315 0.962707
0.759335 0.855192 0.956909
0.909178 0.870848 0.951263
0.975067 0.887358 0.940063
0.000000 0.884489 0.978943
0.000000 0.885100 0.979004
0.000000 0.880674 0.975067
0.000000 0.882811 0.975128
0.000000 0.889525 0.974273
0.000000 0.910491 0.967681
0.646326 0.919890 0.962737
0.854032 0.933654 0.960327
0.960113 0.949462 0.959564
