modules/camera-engine/ios/LUTs/panasonic-fresh-cuisine.cube
TITLE "Generated by Resolve"
LUT_3D_SIZE 9
0.103975 0.101106 0.080766
0.144701 0.110658 0.0776684
0.319387 0.163806 0.0822766
0.549157 0.220356 0.0906691
0.779126 0.249836 0.0910201
0.895491 0.257481 0.0958877
0.895491 0.257481 0.0958877
0.895491 0.257481 0.0958877
0.895491 0.257481 0.0958877
0.107118 0.116762 0.0825818
0.107424 0.107576 0.0808728
0.268299 0.148836 0.0798505
0.530282 0.2159 0.0900587
0.771756 0.248142 0.0902113
0.895491 0.257481 0.0958877
0.895491 0.257481 0.0958877
0.895491 0.257481 0.0958877
0.895491 0.257481 0.0958877
0.117449 0.220645 0.117006
0.116442 0.214115 0.113985
0.203693 0.229145 0.106432
0.485664 0.23592 0.104875
0.762341 0.245991 0.089189
0.895491 0.257481 0.0958877
0.895491 0.257481 0.0958877
0.895491 0.257481 0.0958877
0.895491 0.257481 0.0958877
0.139513 0.366018 0.150729
0.137499 0.361181 0.150378
0.134981 0.355169 0.149966
0.467109 0.447654 0.190768
0.696071 0.362127 0.155306
0.88896 0.290806 0.10425
0.896651 0.259709 0.0961624
0.895491 0.257481 0.0958877
0.895491 0.257481 0.0958877
0.180743 0.539101 0.159747
0.180957 0.538323 0.160128
0.181231 0.537331 0.160616
0.181888 0.534585 0.161868
0.698924 0.645304 0.25481
0.835752 0.525902 0.226612
0.861128 0.481025 0.197742
0.861463 0.462989 0.189899
0.861906 0.456077 0.186923
0.206256 0.673136 0.170977
0.205936 0.67187 0.17116
0.205631 0.670451 0.171405
0.205188 0.667414 0.172198
0.257908 0.650217 0.15433
0.845747 0.779248 0.299199
0.911955 0.731441 0.271717
0.909895 0.721416 0.270069
0.909133 0.717723 0.269459
0.2121 0.727916 0.184009
0.2121 0.727916 0.184009
0.2121 0.727916 0.184009
0.2121 0.727916 0.184009
0.2121 0.727916 0.184009
0.721279 0.840726 0.277546
0.910903 0.836759 0.29984
0.921416 0.828305 0.295094
0.921279 0.826673 0.294835
0.2121 0.727916 0.184009
0.2121 0.727916 0.184009
0.2121 0.727916 0.184009
0.2121 0.727916 0.184009
0.2121 0.727916 0.184009
0.62005 0.807996 0.24535
0.902495 0.860807 0.305974
0.922393 0.842527 0.297307
0.922393 0.842527 0.297307
0.2121 0.727916 0.184009
0.2121 0.727916 0.184009
0.2121 0.727916 0.184009
0.2121 0.727916 0.184009
0.2121 0.727916 0.184009
0.570489 0.791943 0.22739
0.898726 0.865675 0.307881
0.922393 0.842527 0.297307
0.922393 0.842527 0.297307
0.103059 0.101869 0.0912337
0.131075 0.109285 0.0845502
0.312963 0.162402 0.0853285
0.546136 0.219837 0.0910658
0.778012 0.249577 0.0908827
0.895491 0.257481 0.0958877
0.895491 0.257481 0.0958877
0.895491 0.257481 0.0958877
0.895491 0.257481 0.0958877
0.105425 0.108659 0.082475
0.103975 0.101106 0.080766
0.259373 0.14612 0.0793927
0.527199 0.215137 0.0899367
0.77052 0.247852 0.090074
0.895491 0.257481 0.0958877
0.895491 0.257481 0.0958877
0.895491 0.257481 0.0958877
0.895491 0.257481 0.0958877
0.116655 0.215457 0.114611
0.115694 0.208652 0.111543
0.193484 0.219059 0.103975
0.479896 0.227481 0.0983597
0.761105 0.245716 0.0890364
0.895491 0.257481 0.0958877
0.895491 0.257481 0.0958877
0.895491 0.257481 0.0958877
0.895491 0.257481 0.0958877
0.137911 0.362173 0.150454
0.135851 0.357244 0.150118
0.13341 0.351186 0.149676
0.463066 0.443351 0.189792
0.69482 0.357671 0.153414
0.88957 0.289479 0.103487
0.895491 0.257481 0.0958877
0.895491 0.257481 0.0958877
0.895491 0.257481 0.0958877
0.180911 0.53846 0.160037
0.18114 0.537667 0.160449
0.181384 0.536675 0.160922
0.181735 0.533333 0.161883
0.696193 0.642878 0.253925
0.834424 0.523827 0.225772
0.86096 0.47834 0.196551
0.861646 0.459953 0.188586
0.862211 0.452705 0.185443
0.205997 0.672114 0.171115
0.205692 0.670848 0.171298
0.205524 0.669718 0.171603
0.205066 0.666682 0.172396
0.257023 0.64947 0.154482
0.845014 0.778347 0.299214
0.911635 0.729854 0.271473
0.90956 0.719783 0.269795
0.908797 0.716075 0.269184
0.2121 0.727916 0.184009
0.2121 0.727916 0.184009
0.2121 0.727916 0.184009
0.2121 0.727916 0.184009
0.2121 0.727916 0.184009
0.719402 0.839658 0.277195
0.91046 0.836393 0.299992
0.921355 0.827604 0.294972
0.921202 0.825956 0.294728
0.2121 0.727916 0.184009
0.2121 0.727916 0.184009
0.2121 0.727916 0.184009
0.2121 0.727916 0.184009
0.2121 0.727916 0.184009
0.615793 0.806607 0.243778
0.902174 0.861234 0.306142
0.922393 0.842527 0.297307
0.922393 0.842527 0.297307
0.2121 0.727916 0.184009
0.2121 0.727916 0.184009
0.2121 0.727916 0.184009
0.2121 0.727916 0.184009
0.2121 0.727916 0.184009
0.566003 0.790494 0.225772
0.89839 0.866102 0.308049
0.922393 0.842527 0.297307
0.922393 0.842527 0.297307
0.10399 0.160281 0.243977
0.116075 0.158373 0.239673
0.333562 0.188159 0.248859
0.55938 0.232898 0.175906
0.786633 0.253971 0.132097
0.900084 0.2607 0.113252
0.900053 0.258778 0.106401
0.89955 0.258061 0.103517
0.898924 0.257816 0.102602
0.10341 0.154314 0.228214
0.103288 0.153048 0.225422
0.267994 0.164965 0.239353
0.538674 0.228092 0.16582
0.777752 0.252018 0.126085
0.900038 0.259434 0.109041
0.899153 0.257908 0.102953
0.897429 0.257252 0.100542
0.897139 0.257053 0.0999161
0.174517 0.262333 0.271611
0.173449 0.25449 0.271458
0.197742 0.236744 0.251789
0.494347 0.226596 0.14818
0.766369 0.249012 0.118502
0.900038 0.258274 0.104372
0.897063 0.256992 0.0997024
0.896315 0.256504 0.0981155
0.896147 0.256687 0.097612
0.142657 0.358297 0.193973
0.140932 0.353582 0.192142
0.139834 0.348135 0.18999
0.437858 0.434852 0.204669
0.691829 0.344045 0.152392
0.889891 0.287327 0.102892
0.895491 0.257481 0.0958877
0.895491 0.257481 0.0958877
0.895491 0.257481 0.0958877
0.181125 0.537682 0.160433
0.181338 0.536889 0.160815
0.181582 0.535851 0.161273
0.181491 0.531716 0.161868
0.693553 0.640467 0.253132
0.832822 0.521355 0.224735
0.860746 0.475074 0.195132
0.861906 0.456214 0.186984
0.862608 0.448493 0.183581
0.205707 0.670893 0.171283
0.205554 0.669947 0.171542
0.205386 0.668833 0.171847
0.204929 0.665751 0.172625
0.256474 0.648692 0.155154
0.844114 0.777173 0.299168
0.911238 0.727932 0.271138
0.909148 0.7178 0.269474
0.908354 0.714046 0.268818
0.2121 0.727916 0.184009
0.2121 0.727916 0.184009
0.2121 0.727916 0.184009
0.2121 0.727916 0.184009
0.2121 0.727916 0.184009
0.717159 0.838361 0.276799
0.909911 0.835874 0.300191
0.921279 0.826703 0.294835
0.921141 0.825071 0.294575
0.2121 0.727916 0.184009
0.2121 0.727916 0.184009
0.2121 0.727916 0.184009
0.2121 0.727916 0.184009
0.2121 0.727916 0.184009
0.610697 0.804959 0.241932
0.901762 0.861753 0.30634
0.922393 0.842527 0.297307
0.922393 0.842527 0.297307
0.2121 0.727916 0.184009
0.2121 0.727916 0.184009
0.2121 0.727916 0.184009
0.2121 0.727916 0.184009
0.2121 0.727916 0.184009
0.560525 0.788739 0.223804
0.897566 0.866499 0.308141
0.922393 0.842527 0.297307
0.922393 0.842527 0.297307
0.116197 0.229114 0.473533
0.116564 0.22916 0.471031
0.222934 0.234409 0.439033
0.596918 0.281529 0.407904
0.804135 0.305638 0.355856
0.921752 0.285222 0.244129
0.921355 0.282811 0.2309
0.921157 0.281621 0.224277
0.921096 0.281178 0.221897
0.115892 0.22771 0.467796
0.115801 0.22739 0.466667
0.174838 0.233768 0.447913
0.574472 0.274311 0.40238
0.798016 0.303044 0.351659
0.921508 0.283787 0.236271
0.921126 0.281346 0.222827
0.920928 0.280125 0.216007
0.920867 0.279667 0.213519
0.13666 0.237278 0.410712
0.130983 0.230274 0.406363
0.133898 0.228656 0.436988
0.538262 0.264607 0.394232
0.790784 0.299138 0.345632
0.921233 0.282002 0.226459
0.920836 0.279515 0.21268
0.920653 0.278248 0.205646
0.920577 0.277806 0.203143
0.286442 0.47158 0.512642
0.285588 0.467964 0.513298
0.284367 0.463264 0.514092
0.388205 0.44358 0.484962
0.717769 0.340825 0.29807
0.909087 0.287709 0.185687
0.919646 0.274922 0.186465
0.919127 0.274037 0.181018
0.918944 0.273716 0.17908
0.228 0.55375 0.344106
0.22768 0.551537 0.343633
0.227268 0.548836 0.343053
0.225818 0.54168 0.341421
0.662745 0.637675 0.34612
0.826703 0.509133 0.251377
0.861128 0.462943 0.227085
0.861997 0.444663 0.218692
0.862303 0.437675 0.215427
0.208804 0.675517 0.199786
0.208453 0.674434 0.199283
0.208057 0.673121 0.198688
0.206928 0.669795 0.197131
0.250446 0.647135 0.178302
0.844648 0.775174 0.305287
0.912001 0.729366 0.291356
0.909804 0.717983 0.288884
0.908873 0.713832 0.28835
0.2121 0.727916 0.184009
0.2121 0.727916 0.184009
0.2121 0.727916 0.184009
0.2121 0.727916 0.184009
0.2121 0.727916 0.184009
0.710994 0.834821 0.275669
0.908232 0.834409 0.300969
0.92105 0.824308 0.294453
0.920836 0.822553 0.294163
0.2121 0.727916 0.184009
0.2121 0.727916 0.184009
0.2121 0.727916 0.184009
0.2121 0.727916 0.184009
0.2121 0.727916 0.184009
0.596429 0.80032 0.236728
0.900679 0.863172 0.306889
0.922393 0.842527 0.297307
0.922393 0.842527 0.297307
0.2121 0.727916 0.184009
0.2121 0.727916 0.184009
0.2121 0.727916 0.184009
0.2121 0.727916 0.184009
0.2121 0.727916 0.184009
0.545144 0.783902 0.218494
0.895186 0.86746 0.308324
0.922393 0.842527 0.297307
0.922393 0.842527 0.297307
0.128496 0.283162 0.639292
0.12845 0.283146 0.639033
0.150866 0.272725 0.629511
0.454383 0.28896 0.6
0.81648 0.357855 0.604944
0.931548 0.350088 0.517159
0.931105 0.348714 0.512001
0.930877 0.348104 0.509819
0.93077 0.347875 0.508995
0.128237 0.283085 0.637659
0.128191 0.28307 0.6374
0.135485 0.273869 0.637201
0.417304 0.289967 0.596689
0.810208 0.356725 0.603616
0.931319 0.349218 0.513817
0.9308 0.347951 0.509285
0.930571 0.347356 0.507088
0.93048 0.347112 0.506249
0.12781 0.282521 0.634775
0.127825 0.282109 0.634882
0.127749 0.281941 0.63444
0.368643 0.288594 0.587991
0.802457 0.355093 0.602869
0.930953 0.348302 0.510521
0.930434 0.347036 0.505989
0.93019 0.346395 0.503685
0.930098 0.346181 0.502892
0.210651 0.375143 0.60943
0.205753 0.368704 0.606134
0.199817 0.360418 0.602548
0.235706 0.342672 0.601663
0.745464 0.366079 0.557809
0.924437 0.346868 0.506371
0.929397 0.344488 0.496757
0.92903 0.343938 0.494362
0.928893 0.34374 0.493492
0.372793 0.662516 0.700999
0.372183 0.660258 0.701122
0.371435 0.657526 0.701274
0.368994 0.649104 0.700908
0.60885 0.645167 0.671733
0.867903 0.525643 0.527764
0.908186 0.459632 0.45301
0.908827 0.439384 0.443183
0.909377 0.432166 0.440436
0.334188 0.740505 0.593454
0.334264 0.739727 0.593622
0.334386 0.738796 0.593912
0.334752 0.736263 0.594507
0.371756 0.723461 0.577905
0.818173 0.803967 0.575982
0.900069 0.737926 0.481758
0.897536 0.72668 0.476814
0.896635 0.722652 0.475196
0.274479 0.745327 0.444572
0.273884 0.744976 0.443183
0.273152 0.744549 0.441444
0.271122 0.743343 0.436667
0.266743 0.742107 0.42565
0.640314 0.821103 0.3794
0.900069 0.849577 0.431189
0.917906 0.833265 0.411612
0.917876 0.831495 0.411292
0.257221 0.740124 0.401297
0.256687 0.740017 0.399939
0.255985 0.739864 0.398138
0.254139 0.739483 0.393393
0.24979 0.739101 0.381994
0.500603 0.784329 0.309468
0.888808 0.879042 0.412436
0.91873 0.854429 0.389059
0.918715 0.854307 0.388159
0.251087 0.739178 0.385397
0.250477 0.739147 0.383825
0.249866 0.739101 0.382162
0.248051 0.738994 0.377371
0.243717 0.738766 0.365866
0.4533 0.768856 0.291936
0.879545 0.879927 0.405676
0.918486 0.853681 0.383734
0.918563 0.853529 0.382803
0.145174 0.309377 0.757519
0.145129 0.3093 0.757351
0.1467 0.307683 0.755611
0.319448 0.303883 0.736492
0.777432 0.342916 0.785824
0.936599 0.390326 0.775876
0.936812 0.389609 0.772992
0.936919 0.389166 0.771496
0.93695 0.389013 0.770993
0.144884 0.308858 0.756512
0.144839 0.308766 0.756344
0.144778 0.308659 0.756146
0.292256 0.302495 0.73521
0.766354 0.341329 0.786191
0.936751 0.38999 0.774243
0.936934 0.389059 0.771191
0.937041 0.388602 0.769665
0.937072 0.388434 0.769131
0.144533 0.308202 0.755276
0.144488 0.30811 0.755108
0.144427 0.308019 0.754925
0.256809 0.302693 0.736797
0.751827 0.339208 0.787549
0.934203 0.388907 0.772107
0.937087 0.388373 0.768917
0.937179 0.387915 0.767422
0.937209 0.387762 0.766903
0.153414 0.347356 0.750042
0.152285 0.345602 0.751369
0.150851 0.343282 0.752956
0.17882 0.32845 0.745144
0.703426 0.335683 0.783078
0.924956 0.385595 0.769772
0.937469 0.386526 0.762829
0.93756 0.386069 0.761334
0.937606 0.385885 0.760754
0.342962 0.606455 0.819791
0.341802 0.603128 0.819028
0.338888 0.597787 0.816907
0.330922 0.583368 0.811185
0.462531 0.531792 0.772519
0.866423 0.495781 0.745327
0.924941 0.449454 0.70837
0.925933 0.442069 0.70901
0.926299 0.439811 0.709209
0.39884 0.792203 0.820478
0.398566 0.791074 0.820356
0.39823 0.7897 0.820203
0.397375 0.785946 0.81976
0.431815 0.770733 0.812436
0.797299 0.798245 0.816327
0.915648 0.746105 0.773541
0.914672 0.732692 0.767407
0.914305 0.727779 0.765194
0.39379 0.841856 0.78616
0.393713 0.841764 0.78587
0.393622 0.841642 0.785504
0.393744 0.840726 0.785199
0.395132 0.836774 0.787137
0.637446 0.847684 0.772
0.884581 0.876356 0.776745
0.910491 0.866758 0.763684
0.910018 0.864515 0.763241
0.391516 0.838743 0.775708
0.39144 0.838651 0.775387
0.391363 0.838529 0.774975
0.391119 0.838193 0.773831
0.390524 0.837369 0.771038
0.542824 0.840009 0.743709
0.848692 0.900908 0.760433
0.917067 0.904494 0.744244
0.917449 0.904097 0.743313
0.390707 0.837613 0.771878
0.390616 0.837507 0.771511
0.390539 0.837385 0.771099
0.39028 0.837049 0.76994
0.389685 0.836225 0.767163
0.515114 0.833326 0.739101
0.835874 0.898726 0.755673
0.911284 0.904921 0.742428
0.917327 0.904173 0.738705
0.179873 0.329168 0.817105
0.179767 0.329091 0.816968
0.17966 0.32903 0.816831
0.277302 0.327474 0.807019
0.736095 0.348135 0.863447
0.925811 0.39704 0.863371
0.927459 0.396399 0.861189
0.927642 0.396078 0.860304
0.927687 0.396017 0.859998
0.17937 0.328817 0.816388
0.179263 0.328756 0.816266
0.179171 0.328695 0.816129
0.255543 0.327077 0.81059
0.721798 0.345464 0.861265
0.923308 0.396643 0.862928
0.927672 0.396048 0.860121
0.92784 0.395727 0.85922
0.927916 0.395605 0.8589
0.178744 0.328405 0.815518
0.178668 0.328359 0.815396
0.178561 0.328283 0.815259
0.233783 0.329915 0.816098
0.703853 0.341588 0.858167
0.919966 0.394171 0.862394
0.927932 0.395605 0.858778
0.928115 0.395285 0.857877
0.928176 0.395163 0.857557
0.173434 0.339803 0.807797
0.174075 0.336721 0.808621
0.174502 0.333394 0.809873
0.186603 0.327855 0.813809
0.647501 0.331777 0.847395
0.910628 0.386999 0.860548
0.928649 0.394308 0.855116
0.928832 0.394003 0.854231
0.928893 0.393881 0.853895
0.338979 0.601221 0.875608
0.336996 0.597299 0.874311
0.334524 0.592447 0.872694
0.327688 0.579034 0.868223
0.445121 0.525261 0.834485
0.852216 0.478874 0.843793
0.922911 0.449256 0.8327
0.92549 0.440925 0.835584
0.926482 0.437079 0.836057
0.413565 0.792325 0.884367
0.413336 0.791653 0.884352
0.413046 0.790829 0.884321
0.412268 0.78851 0.884276
0.426261 0.77615 0.883574
0.769375 0.784131 0.889189
0.915007 0.730694 0.870771
0.915038 0.718761 0.867948
0.915053 0.714366 0.866911
0.419104 0.857069 0.876829
0.419089 0.856275 0.876768
0.419059 0.855314 0.876707
0.419043 0.852674 0.87657
0.418143 0.84654 0.875319
0.627497 0.857572 0.880598
0.8757 0.875166 0.884245
0.91725 0.86595 0.878035
0.917006 0.863539 0.877699
0.419013 0.860548 0.873213
0.418982 0.860563 0.873075
0.418967 0.860563 0.872923
0.418891 0.860609 0.872511
0.418738 0.860685 0.871504
0.544808 0.862913 0.866712
0.847059 0.907942 0.87953
0.905241 0.908629 0.876951
0.912184 0.907195 0.876066
0.418784 0.860655 0.871794
0.418753 0.86067 0.871672
0.418738 0.860685 0.871504
0.418662 0.860716 0.871092
0.418509 0.860807 0.870085
0.522667 0.859754 0.860471
0.83476 0.909194 0.87805
0.898268 0.913497 0.876341
0.912001 0.914199 0.873503
0.181048 0.329961 0.818753
0.181048 0.329961 0.818753
0.181048 0.329961 0.818753
0.259617 0.327764 0.812467
0.72398 0.347524 0.866423
0.922255 0.40058 0.870619
0.925658 0.400916 0.869657
0.925658 0.400916 0.869657
0.925658 0.400916 0.869657
0.181048 0.329961 0.818753
0.181048 0.329961 0.818753
0.181048 0.329961 0.818753
0.241321 0.330877 0.817853
0.708934 0.344854 0.864698
0.919493 0.399313 0.871153
0.925658 0.400916 0.869657
0.925658 0.400916 0.869657
0.925658 0.400916 0.869657
0.181048 0.329961 0.818753
0.181048 0.329961 0.818753
0.181048 0.329961 0.818753
0.223392 0.330617 0.819684
0.688945 0.34168 0.862242
0.916045 0.397314 0.87187
0.925658 0.400916 0.869657
0.925658 0.400916 0.869657
0.925658 0.400916 0.869657
0.177005 0.333089 0.816342
0.176181 0.331899 0.816785
0.1776 0.331273 0.818235
0.186877 0.329702 0.820417
0.626047 0.33521 0.852354
0.906188 0.392111 0.870024
0.925658 0.400916 0.869657
0.925658 0.400916 0.869657
0.925658 0.400916 0.869657
0.328618 0.582345 0.876982
0.326619 0.578515 0.875792
0.324132 0.573861 0.874327
0.317266 0.561013 0.870222
0.441581 0.520012 0.851499
0.84686 0.462638 0.86009
0.92253 0.445289 0.858946
0.925185 0.434256 0.860212
0.925536 0.430777 0.859785
0.41001 0.790021 0.900267
0.409903 0.789151 0.900267
0.409674 0.787823 0.900191
0.409033 0.7841 0.899992
0.416449 0.772808 0.90016
0.75697 0.774701 0.907805
0.913191 0.734386 0.901457
0.913527 0.721736 0.899565
0.913359 0.716915 0.898787
0.415915 0.847364 0.893767
0.415778 0.846662 0.893629
0.41561 0.845792 0.893446
0.415335 0.843854 0.893584
0.414755 0.839216 0.894041
0.632639 0.859281 0.908492
0.874205 0.873075 0.91577
0.916045 0.86421 0.912902
0.915892 0.861799 0.912673
0.417304 0.85478 0.892317
0.417304 0.854826 0.892256
0.417319 0.854887 0.892195
0.41735 0.855055 0.891997
0.417426 0.855467 0.891539
0.547372 0.869505 0.89575
0.84416 0.906752 0.911803
0.906767 0.902998 0.910903
0.917205 0.901579 0.90985
0.417395 0.855329 0.891661
0.417411 0.855375 0.8916
0.417426 0.855451 0.891539
0.417456 0.855619 0.89134
0.417517 0.856016 0.890867
0.52752 0.863722 0.891096
0.830289 0.910002 0.91043
0.898741 0.910918 0.909102
0.914321 0.91397 0.910445
0.181048 0.329961 0.818753
0.181048 0.329961 0.818753
0.181048 0.329961 0.818753
0.253666 0.328847 0.814466
0.719676 0.346777 0.86595
0.921462 0.400366 0.870787
0.925658 0.400916 0.869657
0.925658 0.400916 0.869657
0.925658 0.400916 0.869657
0.181048 0.329961 0.818753
0.181048 0.329961 0.818753
0.181048 0.329961 0.818753
0.237232 0.331228 0.818784
0.70457 0.344045 0.86421
0.918685 0.39884 0.871321
0.925658 0.400916 0.869657
0.925658 0.400916 0.869657
0.925658 0.400916 0.869657
0.181048 0.329961 0.818753
0.181048 0.329961 0.818753
0.181048 0.329961 0.818753
0.218067 0.330419 0.818845
0.68394 0.340963 0.861601
0.915236 0.396826 0.872068
0.925658 0.400916 0.869657
0.925658 0.400916 0.869657
0.925658 0.400916 0.869657
0.176669 0.33164 0.817334
0.178164 0.331044 0.818341
0.180896 0.329992 0.818738
0.185397 0.330098 0.818769
0.620035 0.334829 0.851102
0.905272 0.391562 0.869795
0.925658 0.400916 0.869657
0.925658 0.400916 0.869657
0.925658 0.400916 0.869657
0.325689 0.576791 0.875242
0.323659 0.572976 0.874052
0.321172 0.568261 0.872572
0.314092 0.555261 0.868162
0.435233 0.514412 0.851087
0.845777 0.455467 0.858747
0.923262 0.442359 0.859464
0.925505 0.431434 0.859876
0.925719 0.428122 0.859342
0.409827 0.788693 0.900236
0.409628 0.787564 0.900175
0.409384 0.786175 0.900099
0.408743 0.782452 0.899901
0.412451 0.771038 0.900053
0.753567 0.771359 0.907179
0.91194 0.73135 0.901198
0.913405 0.717906 0.898939
0.913207 0.713039 0.898146
0.415717 0.846281 0.893706
0.415579 0.845548 0.893645
0.415488 0.8448 0.893828
0.415229 0.842786 0.894301
0.414786 0.837781 0.89543
0.630213 0.858595 0.911131
0.872892 0.872023 0.920165
0.915496 0.863142 0.918273
0.915404 0.860746 0.918288
0.417029 0.853223 0.894163
0.417029 0.853223 0.894163
0.417029 0.853223 0.894163
0.417029 0.853223 0.894163
0.417029 0.853223 0.894163
0.548043 0.869444 0.903105
0.844694 0.905547 0.919768
0.906691 0.900847 0.919127
0.917861 0.899809 0.918349
0.417029 0.853223 0.894163
0.417029 0.853223 0.894163
0.417029 0.853223 0.894163
0.417029 0.853223 0.894163
0.417029 0.853223 0.894163
0.52961 0.863462 0.900923
0.830549 0.909865 0.919814
0.898344 0.910369 0.918807
0.916106 0.91223 0.919844
