modules/camera-engine/ios/LUTs/panasonic-golden-rice-field.cube
TITLE "Generated by Resolve"
LUT_3D_SIZE 9
0.0113375 0.00727855 0.00207523
0.0537575 0.00694286 0.00173953
0.145983 0.0104982 0.000991836
0.522515 0.0649729 0.0212711
0.802014 0.103975 0.0446021
0.917876 0.114763 0.0520485
0.917876 0.114763 0.0520485
0.917876 0.114763 0.0520485
0.917876 0.114763 0.0520485
0.0112917 0.0229191 0.00202945
0.016968 0.0141909 0.00207523
0.117205 0.00712596 0.00167849
0.486595 0.0609903 0.0176242
0.797726 0.103716 0.0437934
0.917876 0.114763 0.0520485
0.917876 0.114763 0.0520485
0.917876 0.114763 0.0520485
0.917876 0.114763 0.0520485
0.010605 0.100618 0.00204471
0.0103761 0.0925612 0.00128176
0.0868544 0.0849622 0.00205997
0.433768 0.104967 0.0153506
0.795026 0.10396 0.0427405
0.917876 0.114763 0.0520485
0.917876 0.114763 0.0520485
0.917876 0.114763 0.0520485
0.917876 0.114763 0.0520485
0.0180667 0.311955 0.0375525
0.0163882 0.303731 0.0347143
0.0140536 0.2925 0.0302281
0.274144 0.290089 0.0178225
0.767132 0.261921 0.0398108
0.909041 0.197681 0.044831
0.917952 0.119448 0.0520485
0.917876 0.114763 0.0520485
0.917876 0.114763 0.0520485
0.0737163 0.611337 0.112795
0.073106 0.608011 0.112078
0.0724498 0.604044 0.111284
0.0708629 0.593835 0.109361
0.658381 0.651209 0.114336
0.895659 0.531594 0.10219
0.91577 0.460929 0.0793622
0.915892 0.431052 0.0704509
0.916075 0.421653 0.0682994
0.0994125 0.785519 0.127535
0.0990463 0.78407 0.127718
0.0986191 0.78233 0.127947
0.0975357 0.777768 0.128466
0.263371 0.762615 0.11516
0.849332 0.834501 0.148714
0.941299 0.817548 0.149233
0.940948 0.809201 0.148348
0.94081 0.806149 0.148028
0.126192 0.849378 0.117784
0.126192 0.849378 0.117784
0.126192 0.849378 0.117784
0.126192 0.849378 0.117784
0.126192 0.849378 0.117784
0.778714 0.917372 0.155123
0.929046 0.914885 0.160601
0.943099 0.911299 0.160662
0.943206 0.909972 0.160678
0.126192 0.849378 0.117784
0.126192 0.849378 0.117784
0.126192 0.849378 0.117784
0.126192 0.849378 0.117784
0.126192 0.849378 0.117784
0.699214 0.912123 0.144289
0.914778 0.923827 0.161303
0.94255 0.923796 0.160616
0.94255 0.923796 0.160616
0.126192 0.849378 0.117784
0.126192 0.849378 0.117784
0.126192 0.849378 0.117784
0.126192 0.849378 0.117784
0.126192 0.849378 0.117784
0.644953 0.900267 0.132143
0.909224 0.923858 0.161532
0.94255 0.923796 0.160616
0.94255 0.923796 0.160616
0.0113375 0.00727855 0.0112306
0.0475929 0.00704967 0.00972
0.140887 0.00981155 0.00747692
0.517006 0.0643778 0.0227817
0.800992 0.103868 0.0444953
0.917876 0.114763 0.0520485
0.917876 0.114763 0.0520485
0.917876 0.114763 0.0520485
0.917876 0.114763 0.0520485
0.0113222 0.0159304 0.00334173
0.0113375 0.00727855 0.00207523
0.112932 0.00672923 0.00149538
0.480308 0.0601663 0.0169528
0.797436 0.103761 0.0436561
0.917876 0.114763 0.0520485
0.917876 0.114763 0.0520485
0.917876 0.114763 0.0520485
0.917876 0.114763 0.0520485
0.0104982 0.0940719 0.00143435
0.00949111 0.0858778 0.000244144
0.0822309 0.0794385 0.00189212
0.425803 0.0962234 0.0147707
0.794629 0.10399 0.0425879
0.917876 0.114763 0.0520485
0.917876 0.114763 0.0520485
0.917876 0.114763 0.0520485
0.917876 0.114763 0.0520485
0.0167239 0.305409 0.0352941
0.0150149 0.297032 0.0324254
0.0126192 0.283192 0.0256046
0.265858 0.278187 0.0154116
0.765072 0.257908 0.0399481
0.908949 0.193378 0.0451514
0.917876 0.114763 0.0520485
0.917876 0.114763 0.0520485
0.917876 0.114763 0.0520485
0.073228 0.608698 0.11223
0.0726482 0.60531 0.111513
0.0720836 0.601617 0.110826
0.0704051 0.59115 0.108812
0.65568 0.64831 0.113603
0.894591 0.526818 0.100877
0.915785 0.455909 0.0774853
0.915969 0.426886 0.0694896
0.91603 0.417563 0.0673686
0.0991226 0.78436 0.127687
0.0987716 0.78294 0.127871
0.0983291 0.78117 0.128099
0.097322 0.776715 0.128573
0.260868 0.761547 0.115587
0.848035 0.833173 0.148425
0.941238 0.81622 0.149096
0.940887 0.807858 0.148211
0.940764 0.804791 0.14789
0.126192 0.849378 0.117784
0.126192 0.849378 0.117784
0.126192 0.849378 0.117784
0.126192 0.849378 0.117784
0.126192 0.849378 0.117784
0.777295 0.916945 0.155291
0.928557 0.914305 0.160601
0.943145 0.910719 0.160678
0.943236 0.909392 0.160693
0.126192 0.849378 0.117784
0.126192 0.849378 0.117784
0.126192 0.849378 0.117784
0.126192 0.849378 0.117784
0.126192 0.849378 0.117784
0.695155 0.911315 0.143404
0.914351 0.923827 0.161334
0.94255 0.923796 0.160616
0.94255 0.923796 0.160616
0.126192 0.849378 0.117784
0.126192 0.849378 0.117784
0.126192 0.849378 0.117784
0.126192 0.849378 0.117784
0.126192 0.849378 0.117784
0.639506 0.898878 0.130968
0.908629 0.923858 0.161547
0.94255 0.923796 0.160616
0.94255 0.923796 0.160616
0.0108034 0.00677501 0.0829786
0.0398108 0.00663767 0.0817884
0.134005 0.00851453 0.0803845
0.508125 0.0637217 0.0961776
0.798321 0.103136 0.111849
0.919326 0.11458 0.103563
0.919509 0.114702 0.0894942
0.919676 0.114733 0.0825971
0.919753 0.114733 0.0801251
0.0108186 0.00694286 0.0770428
0.0108186 0.00675975 0.0760662
0.106935 0.00598154 0.0738689
0.469871 0.0587167 0.085771
0.79556 0.103288 0.103777
0.919432 0.114641 0.0953689
0.919722 0.114733 0.0810712
0.918914 0.114748 0.0743725
0.918349 0.114763 0.0719768
0.0107729 0.0873579 0.0691844
0.00953689 0.0794995 0.0668345
0.0764782 0.0724193 0.067216
0.414878 0.0848249 0.074403
0.792432 0.103609 0.0924086
0.9196 0.114733 0.0848707
0.918151 0.114763 0.071107
0.917876 0.114763 0.0645457
0.917876 0.114763 0.0621805
0.0150759 0.297658 0.0733043
0.0128939 0.287053 0.0668803
0.01149 0.272419 0.0582284
0.257176 0.266728 0.046128
0.762676 0.252689 0.0619821
0.909041 0.187854 0.0517128
0.917876 0.114763 0.0520485
0.917876 0.114763 0.0520485
0.917876 0.114763 0.0520485
0.0726482 0.605386 0.111528
0.0721904 0.602365 0.110964
0.0716259 0.598642 0.110277
0.0698405 0.587854 0.108141
0.652415 0.644785 0.112734
0.893156 0.521004 0.0992447
0.915801 0.44976 0.0751965
0.916075 0.421881 0.0683452
0.915816 0.412299 0.0660868
0.0987716 0.782971 0.127855
0.0984054 0.781521 0.128054
0.0979782 0.779767 0.128267
0.0970474 0.775418 0.128695
0.257755 0.76022 0.116106
0.846601 0.831647 0.148119
0.941176 0.814603 0.148928
0.94081 0.80621 0.148043
0.940688 0.803128 0.147738
0.126192 0.849378 0.117784
0.126192 0.849378 0.117784
0.126192 0.849378 0.117784
0.126192 0.849378 0.117784
0.126192 0.849378 0.117784
0.775525 0.916426 0.155489
0.927947 0.913619 0.160616
0.943206 0.910002 0.160678
0.943297 0.908675 0.160693
0.126192 0.849378 0.117784
0.126192 0.849378 0.117784
0.126192 0.849378 0.117784
0.126192 0.849378 0.117784
0.126192 0.849378 0.117784
0.69015 0.910323 0.142321
0.913848 0.923827 0.161364
0.94255 0.923796 0.160616
0.94255 0.923796 0.160616
0.126192 0.849378 0.117784
0.126192 0.849378 0.117784
0.126192 0.849378 0.117784
0.126192 0.849378 0.117784
0.126192 0.849378 0.117784
0.6327 0.897231 0.129458
0.907897 0.923873 0.161547
0.94255 0.923796 0.160616
0.94255 0.923796 0.160616
0.0346532 0.0316167 0.305913
0.0440528 0.0310521 0.303548
0.123232 0.0318456 0.311559
0.489067 0.0623789 0.241993
0.799924 0.103471 0.209339
0.925109 0.116197 0.210254
0.924926 0.115602 0.204837
0.924178 0.115373 0.202564
0.923888 0.115312 0.201755
0.0317388 0.0285039 0.292485
0.031281 0.0280156 0.290349
0.114305 0.0276646 0.289448
0.44683 0.0561074 0.241764
0.797681 0.103639 0.205737
0.925246 0.115892 0.206989
0.923995 0.115328 0.202075
0.923796 0.115267 0.199741
0.923781 0.115267 0.198871
0.0251316 0.0838331 0.266072
0.0258793 0.0748455 0.266651
0.0725109 0.0632029 0.265568
0.386297 0.0581674 0.243046
0.789609 0.103609 0.201984
0.924422 0.115419 0.203281
0.923781 0.115251 0.198566
0.923735 0.115221 0.196139
0.923705 0.11519 0.195254
0.036759 0.290517 0.241108
0.0351873 0.279713 0.238575
0.0339361 0.267552 0.236866
0.227253 0.251652 0.243412
0.754879 0.228229 0.181827
0.916457 0.168963 0.189227
0.923293 0.114794 0.188571
0.92314 0.114626 0.185962
0.923079 0.114565 0.185
0.0737621 0.60296 0.2421
0.0728466 0.598856 0.240528
0.071931 0.594232 0.238849
0.0694285 0.581781 0.234379
0.650294 0.638132 0.233967
0.888731 0.509178 0.210834
0.91902 0.435203 0.180804
0.915969 0.406577 0.169818
0.914824 0.396139 0.165881
0.0964675 0.777844 0.205661
0.0962234 0.776547 0.204852
0.0959182 0.77496 0.203845
0.0951095 0.770642 0.201022
0.248264 0.755673 0.180865
0.841672 0.826612 0.194003
0.940551 0.809628 0.181216
0.940307 0.801251 0.173632
0.94023 0.798169 0.170932
0.126192 0.849378 0.117784
0.126192 0.849378 0.117784
0.126192 0.849378 0.117784
0.126192 0.849378 0.117784
0.126192 0.849378 0.117784
0.770733 0.915053 0.156024
0.926299 0.911711 0.160632
0.943328 0.908064 0.160693
0.94342 0.906722 0.160708
0.126192 0.849378 0.117784
0.126192 0.849378 0.117784
0.126192 0.849378 0.117784
0.126192 0.849378 0.117784
0.126192 0.849378 0.117784
0.674678 0.907164 0.138811
0.912474 0.923842 0.161471
0.94255 0.923796 0.160616
0.94255 0.923796 0.160616
0.126192 0.849378 0.117784
0.126192 0.849378 0.117784
0.126192 0.849378 0.117784
0.126192 0.849378 0.117784
0.126192 0.849378 0.117784
0.614404 0.892866 0.1252
0.905913 0.923873 0.161563
0.94255 0.923796 0.160616
0.94255 0.923796 0.160616
0.0637369 0.156298 0.676585
0.063798 0.156252 0.676188
0.141268 0.1561 0.675715
0.353155 0.1552 0.656046
0.811093 0.148455 0.571694
0.945632 0.150149 0.515389
0.944945 0.146715 0.499321
0.944549 0.145113 0.491096
0.944396 0.144533 0.488106
0.0641184 0.156008 0.674128
0.0641794 0.155962 0.673716
0.108644 0.156863 0.673884
0.323476 0.155459 0.657343
0.803861 0.147906 0.571694
0.945281 0.148058 0.506004
0.944457 0.144762 0.489281
0.944045 0.143236 0.481453
0.943908 0.142718 0.478782
0.065156 0.159335 0.670802
0.0650797 0.155474 0.670436
0.0652323 0.155383 0.669902
0.293187 0.157092 0.660197
0.794034 0.147921 0.571939
0.944686 0.145647 0.493843
0.943847 0.142535 0.477821
0.94345 0.1411 0.470436
0.943297 0.140581 0.467781
0.0773938 0.34815 0.675196
0.0767529 0.340871 0.674159
0.0762798 0.332448 0.672679
0.209171 0.304921 0.66656
0.756344 0.248981 0.583139
0.935058 0.141054 0.467506
0.94226 0.137209 0.449317
0.942 0.136355 0.442695
0.941909 0.136034 0.440436
0.184909 0.665461 0.670222
0.184741 0.663233 0.670848
0.184268 0.660014 0.671336
0.183307 0.651652 0.673716
0.636072 0.640375 0.650584
0.896086 0.477821 0.488594
0.932769 0.418784 0.455207
0.932845 0.394965 0.449302
0.933104 0.386557 0.449027
0.111254 0.778988 0.415274
0.110964 0.777768 0.415122
0.110613 0.776272 0.415045
0.109636 0.772213 0.414725
0.245777 0.756313 0.405737
0.840558 0.814389 0.425269
0.944808 0.795102 0.412024
0.944472 0.785977 0.408637
0.94435 0.782681 0.407721
0.145892 0.851911 0.356359
0.145953 0.851911 0.35584
0.146014 0.851911 0.355184
0.146258 0.851957 0.353368
0.14699 0.852293 0.348669
0.763592 0.910292 0.375296
0.924926 0.903014 0.374166
0.945754 0.89749 0.370916
0.945876 0.89514 0.369726
0.148089 0.852232 0.338338
0.148089 0.852247 0.337835
0.148104 0.852247 0.337179
0.148104 0.852262 0.335485
0.147311 0.852125 0.331014
0.661952 0.899641 0.34609
0.906416 0.915541 0.363317
0.948333 0.915343 0.362432
0.94847 0.915358 0.361547
0.147631 0.852186 0.332387
0.147494 0.852155 0.331792
0.147326 0.852125 0.331075
0.146853 0.852049 0.329122
0.146639 0.852079 0.324361
0.594324 0.885801 0.326467
0.896483 0.915602 0.357046
0.94818 0.916152 0.355627
0.948272 0.916304 0.354452
0.144442 0.251484 0.835416
0.144289 0.251347 0.835203
0.152895 0.251743 0.835233
0.356741 0.258366 0.83328
0.787686 0.269718 0.837888
0.956786 0.281392 0.840726
0.957092 0.279515 0.838239
0.957244 0.278584 0.837018
0.95729 0.278264 0.836576
0.14345 0.250507 0.834119
0.143313 0.25037 0.833921
0.143099 0.250156 0.833661
0.335943 0.256046 0.832212
0.775677 0.266819 0.836301
0.95697 0.280278 0.839246
0.957275 0.278386 0.836744
0.957427 0.27747 0.835523
0.957488 0.277104 0.835081
0.14226 0.249317 0.832547
0.142092 0.249149 0.832334
0.141909 0.248966 0.83209
0.309468 0.256153 0.832929
0.759899 0.263127 0.833982
0.953582 0.27866 0.837247
0.957504 0.276997 0.834913
0.957656 0.276066 0.833692
0.957717 0.275715 0.833234
0.143084 0.370275 0.833783
0.142763 0.364904 0.833265
0.142809 0.358663 0.832929
0.232288 0.338399 0.832166
0.710521 0.272602 0.82385
0.942702 0.27422 0.831754
0.957702 0.273548 0.829892
0.95761 0.272786 0.828611
0.95758 0.272496 0.828153
0.223316 0.652979 0.864683
0.221851 0.648341 0.86389
0.220127 0.64271 0.862928
0.213596 0.626459 0.858763
0.5617 0.604028 0.834913
0.895933 0.510597 0.81709
0.94226 0.457969 0.805508
0.942153 0.441672 0.803311
0.941894 0.434669 0.802502
0.274189 0.852384 0.852277
0.273579 0.850996 0.852171
0.272862 0.849302 0.852079
0.270787 0.844663 0.851759
0.364401 0.826688 0.845533
0.834501 0.831128 0.840421
0.953033 0.812573 0.833341
0.952941 0.804028 0.832227
0.952941 0.800916 0.831815
0.287404 0.92488 0.829908
0.287083 0.924758 0.829572
0.286702 0.924605 0.829175
0.285893 0.92314 0.828183
0.284703 0.916503 0.826047
0.765194 0.925322 0.823316
0.924086 0.920287 0.822492
0.952422 0.914809 0.821591
0.952499 0.912963 0.821103
0.282719 0.924788 0.822095
0.282582 0.924819 0.821836
0.28246 0.924865 0.821546
0.282002 0.924956 0.820691
0.280873 0.925093 0.818555
0.677913 0.935317 0.80824
0.903014 0.947143 0.813672
0.951247 0.947601 0.814206
0.951827 0.947356 0.813718
0.281209 0.925048 0.819181
0.281071 0.925063 0.818906
0.280873 0.925093 0.81857
0.280415 0.925155 0.81767
0.279164 0.925246 0.815381
0.633555 0.930388 0.802869
0.893034 0.946593 0.810193
0.945205 0.947494 0.8112
0.951827 0.947478 0.810712
0.173968 0.313252 0.92105
0.173892 0.313161 0.920913
0.17377 0.313024 0.920729
0.362371 0.320226 0.921126
0.771954 0.31693 0.922591
0.955779 0.329839 0.927565
0.957397 0.32987 0.926345
0.957382 0.32987 0.925734
0.957382 0.32987 0.925505
0.173419 0.312612 0.92018
0.173312 0.312505 0.920043
0.17319 0.312352 0.91986
0.343404 0.320378 0.921462
0.759304 0.315206 0.921172
0.952346 0.329747 0.926711
0.957382 0.32987 0.925597
0.957382 0.32987 0.924987
0.957382 0.329854 0.924758
0.172702 0.311803 0.919112
0.17261 0.311696 0.918975
0.172488 0.311559 0.918791
0.319371 0.319692 0.921294
0.740276 0.312596 0.918471
0.948104 0.32961 0.925673
0.957382 0.329854 0.924681
0.957366 0.329854 0.924056
0.957366 0.329854 0.923827
0.177096 0.383246 0.919661
0.177462 0.375921 0.919982
0.178882 0.367102 0.920989
0.238361 0.335897 0.919829
0.675746 0.310338 0.912917
0.936385 0.329259 0.92285
0.957351 0.329839 0.922179
0.957351 0.329824 0.921553
0.957336 0.329824 0.921324
0.221485 0.628153 0.932403
0.218585 0.622934 0.930968
0.21529 0.616846 0.929412
0.208774 0.603128 0.92636
0.512261 0.579568 0.912749
0.889342 0.519432 0.907408
0.943221 0.494453 0.906401
0.943053 0.47631 0.905608
0.943069 0.469459 0.904906
0.311635 0.850446 0.941543
0.31075 0.849042 0.941329
0.309606 0.847303 0.941085
0.306722 0.842649 0.940429
0.366308 0.826902 0.935882
0.830762 0.830533 0.935073
0.95201 0.810361 0.93164
0.951919 0.802762 0.930877
0.951812 0.799893 0.930541
0.344045 0.935332 0.932357
0.343923 0.934493 0.932189
0.343725 0.933455 0.931975
0.343282 0.930663 0.931426
0.341573 0.923796 0.930297
0.763882 0.926299 0.930236
0.920699 0.916869 0.927062
0.953735 0.911604 0.926131
0.95375 0.909621 0.925826
0.340734 0.938415 0.927687
0.340627 0.938399 0.927535
0.34049 0.938384 0.927352
0.340124 0.938354 0.926833
0.339254 0.938277 0.925612
0.669596 0.942138 0.917922
0.900786 0.95285 0.92369
0.947524 0.947829 0.922103
0.953536 0.946334 0.921843
0.339498 0.938293 0.925963
0.339391 0.938277 0.925811
0.339254 0.938277 0.925628
0.338888 0.938231 0.925109
0.338018 0.938155 0.923873
0.629007 0.936248 0.913405
0.892653 0.953674 0.922301
0.94139 0.953231 0.920516
0.953536 0.953231 0.920256
0.174487 0.313848 0.922896
0.174487 0.313848 0.922896
0.174487 0.313848 0.922896
0.347509 0.320546 0.92459
0.761944 0.315663 0.925536
0.953094 0.329809 0.932342
0.957458 0.329931 0.932464
0.957458 0.329931 0.932464
0.957458 0.329931 0.932464
0.174487 0.313848 0.922896
0.174487 0.313848 0.922896
0.174487 0.313848 0.922896
0.327626 0.320058 0.925063
0.746807 0.31339 0.924025
0.949645 0.329717 0.93225
0.957458 0.329931 0.932464
0.957458 0.329931 0.932464
0.957458 0.329931 0.932464
0.174487 0.313848 0.922896
0.174487 0.313848 0.922896
0.174487 0.313848 0.922896
0.30309 0.319234 0.925826
0.726802 0.311177 0.922377
0.945388 0.329595 0.932128
0.957458 0.329931 0.932464
0.957458 0.329931 0.932464
0.957458 0.329931 0.932464
0.178683 0.351659 0.926925
0.176562 0.340352 0.925032
0.175418 0.328283 0.923842
0.205829 0.314458 0.923384
0.658335 0.312657 0.919982
0.933593 0.329274 0.931792
0.957458 0.329931 0.932464
0.957458 0.329931 0.932464
0.957458 0.329931 0.932464
0.217014 0.611093 0.940276
0.215824 0.607385 0.939498
0.214374 0.602808 0.938491
0.210315 0.58912 0.935607
0.487755 0.565225 0.925933
0.885054 0.510246 0.923125
0.944503 0.484016 0.924895
0.944991 0.465705 0.923659
0.945281 0.459022 0.923156
0.309621 0.845075 0.962509
0.308949 0.843702 0.962417
0.308156 0.842023 0.962325
0.306004 0.837446 0.962066
0.344747 0.824262 0.96054
0.825803 0.825269 0.960006
0.951476 0.805127 0.958144
0.952361 0.797177 0.9579
0.952193 0.794049 0.957732
0.35137 0.932769 0.962951
0.351354 0.93193 0.962814
0.351339 0.930907 0.962661
0.351293 0.92813 0.962219
0.348653 0.920775 0.961166
0.753246 0.921981 0.959976
0.917723 0.912795 0.958618
0.953689 0.907515 0.956771
0.953704 0.905486 0.956512
0.351461 0.939498 0.959365
0.351461 0.939498 0.959243
0.351461 0.939498 0.959091
0.351461 0.939498 0.958694
0.351461 0.939483 0.957732
0.6589 0.940536 0.950683
0.896986 0.949676 0.955612
0.944732 0.944686 0.953338
0.953429 0.943191 0.953109
0.351461 0.939483 0.958022
0.351461 0.939483 0.9579
0.351461 0.939483 0.957748
0.351461 0.939483 0.957351
0.351461 0.939483 0.95639
0.627771 0.935454 0.947936
0.888426 0.953826 0.954253
0.938537 0.953399 0.95198
0.953429 0.953384 0.951751
0.174487 0.313848 0.922896
0.174487 0.313848 0.922896
0.174487 0.313848 0.922896
0.341741 0.320424 0.924666
0.757931 0.315007 0.925155
0.952102 0.329793 0.932311
0.957458 0.329931 0.932464
0.957458 0.329931 0.932464
0.957458 0.329931 0.932464
0.174487 0.313848 0.922896
0.174487 0.313848 0.922896
0.174487 0.313848 0.922896
0.322011 0.31989 0.925307
0.742168 0.31284 0.923644
0.948638 0.329686 0.932219
0.957458 0.329931 0.932464
0.957458 0.329931 0.932464
0.957458 0.329931 0.932464
0.174487 0.313848 0.922896
0.174487 0.313848 0.922896
0.174487 0.313848 0.922896
0.296437 0.3187 0.925628
0.721325 0.310933 0.922148
0.944366 0.329564 0.932097
0.957458 0.329931 0.932464
0.957458 0.329931 0.932464
0.957458 0.329931 0.932464
0.176043 0.335775 0.924498
0.17525 0.326131 0.923674
0.174548 0.314824 0.922957
0.194949 0.314305 0.923247
0.65182 0.313481 0.919722
0.93254 0.329244 0.931762
0.957458 0.329931 0.932464
0.957458 0.329931 0.932464
0.957458 0.329931 0.932464
0.21529 0.605707 0.939132
0.214099 0.601953 0.938308
0.212634 0.597284 0.937316
0.208438 0.582773 0.934722
0.477974 0.558709 0.925246
0.883955 0.50695 0.923369
0.944549 0.478218 0.924407
0.94522 0.460395 0.923247
0.945312 0.453849 0.923186
0.308659 0.843076 0.962386
0.308003 0.841703 0.96231
0.307195 0.840009 0.962219
0.305043 0.835416 0.961959
0.333486 0.822797 0.961028
0.823941 0.823102 0.959899
0.950439 0.802853 0.958068
0.952239 0.79469 0.957778
0.952163 0.791012 0.957488
0.351354 0.931548 0.962966
0.351339 0.930724 0.962951
0.351324 0.929686 0.962936
0.351278 0.926909 0.96289
0.347967 0.919356 0.962798
0.748394 0.92015 0.962829
0.916594 0.911238 0.963012
0.953704 0.905943 0.961715
0.953719 0.903655 0.961593
0.351476 0.939498 0.963088
0.351476 0.939498 0.963088
0.351476 0.939498 0.963088
0.351476 0.939498 0.963088
0.351476 0.939498 0.963088
0.652079 0.93959 0.957351
0.895628 0.948425 0.963699
0.943755 0.943496 0.962036
0.953429 0.941985 0.962036
0.351476 0.939498 0.963088
0.351476 0.939498 0.963088
0.351476 0.939498 0.963088
0.351476 0.939498 0.963088
0.351476 0.939498 0.963088
0.624262 0.935317 0.955993
0.887037 0.953765 0.963714
0.937545 0.953399 0.962036
0.953429 0.953384 0.962036
