modules/camera-engine/ios/LUTs/panasonic-light-green.cube
TITLE "Generated by LUMIX Lab"
#LUMIXPHOTOSTYLE PORT
LUT_3D_SIZE 33
0.011765 0.003922 0.007843
0.019608 0.000000 0.003922
0.039216 0.003922 0.007843
0.054902 0.007843 0.011765
0.082353 0.011765 0.011765
0.121569 0.015686 0.007843
0.160784 0.015686 0.011765
0.192157 0.019608 0.011765
0.227451 0.023529 0.015686
0.258824 0.027451 0.015686
0.290196 0.031373 0.007843
0.321569 0.035294 0.007843
0.345098 0.035294 0.007843
0.380392 0.039216 0.007843
0.407843 0.035294 0.007843
0.447059 0.039216 0.007843
0.478431 0.039216 0.003922
0.513726 0.039216 0.003922
0.537255 0.039216 0.003922
0.576471 0.039216 0.003922
0.592157 0.035294 0.007843
0.619608 0.031373 0.007843
0.658824 0.027451 0.007843
0.694118 0.027451 0.007843
0.705882 0.023529 0.007843
0.737255 0.027451 0.003922
0.768627 0.027451 0.007843
0.776471 0.027451 0.007843
0.800000 0.027451 0.007843
0.815686 0.023529 0.007843
0.835294 0.023529 0.007843
0.866667 0.023529 0.007843
0.886275 0.019608 0.007843
0.027451 0.019608 0.023529
0.023529 0.011765 0.015686
0.035294 0.011765 0.007843
0.062745 0.015686 0.003922
0.098039 0.019608 0.015686
0.133333 0.023529 0.011765
0.172549 0.023529 0.011765
0.200000 0.027451 0.019608
0.239216 0.031373 0.011765
0.270588 0.035294 0.019608
0.290196 0.043137 0.011765
0.329412 0.047059 0.011765
0.349020 0.047059 0.015686
0.388235 0.050980 0.015686
0.411765 0.047059 0.015686
0.447059 0.050980 0.011765
0.474510 0.050980 0.011765
0.509804 0.050980 0.011765
0.537255 0.050980 0.007843
0.564706 0.050980 0.007843
0.588235 0.050980 0.007843
0.623529 0.047059 0.007843
0.658824 0.047059 0.003922
0.694118 0.047059 0.003922
0.698039 0.043137 0.007843
0.737255 0.039216 0.007843
0.764706 0.039216 0.011765
0.780392 0.039216 0.011765
0.803922 0.043137 0.007843
0.819608 0.043137 0.011765
0.827451 0.047059 0.011765
0.870588 0.043137 0.015686
0.878431 0.035294 0.015686
0.039216 0.035294 0.039216
0.039216 0.039216 0.035294
0.043137 0.039216 0.027451
0.066667 0.035294 0.011765
0.101961 0.035294 0.007843
0.141176 0.035294 0.003922
0.180392 0.039216 0.003922
0.215686 0.043137 0.003922
0.258824 0.047059 0.000000
0.301961 0.047059 0.000000
0.325490 0.050980 0.011765
0.349020 0.054902 0.011765
0.376471 0.058824 0.007843
0.411765 0.062745 0.003922
0.439216 0.058824 0.003922
0.462745 0.062745 0.003922
0.490196 0.062745 0.003922
0.509804 0.062745 0.000000
0.541176 0.066667 0.000000
0.568627 0.066667 0.000000
0.592157 0.066667 0.011765
0.623529 0.066667 0.003922
0.647059 0.058824 0.003922
0.682353 0.058824 0.003922
0.705882 0.054902 0.007843
0.733333 0.054902 0.007843
0.756863 0.054902 0.007843
0.784314 0.058824 0.011765
0.780392 0.062745 0.011765
0.803922 0.058824 0.015686
0.815686 0.058824 0.015686
0.847059 0.058824 0.015686
0.874510 0.050980 0.019608
0.043137 0.074510 0.050980
0.047059 0.074510 0.050980
0.058824 0.078431 0.047059
0.070588 0.078431 0.035294
0.109804 0.062745 0.019608
0.152941 0.066667 0.000000
0.196078 0.066667 0.000000
0.235294 0.062745 0.000000
0.278431 0.062745 0.000000
0.317647 0.066667 0.000000
0.345098 0.066667 0.000000
0.372549 0.070588 0.000000
0.407843 0.074510 0.000000
0.439216 0.074510 0.000000
0.482353 0.070588 0.000000
0.494118 0.082353 0.000000
0.545098 0.074510 0.000000
0.576471 0.078431 0.000000
0.607843 0.078431 0.000000
0.631373 0.078431 0.000000
0.658824 0.082353 0.000000
0.678431 0.078431 0.000000
0.721569 0.074510 0.000000
0.749020 0.074510 0.000000
0.729412 0.082353 0.003922
0.745098 0.074510 0.003922
0.768627 0.074510 0.000000
0.788235 0.074510 0.000000
0.796078 0.078431 0.000000
0.807843 0.074510 0.000000
0.823529 0.074510 0.000000
0.850980 0.078431 0.000000
0.874510 0.082353 0.015686
0.050980 0.117647 0.066667
0.054902 0.117647 0.066667
0.070588 0.121569 0.062745
0.082353 0.125490 0.054902
0.113725 0.117647 0.043137
0.149020 0.125490 0.031373
0.200000 0.109804 0.007843
0.247059 0.101961 0.000000
0.294118 0.105882 0.000000
0.321569 0.105882 0.000000
0.364706 0.094118 0.000000
0.400000 0.098039 0.000000
0.435294 0.094118 0.000000
0.458824 0.090196 0.000000
0.490196 0.094118 0.003922
0.517647 0.094118 0.003922
0.556863 0.098039 0.003922
0.611765 0.098039 0.000000
0.639216 0.094118 0.000000
0.674510 0.098039 0.000000
0.705882 0.090196 0.000000
0.737255 0.098039 0.000000
0.764706 0.090196 0.000000
0.796078 0.090196 0.000000
0.792157 0.098039 0.000000
0.800000 0.098039 0.000000
0.827451 0.098039 0.000000
0.843137 0.094118 0.000000
0.866667 0.094118 0.000000
0.894118 0.098039 0.000000
0.925490 0.094118 0.000000
0.949020 0.090196 0.000000
0.886275 0.109804 0.000000
0.062745 0.152941 0.082353
0.066667 0.160784 0.078431
0.082353 0.164706 0.074510
0.105882 0.176471 0.070588
0.125490 0.176471 0.066667
0.149020 0.176471 0.054902
0.184314 0.176471 0.039216
0.243137 0.149020 0.015686
0.298039 0.137255 0.000000
0.325490 0.137255 0.000000
0.372549 0.133333 0.000000
0.403922 0.129412 0.003922
0.439216 0.125490 0.003922
0.462745 0.129412 0.003922
0.490196 0.121569 0.007843
0.525490 0.125490 0.007843
0.568627 0.129412 0.003922
0.596078 0.125490 0.003922
0.619608 0.133333 0.003922
0.654902 0.133333 0.003922
0.690196 0.133333 0.003922
0.729412 0.125490 0.003922
0.752941 0.133333 0.003922
0.776471 0.137255 0.003922
0.796078 0.137255 0.003922
0.850980 0.125490 0.000000
0.874510 0.121569 0.000000
0.890196 0.125490 0.000000
0.905882 0.121569 0.000000
0.937255 0.129412 0.000000
1.000000 0.113725 0.000000
1.000000 0.109804 0.000000
0.996078 0.121569 0.000000
0.066667 0.200000 0.090196
0.066667 0.203922 0.086275
0.094118 0.207843 0.086275
0.125490 0.219608 0.086275
0.137255 0.219608 0.082353
0.156863 0.223529 0.078431
0.184314 0.223529 0.070588
0.223529 0.219608 0.050980
0.286275 0.192157 0.019608
0.321569 0.180392 0.015686
0.364706 0.176471 0.007843
0.400000 0.176471 0.003922
0.435294 0.176471 0.003922
0.462745 0.172549 0.003922
0.490196 0.168627 0.003922
0.529412 0.164706 0.003922
0.568627 0.168627 0.003922
0.603922 0.172549 0.003922
0.631373 0.172549 0.003922
0.650980 0.172549 0.003922
0.690196 0.180392 0.003922
0.729412 0.172549 0.003922
0.752941 0.172549 0.003922
0.776471 0.164706 0.003922
0.803922 0.168627 0.003922
0.835294 0.172549 0.003922
0.858824 0.172549 0.003922
0.874510 0.168627 0.003922
0.886275 0.164706 0.003922
0.913725 0.164706 0.003922
1.000000 0.152941 0.000000
1.000000 0.152941 0.000000
1.000000 0.137255 0.000000
0.082353 0.247059 0.101961
0.082353 0.243137 0.098039
0.098039 0.247059 0.098039
0.133333 0.250980 0.098039
0.156863 0.250980 0.098039
0.168627 0.254902 0.094118
0.192157 0.258824 0.090196
0.215686 0.262745 0.078431
0.250980 0.254902 0.062745
0.309804 0.231373 0.043137
0.356863 0.219608 0.015686
0.400000 0.207843 0.003922
0.435294 0.207843 0.003922
0.458824 0.207843 0.003922
0.486275 0.203922 0.003922
0.529412 0.207843 0.003922
0.576471 0.207843 0.003922
0.603922 0.203922 0.003922
0.627451 0.200000 0.003922
0.658824 0.203922 0.003922
0.690196 0.203922 0.003922
0.733333 0.203922 0.003922
0.756863 0.215686 0.003922
0.776471 0.211765 0.003922
0.815686 0.211765 0.003922
0.839216 0.207843 0.003922
0.862745 0.203922 0.003922
0.874510 0.200000 0.003922
0.890196 0.203922 0.003922
0.905882 0.203922 0.000000
0.937255 0.196078 0.000000
0.996078 0.200000 0.000000
1.000000 0.188235 0.000000
0.074510 0.274510 0.109804
0.086275 0.286275 0.105882
0.109804 0.274510 0.109804
0.141176 0.286275 0.105882
0.168627 0.282353 0.105882
0.180392 0.286275 0.101961
0.200000 0.290196 0.090196
0.227451 0.294118 0.094118
0.247059 0.298039 0.090196
0.294118 0.298039 0.078431
0.313726 0.298039 0.062745
0.388235 0.262745 0.027451
0.427451 0.250980 0.019608
0.447059 0.243137 0.003922
0.501961 0.243137 0.003922
0.541176 0.239216 0.003922
0.580392 0.239216 0.003922
0.607843 0.247059 0.003922
0.623529 0.235294 0.003922
0.654902 0.239216 0.003922
0.694118 0.243137 0.003922
0.725490 0.243137 0.003922
0.752941 0.239216 0.003922
0.780392 0.235294 0.003922
0.792157 0.250980 0.000000
0.819608 0.247059 0.000000
0.847059 0.250980 0.000000
0.854902 0.254902 0.000000
0.882353 0.247059 0.000000
0.905882 0.235294 0.000000
0.964706 0.231373 0.000000
1.000000 0.223529 0.000000
1.000000 0.231373 0.000000
0.070588 0.321569 0.117647
0.090196 0.321569 0.109804
0.113725 0.313726 0.105882
0.137255 0.313726 0.113725
0.164706 0.313726 0.105882
0.192157 0.317647 0.105882
0.207843 0.321569 0.101961
0.231373 0.325490 0.105882
0.254902 0.333333 0.109804
0.286275 0.345098 0.105882
0.309804 0.356863 0.098039
0.349020 0.345098 0.078431
0.407843 0.305882 0.043137
0.470588 0.290196 0.023529
0.498039 0.290196 0.019608
0.533333 0.286275 0.003922
0.584314 0.274510 0.003922
0.615686 0.274510 0.003922
0.635294 0.282353 0.003922
0.662745 0.286275 0.000000
0.694118 0.278431 0.000000
0.733333 0.286275 0.000000
0.752941 0.294118 0.000000
0.764706 0.290196 0.000000
0.796078 0.294118 0.000000
0.827451 0.286275 0.000000
0.847059 0.282353 0.000000
0.850980 0.294118 0.000000
0.886275 0.278431 0.000000
0.909804 0.282353 0.000000
0.937255 0.290196 0.000000
1.000000 0.278431 0.000000
1.000000 0.270588 0.000000
0.090196 0.356863 0.125490
0.098039 0.352941 0.113725
0.117647 0.349020 0.117647
0.145098 0.352941 0.121569
0.180392 0.352941 0.121569
0.207843 0.352941 0.121569
0.231373 0.352941 0.117647
0.243137 0.352941 0.121569
0.258824 0.372549 0.125490
0.286275 0.380392 0.117647
0.309804 0.380392 0.117647
0.333333 0.388235 0.105882
0.368627 0.384314 0.086275
0.443137 0.345098 0.054902
0.490196 0.333333 0.031373
0.525490 0.317647 0.027451
0.580392 0.309804 0.000000
0.615686 0.313726 0.000000
0.643137 0.313726 0.000000
0.670588 0.313726 0.000000
0.705882 0.313726 0.000000
0.737255 0.317647 0.000000
0.756863 0.321569 0.000000
0.772549 0.313726 0.000000
0.803922 0.317647 0.000000
0.831373 0.321569 0.000000
0.847059 0.317647 0.000000
0.866667 0.321569 0.000000
0.886275 0.313726 0.000000
0.913725 0.317647 0.000000
0.972549 0.309804 0.000000
0.992157 0.309804 0.000000
0.992157 0.329412 0.000000
0.109804 0.384314 0.133333
0.113725 0.384314 0.133333
0.129412 0.376471 0.133333
0.156863 0.376471 0.129412
0.188235 0.376471 0.133333
0.211765 0.380392 0.137255
0.239216 0.380392 0.129412
0.239216 0.384314 0.125490
0.254902 0.400000 0.129412
0.290196 0.407843 0.125490
0.313726 0.415686 0.129412
0.333333 0.419608 0.121569
0.364706 0.423529 0.117647
0.407843 0.415686 0.094118
0.443137 0.415686 0.054902
0.509804 0.372549 0.054902
0.572549 0.349020 0.023529
0.607843 0.349020 0.023529
0.635294 0.352941 0.023529
0.670588 0.349020 0.000000
0.709804 0.349020 0.000000
0.737255 0.352941 0.000000
0.749020 0.360784 0.000000
0.776471 0.360784 0.000000
0.807843 0.352941 0.000000
0.807843 0.352941 0.000000
0.847059 0.364706 0.000000
0.858824 0.356863 0.000000
0.886275 0.349020 0.000000
0.917647 0.345098 0.000000
0.949020 0.352941 0.000000
0.972549 0.360784 0.000000
0.992157 0.356863 0.000000
0.113725 0.415686 0.141176
0.121569 0.415686 0.141176
0.137255 0.411765 0.141176
0.172549 0.411765 0.137255
0.192157 0.407843 0.137255
0.219608 0.411765 0.145098
0.247059 0.411765 0.133333
0.270588 0.411765 0.129412
0.274510 0.431373 0.133333
0.294118 0.435294 0.133333
0.321569 0.439216 0.133333
0.341176 0.443137 0.137255
0.360784 0.450980 0.137255
0.392157 0.450980 0.129412
0.435294 0.454902 0.105882
0.509804 0.403922 0.074510
0.572549 0.388235 0.047059
0.603922 0.376471 0.043137
0.631373 0.380392 0.043137
0.670588 0.376471 0.027451
0.698039 0.384314 0.023529
0.705882 0.400000 0.023529
0.745098 0.392157 0.000000
0.776471 0.388235 0.000000
0.803922 0.403922 0.000000
0.819608 0.396078 0.000000
0.850980 0.388235 0.000000
0.870588 0.384314 0.000000
0.901961 0.380392 0.000000
0.913725 0.376471 0.000000
0.968627 0.380392 0.000000
0.992157 0.376471 0.000000
1.000000 0.380392 0.000000
0.117647 0.443137 0.149020
0.125490 0.443137 0.152941
0.145098 0.443137 0.149020
0.172549 0.439216 0.145098
0.196078 0.439216 0.145098
0.215686 0.443137 0.145098
0.250980 0.443137 0.145098
0.286275 0.443137 0.141176
0.286275 0.462745 0.141176
0.309804 0.462745 0.141176
0.329412 0.470588 0.141176
0.349020 0.482353 0.145098
0.376471 0.486275 0.149020
0.400000 0.486275 0.149020
0.431373 0.494118 0.141176
0.478431 0.486275 0.117647
0.505882 0.490196 0.113725
0.576471 0.439216 0.082353
0.623529 0.423529 0.066667
0.654902 0.415686 0.054902
0.694118 0.419608 0.050980
0.713726 0.427451 0.047059
0.749020 0.419608 0.035294
0.772549 0.431373 0.000000
0.803922 0.431373 0.000000
0.827451 0.431373 0.000000
0.850980 0.427451 0.000000
0.858824 0.431373 0.003922
0.874510 0.415686 0.000000
0.905882 0.415686 0.000000
0.929412 0.411765 0.000000
0.976471 0.407843 0.000000
0.988235 0.423529 0.000000
0.133333 0.470588 0.156863
0.137255 0.470588 0.152941
0.160784 0.470588 0.149020
0.188235 0.470588 0.149020
0.203922 0.474510 0.145098
0.227451 0.478431 0.149020
0.247059 0.478431 0.152941
0.294118 0.486275 0.152941
0.305882 0.494118 0.152941
0.313726 0.498039 0.152941
0.333333 0.498039 0.149020
0.352941 0.517647 0.156863
0.392157 0.509804 0.160784
0.411765 0.513726 0.160784
0.431373 0.517647 0.160784
0.462745 0.521569 0.152941
0.482353 0.533333 0.149020
0.517647 0.521569 0.133333
0.556863 0.529412 0.090196
0.635294 0.462745 0.090196
0.690196 0.454902 0.074510
0.725490 0.450980 0.074510
0.745098 0.450980 0.070588
0.776471 0.450980 0.043137
0.788235 0.454902 0.043137
0.803922 0.454902 0.058824
0.843137 0.454902 0.011765
0.866667 0.454902 0.011765
0.882353 0.454902 0.007843
0.898039 0.443137 0.007843
0.949020 0.447059 0.003922
0.964706 0.439216 0.003922
0.996078 0.450980 0.007843
0.141176 0.498039 0.156863
0.141176 0.498039 0.156863
0.156863 0.501961 0.156863
0.176471 0.501961 0.152941
0.203922 0.501961 0.152941
0.235294 0.498039 0.160784
0.266667 0.501961 0.164706
0.301961 0.501961 0.168627
0.321569 0.509804 0.164706
0.317647 0.517647 0.168627
0.337255 0.533333 0.164706
0.364706 0.537255 0.168627
0.388235 0.541176 0.168627
0.415686 0.541176 0.172549
0.435294 0.545098 0.180392
0.458824 0.556863 0.176471
0.482353 0.564706 0.172549
0.505882 0.576471 0.168627
0.545098 0.576471 0.145098
0.576471 0.564706 0.149020
0.666667 0.498039 0.109804
0.725490 0.490196 0.094118
0.752941 0.486275 0.094118
0.776471 0.494118 0.082353
0.800000 0.490196 0.078431
0.819608 0.486275 0.086275
0.827451 0.494118 0.070588
0.839216 0.490196 0.074510
0.882353 0.490196 0.019608
0.905882 0.486275 0.015686
0.925490 0.478431 0.023529
0.980392 0.474510 0.019608
0.980392 0.482353 0.011765
0.133333 0.517647 0.164706
0.145098 0.521569 0.160784
0.152941 0.521569 0.160784
0.180392 0.525490 0.160784
0.207843 0.525490 0.160784
0.243137 0.529412 0.164706
0.274510 0.525490 0.168627
0.313726 0.529412 0.180392
0.329412 0.533333 0.168627
0.337255 0.552941 0.172549
0.349020 0.560784 0.168627
0.372549 0.572549 0.176471
0.407843 0.576471 0.180392
0.431373 0.576471 0.188235
0.450980 0.576471 0.196078
0.470588 0.588235 0.200000
0.490196 0.596078 0.192157
0.513726 0.607843 0.192157
0.541176 0.619608 0.184314
0.568627 0.607843 0.188235
0.607843 0.600000 0.168627
0.709804 0.529412 0.129412
0.745098 0.521569 0.109804
0.780392 0.513726 0.105882
0.807843 0.513726 0.105882
0.831373 0.513726 0.105882
0.843137 0.513726 0.101961
0.850980 0.513726 0.105882
0.862745 0.513726 0.078431
0.874510 0.509804 0.074510
0.921569 0.501961 0.027451
0.964706 0.501961 0.023529
0.988235 0.501961 0.023529
0.137255 0.549020 0.172549
0.145098 0.556863 0.164706
0.172549 0.560784 0.164706
0.188235 0.556863 0.168627
0.231373 0.564706 0.168627
0.254902 0.564706 0.172549
0.286275 0.564706 0.180392
0.313726 0.564706 0.180392
0.341176 0.568627 0.180392
0.341176 0.580392 0.180392
0.360784 0.588235 0.188235
0.376471 0.596078 0.192157
0.407843 0.600000 0.200000
0.431373 0.611765 0.207843
0.450980 0.615686 0.211765
0.478431 0.615686 0.211765
0.501961 0.623529 0.211765
0.521569 0.627451 0.215686
0.552941 0.631373 0.211765
0.584314 0.631373 0.215686
0.603922 0.643137 0.207843
0.643137 0.627451 0.196078
0.725490 0.556863 0.149020
0.776471 0.545098 0.133333
0.796078 0.545098 0.133333
0.815686 0.541176 0.125490
0.831373 0.549020 0.129412
0.862745 0.549020 0.129412
0.870588 0.537255 0.117647
0.886275 0.537255 0.117647
0.882353 0.537255 0.090196
0.976471 0.529412 0.050980
0.976471 0.529412 0.050980
0.141176 0.588235 0.180392
0.152941 0.592157 0.176471
0.172549 0.592157 0.172549
0.200000 0.592157 0.176471
0.239216 0.588235 0.180392
0.262745 0.592157 0.184314
0.305882 0.596078 0.184314
0.329412 0.600000 0.192157
0.352941 0.603922 0.192157
0.356863 0.607843 0.200000
0.372549 0.615686 0.200000
0.384314 0.627451 0.207843
0.407843 0.627451 0.215686
0.431373 0.631373 0.223529
0.447059 0.639216 0.227451
0.474510 0.635294 0.231373
0.501961 0.647059 0.227451
0.525490 0.654902 0.219608
0.560784 0.658824 0.219608
0.588235 0.670588 0.227451
0.607843 0.666667 0.231373
0.623529 0.682353 0.231373
0.658824 0.658824 0.219608
0.690196 0.650980 0.215686
0.764706 0.603922 0.160784
0.823529 0.584314 0.141176
0.847059 0.584314 0.141176
0.847059 0.584314 0.141176
0.862745 0.576471 0.141176
0.882353 0.576471 0.133333
0.901961 0.576471 0.125490
0.925490 0.556863 0.094118
1.000000 0.549020 0.058824
0.149020 0.615686 0.184314
0.160784 0.611765 0.188235
0.176471 0.615686 0.176471
0.215686 0.615686 0.184314
0.243137 0.615686 0.196078
0.282353 0.615686 0.196078
0.309804 0.623529 0.196078
0.333333 0.623529 0.200000
0.352941 0.627451 0.196078
0.380392 0.631373 0.207843
0.380392 0.647059 0.215686
0.392157 0.647059 0.219608
0.419608 0.650980 0.227451
0.439216 0.654902 0.235294
0.458824 0.662745 0.243137
0.486275 0.674510 0.235294
0.509804 0.678431 0.247059
0.537255 0.690196 0.243137
0.572549 0.686275 0.239216
0.596078 0.694118 0.239216
0.607843 0.698039 0.247059
0.623529 0.709804 0.250980
0.647059 0.705882 0.250980
0.682353 0.705882 0.254902
0.701961 0.694118 0.231373
0.717647 0.690196 0.235294
0.823529 0.619608 0.176471
0.858824 0.619608 0.156863
0.874510 0.615686 0.156863
0.898039 0.592157 0.149020
0.890196 0.611765 0.145098
0.901961 0.603922 0.133333
0.949020 0.596078 0.109804
0.239216 0.635294 0.192157
0.196078 0.635294 0.196078
0.196078 0.635294 0.192157
0.235294 0.635294 0.200000
0.262745 0.635294 0.207843
0.301961 0.639216 0.211765
0.317647 0.639216 0.211765
0.356863 0.647059 0.211765
0.372549 0.647059 0.211765
0.396078 0.650980 0.219608
0.403922 0.658824 0.227451
0.411765 0.670588 0.235294
0.435294 0.678431 0.239216
0.454902 0.678431 0.243137
0.478431 0.690196 0.250980
0.498039 0.701961 0.258824
0.513726 0.709804 0.258824
0.545098 0.721569 0.258824
0.572549 0.721569 0.254902
0.596078 0.721569 0.247059
0.611765 0.733333 0.254902
0.631373 0.733333 0.250980
0.647059 0.737255 0.262745
0.662745 0.741176 0.274510
0.698039 0.737255 0.270588
0.709804 0.741176 0.274510
0.745098 0.721569 0.250980
0.839216 0.635294 0.196078
0.878431 0.627451 0.192157
0.878431 0.627451 0.180392
0.890196 0.635294 0.172549
0.898039 0.623529 0.160784
0.909804 0.627451 0.152941
0.180392 0.666667 0.207843
0.196078 0.658824 0.215686
0.207843 0.658824 0.211765
0.243137 0.666667 0.215686
0.270588 0.658824 0.219608
0.309804 0.658824 0.219608
0.341176 0.658824 0.223529
0.360784 0.666667 0.227451
0.384314 0.666667 0.231373
0.411765 0.670588 0.235294
0.435294 0.682353 0.235294
0.435294 0.690196 0.247059
0.450980 0.698039 0.250980
0.470588 0.709804 0.258824
0.490196 0.717647 0.266667
0.498039 0.729412 0.266667
0.521569 0.737255 0.270588
0.556863 0.745098 0.270588
0.576471 0.749020 0.274510
0.600000 0.745098 0.270588
0.623529 0.752941 0.274510
0.627451 0.752941 0.282353
0.639216 0.764706 0.286275
0.678431 0.764706 0.294118
0.709804 0.764706 0.298039
0.713726 0.760784 0.298039
0.721569 0.764706 0.298039
0.749020 0.749020 0.270588
0.862745 0.666667 0.219608
0.878431 0.658824 0.219608
0.894118 0.650980 0.207843
0.917647 0.639216 0.192157
0.960784 0.635294 0.188235
0.188235 0.682353 0.219608
0.200000 0.682353 0.223529
0.215686 0.686275 0.223529
0.254902 0.694118 0.223529
0.294118 0.690196 0.231373
0.325490 0.694118 0.231373
0.345098 0.694118 0.239216
0.372549 0.698039 0.239216
0.388235 0.705882 0.247059
0.423529 0.709804 0.247059
0.443137 0.705882 0.250980
0.474510 0.717647 0.250980
0.454902 0.733333 0.258824
0.470588 0.733333 0.270588
0.490196 0.741176 0.270588
0.517647 0.749020 0.282353
0.545098 0.752941 0.286275
0.568627 0.760784 0.294118
0.592157 0.768627 0.290196
0.603922 0.776471 0.301961
0.623529 0.784314 0.301961
0.639216 0.776471 0.301961
0.666667 0.784314 0.301961
0.690196 0.788235 0.313726
0.698039 0.788235 0.317647
0.721569 0.784314 0.317647
0.745098 0.788235 0.317647
0.756863 0.780392 0.321569
0.772549 0.772549 0.298039
0.784314 0.760784 0.294118
0.901961 0.670588 0.211765
0.913725 0.674510 0.203922
0.921569 0.670588 0.188235
0.192157 0.713726 0.231373
0.203922 0.717647 0.231373
0.227451 0.721569 0.235294
0.270588 0.725490 0.235294
0.301961 0.725490 0.239216
0.337255 0.721569 0.247059
0.356863 0.725490 0.254902
0.376471 0.725490 0.250980
0.407843 0.733333 0.250980
0.431373 0.737255 0.262745
0.450980 0.737255 0.262745
0.478431 0.745098 0.266667
0.462745 0.749020 0.278431
0.482353 0.756863 0.282353
0.505882 0.764706 0.286275
0.525490 0.768627 0.290196
0.549020 0.772549 0.294118
0.572549 0.784314 0.305882
0.592157 0.796078 0.301961
0.615686 0.796078 0.309804
0.639216 0.803922 0.313726
0.662745 0.792157 0.325490
0.682353 0.792157 0.325490
0.698039 0.796078 0.333333
0.725490 0.803922 0.329412
0.745098 0.800000 0.321569
0.745098 0.807843 0.333333
0.749020 0.807843 0.329412
0.745098 0.811765 0.333333
0.756863 0.811765 0.333333
0.776471 0.792157 0.298039
0.827451 0.800000 0.223529
0.835294 0.800000 0.211765
0.282353 0.749020 0.239216
0.247059 0.745098 0.239216
0.254902 0.749020 0.243137
0.278431 0.749020 0.250980
0.301961 0.752941 0.254902
0.329412 0.749020 0.254902
0.360784 0.752941 0.254902
0.384314 0.756863 0.258824
0.415686 0.764706 0.266667
0.435294 0.772549 0.278431
0.454902 0.768627 0.278431
0.494118 0.749020 0.286275
0.513726 0.756863 0.274510
0.494118 0.776471 0.298039
0.498039 0.800000 0.309804
0.509804 0.800000 0.309804
0.541176 0.800000 0.313726
0.568627 0.811765 0.313726
0.596078 0.807843 0.317647
0.611765 0.827451 0.321569
0.639216 0.831373 0.333333
0.666667 0.819608 0.333333
0.662745 0.831373 0.349020
0.694118 0.835294 0.345098
0.709804 0.835294 0.345098
0.717647 0.839216 0.337255
0.733333 0.843137 0.345098
0.745098 0.835294 0.333333
0.752941 0.831373 0.333333
0.760784 0.835294 0.329412
0.776471 0.831373 0.337255
0.776471 0.835294 0.317647
0.815686 0.831373 0.231373
0.223529 0.760784 0.247059
0.239216 0.760784 0.254902
0.254902 0.760784 0.258824
0.294118 0.772549 0.258824
0.317647 0.764706 0.258824
0.337255 0.772549 0.262745
0.372549 0.768627 0.270588
0.396078 0.768627 0.278431
0.423529 0.780392 0.278431
0.447059 0.784314 0.290196
0.478431 0.784314 0.298039
0.501961 0.788235 0.294118
0.509804 0.800000 0.301961
0.549020 0.780392 0.309804
0.525490 0.800000 0.317647
0.533333 0.819608 0.317647
0.552941 0.823529 0.313726
0.576471 0.839216 0.309804
0.603922 0.843137 0.317647
0.623529 0.843137 0.329412
0.647059 0.843137 0.333333
0.670588 0.843137 0.333333
0.678431 0.847059 0.345098
0.690196 0.854902 0.352941
0.717647 0.847059 0.349020
0.733333 0.850980 0.352941
0.741176 0.843137 0.352941
0.756863 0.839216 0.356863
0.760784 0.850980 0.352941
0.772549 0.850980 0.352941
0.772549 0.854902 0.345098
0.784314 0.847059 0.352941
0.788235 0.843137 0.325490
0.227451 0.792157 0.262745
0.243137 0.780392 0.270588
0.262745 0.784314 0.270588
0.290196 0.792157 0.270588
0.305882 0.796078 0.278431
0.349020 0.796078 0.286275
0.372549 0.800000 0.290196
0.403922 0.803922 0.294118
0.419608 0.807843 0.305882
0.447059 0.811765 0.301961
0.466667 0.823529 0.309804
0.498039 0.811765 0.309804
0.521569 0.815686 0.313726
0.545098 0.815686 0.321569
0.564706 0.807843 0.313726
0.541176 0.835294 0.325490
0.564706 0.847059 0.325490
0.584314 0.858824 0.325490
0.603922 0.862745 0.329412
0.627451 0.862745 0.333333
0.650980 0.870588 0.337255
0.654902 0.874510 0.345098
0.670588 0.874510 0.349020
0.709804 0.870588 0.352941
0.737255 0.862745 0.349020
0.733333 0.870588 0.360784
0.725490 0.870588 0.364706
0.752941 0.858824 0.356863
