modules/camera-engine/ios/LUTs/panasonic-light-green.cube
TITLE "Generated by LUMIX Lab"
#LUMIXPHOTOSTYLE PORT
LUT_3D_SIZE 5
0.011765 0.003922 0.007843
0.227451 0.023529 0.015686
0.478431 0.039216 0.003922
0.705882 0.023529 0.007843
0.886275 0.019608 0.007843
0.074510 0.274510 0.109804
0.247059 0.298039 0.090196
0.580392 0.239216 0.003922
0.792157 0.250980 0.000000
1.000000 0.231373 0.000000
0.133333 0.517647 0.164706
0.329412 0.533333 0.168627
0.490196 0.596078 0.192157
0.807843 0.513726 0.105882
0.988235 0.501961 0.023529
0.282353 0.749020 0.239216
0.415686 0.764706 0.266667
0.541176 0.800000 0.313726
0.709804 0.835294 0.345098
0.815686 0.831373 0.231373
0.274510 0.901961 0.352941
0.447059 0.913725 0.368627
0.662745 0.937255 0.372549
0.717647 0.992157 0.403922
0.800000 0.988235 0.403922
0.027451 0.054902 0.309804
0.254902 0.058824 0.219608
0.501961 0.039216 0.192157
0.713726 0.039216 0.141176
0.850980 0.050980 0.113725
0.090196 0.258824 0.235294
0.254902 0.305882 0.258824
0.556863 0.286275 0.164706
0.792157 0.282353 0.133333
0.933333 0.286275 0.152941
0.145098 0.525490 0.321569
0.329412 0.541176 0.349020
0.505882 0.596078 0.368627
0.788235 0.533333 0.286275
0.972549 0.525490 0.235294
0.301961 0.749020 0.403922
0.431373 0.760784 0.435294
0.588235 0.800000 0.458824
0.729412 0.819608 0.478431
0.905882 0.749020 0.392157
0.313726 0.878431 0.494118
0.454902 0.921569 0.498039
0.662745 0.933333 0.517647
0.737255 0.988235 0.533333
0.815686 0.976471 0.529412
0.039216 0.109804 0.749020
0.250980 0.094118 0.509804
0.498039 0.066667 0.470588
0.698039 0.062745 0.443137
0.874510 0.047059 0.403922
0.062745 0.317647 0.501961
0.239216 0.337255 0.509804
0.490196 0.321569 0.474510
0.721569 0.329412 0.443137
0.870588 0.313726 0.450980
0.172549 0.537255 0.498039
0.345098 0.549020 0.529412
0.537255 0.607843 0.568627
0.780392 0.576471 0.505882
0.909804 0.552941 0.517647
0.278431 0.745098 0.560784
0.447059 0.749020 0.615686
0.619608 0.788235 0.635294
0.737255 0.819608 0.631373
0.905882 0.752941 0.600000
0.356863 0.909804 0.643137
0.490196 0.894118 0.650980
0.682353 0.913725 0.666667
0.768627 0.933333 0.670588
0.839216 0.949020 0.686275
0.019608 0.121569 0.933333
0.254902 0.129412 0.670588
0.498039 0.094118 0.654902
0.717647 0.090196 0.643137
0.819608 0.101961 0.619608
0.039216 0.384314 0.725490
0.219608 0.392157 0.729412
0.501961 0.376471 0.658824
0.705882 0.364706 0.654902
0.827451 0.345098 0.658824
0.188235 0.568627 0.658824
0.360784 0.592157 0.698039
0.549020 0.623529 0.745098
0.741176 0.607843 0.725490
0.882353 0.580392 0.713726
0.349020 0.760784 0.729412
0.458824 0.749020 0.749020
0.643137 0.772549 0.776471
0.764706 0.780392 0.768627
0.894118 0.772549 0.756863
0.364706 0.874510 0.772549
0.517647 0.886275 0.764706
0.682353 0.909804 0.819608
0.819608 0.921569 0.823529
0.882353 0.933333 0.835294
0.000000 0.152941 0.996078
0.258824 0.160784 0.909804
0.521569 0.156863 0.764706
0.733333 0.137255 0.772549
0.862745 0.098039 0.764706
0.050980 0.450980 0.874510
0.262745 0.447059 0.866667
0.517647 0.447059 0.796078
0.717647 0.396078 0.792157
0.862745 0.341176 0.784314
0.231373 0.631373 0.768627
0.321569 0.650980 0.870588
0.545098 0.647059 0.882353
0.749020 0.635294 0.839216
0.874510 0.572549 0.843137
0.368627 0.792157 0.839216
0.486275 0.788235 0.858824
0.639216 0.780392 0.886275
0.772549 0.796078 0.905882
0.894118 0.776471 0.882353
0.392157 0.901961 0.874510
0.521569 0.905882 0.870588
0.690196 0.909804 0.898039
0.835294 0.913725 0.905882
0.952941 0.992157 0.964706
