modules/camera-engine/ios/LUTs/panasonic-film-vintage.cube
TITLE "Generated by Resolve"
LUT_3D_SIZE 9
0 0 0
0.0148318 0 0
0.157015 0.0409552 0
0.390707 0.0609751 0
0.721477 0.112963 0
1 0.152499 0
1 0.152499 0
1 0.152499 0
1 0.152499 0
0 0 0
0 0 0
0.116793 0.0371252 0
0.36907 0.0585641 0
0.708339 0.110933 0
1 0.152499 0
1 0.152499 0
1 0.152499 0
1 0.152499 0
0 0.129595 0
0 0.118242 0
0.102602 0.100511 0.00230411
0.36321 0.0979782 0
0.692012 0.108339 0
1 0.152499 0
1 0.152499 0
1 0.152499 0
1 0.152499 0
0 0.318776 0
0 0.313054 0
0 0.305913 0
0.308339 0.277745 0
0.692164 0.241459 0
1 0.213474 0
1 0.155367 0
1 0.152499 0
1 0.152499 0
0 0.580026 0
0 0.576577 0
0 0.572335 0
0 0.560708 0
0.595453 0.514763 0.00173953
1 0.453086 0
1 0.416754 0
1 0.398733 0
1 0.392126 0
0.00607309 0.849592 0.00572213
0.00590524 0.84715 0.00550851
0.00570687 0.84416 0.0052491
0.00517281 0.836011 0.00456245
0.342275 0.814862 0.0634928
0.894514 0.757183 0.0241398
1 0.716075 0
1 0.701885 0
1 0.696681 0
0.0158236 0.973571 0.0187686
0.0158236 0.973571 0.0187686
0.0158236 0.973571 0.0187686
0.0158236 0.973571 0.0187686
0.0158236 0.973571 0.0187686
0.755337 0.953368 0.154025
1 0.914488 0.0433356
1 0.901228 0
1 0.897108 0
0.0158236 0.973571 0.0187686
0.0158236 0.973571 0.0187686
0.0158236 0.973571 0.0187686
0.0158236 0.973571 0.0187686
0.0158236 0.973571 0.0187686
0.68127 0.959335 0.146532
1 0.941573 0.129915
1 0.93756 0.0292363
1 0.93756 0.0292363
0.0158236 0.973571 0.0187686
0.0158236 0.973571 0.0187686
0.0158236 0.973571 0.0187686
0.0158236 0.973571 0.0187686
0.0158236 0.973571 0.0187686
0.652461 0.960739 0.142443
1 0.942306 0.145846
1 0.93756 0.0292363
1 0.93756 0.0292363
0 0 0
0.0132906 0 0
0.154025 0.0365759 0
0.38764 0.0604715 0
0.719387 0.112642 0
1 0.152499 0
1 0.152499 0
1 0.152499 0
1 0.152499 0
0 0 0
0 0 0
0.10985 0.0363775 0
0.36553 0.0581979 0
0.706218 0.110597 0
1 0.152499 0
1 0.152499 0
1 0.152499 0
1 0.152499 0
0 0.120592 0
0 0.108522 0
0.0937057 0.0910048 0.00209049
0.358053 0.0903944 0
0.68986 0.107988 0
1 0.152499 0
1 0.152499 0
1 0.152499 0
1 0.152499 0
0 0.314214 0
0 0.3084 0
0 0.301183 0
0.303609 0.272923 0
0.688762 0.237171 0
1 0.209613 0
1 0.152499 0
1 0.152499 0
1 0.152499 0
0 0.577279 0
0 0.5738 0
0 0.569543 0
0 0.55787 0
0.592554 0.511879 0.00129702
1 0.450233 0
1 0.413901 0
1 0.395819 0
1 0.389197 0
0.00593576 0.847639 0.00555428
0.00576791 0.845197 0.00534066
0.00556954 0.842191 0.00508125
0.00505074 0.834028 0.00440986
0.337758 0.812985 0.0622416
0.892454 0.755154 0.0235142
1 0.713832 0
1 0.699596 0
1 0.694377 0
0.0158236 0.973571 0.0187686
0.0158236 0.973571 0.0187686
0.0158236 0.973571 0.0187686
0.0158236 0.973571 0.0187686
0.0158236 0.973571 0.0187686
0.752987 0.951736 0.153506
1 0.912779 0.0426947
1 0.899413 0
1 0.895293 0
0.0158236 0.973571 0.0187686
0.0158236 0.973571 0.0187686
0.0158236 0.973571 0.0187686
0.0158236 0.973571 0.0187686
0.0158236 0.973571 0.0187686
0.678798 0.959457 0.146197
1 0.941634 0.13135
1 0.93756 0.0292363
1 0.93756 0.0292363
0.0158236 0.973571 0.0187686
0.0158236 0.973571 0.0187686
0.0158236 0.973571 0.0187686
0.0158236 0.973571 0.0187686
0.0158236 0.973571 0.0187686
0.649882 0.960861 0.142046
1 0.942367 0.147204
1 0.93756 0.0292363
1 0.93756 0.0292363
0.010071 0.0164034 0.0509346
0.0161135 0.0102083 0.0576944
0.184268 0 0.0424048
0.406058 0.0156863 0
0.733196 0.0747997 0
1 0.13164 0
1 0.137606 0
1 0.140612 0
1 0.141695 0
0.00790417 0.0145876 0.042237
0.00750744 0.0143282 0.0407263
0.142504 0 0.0399023
0.381613 0.0220035 0
0.717693 0.0803845 0
1 0.135332 0
1 0.141283 0
1 0.144106 0
1 0.145083 0
0 0.119463 0.0420996
0 0.107805 0.0410773
0.0856031 0.0919203 0.0499733
0.367819 0.0677806 0
0.697398 0.089662 0
1 0.139605 0
1 0.145434 0
1 0.147997 0
1 0.148882 0
0 0.312139 0.0155184
0 0.306172 0.013138
0 0.298772 0.0104219
0.29781 0.269657 0.0241245
0.690471 0.228016 0
1 0.202991 0
1 0.152499 0
1 0.152499 0
1 0.152499 0
0 0.573892 0
0 0.570397 0
0 0.56611 0
0 0.554376 0
0.588998 0.508339 0.00077821
1 0.446738 0
1 0.410407 0
1 0.392264 0
1 0.385611 0
0.00578317 0.845243 0.00535592
0.00561532 0.842802 0.00514229
0.00541695 0.83978 0.00488289
0.00488289 0.831601 0.00421149
0.332189 0.810666 0.0606851
0.889906 0.752667 0.0227512
1 0.71107 0
1 0.696803 0
1 0.691569 0
0.0158236 0.973571 0.0187686
0.0158236 0.973571 0.0187686
0.0158236 0.973571 0.0187686
0.0158236 0.973571 0.0187686
0.0158236 0.973571 0.0187686
0.750088 0.949722 0.15288
1 0.910704 0.0419318
1 0.8972 0
1 0.89308 0
0.0158236 0.973571 0.0187686
0.0158236 0.973571 0.0187686
0.0158236 0.973571 0.0187686
0.0158236 0.973571 0.0187686
0.0158236 0.973571 0.0187686
0.675746 0.959609 0.145769
1 0.941726 0.133089
1 0.93756 0.0292363
1 0.93756 0.0292363
0.0158236 0.973571 0.0187686
0.0158236 0.973571 0.0187686
0.0158236 0.973571 0.0187686
0.0158236 0.973571 0.0187686
0.0158236 0.973571 0.0187686
0.646708 0.961013 0.141573
1 0.942443 0.148852
1 0.93756 0.0292363
1 0.93756 0.0292363
0.0343633 0.0529183 0.190661
0.0361639 0.0527962 0.190021
0.149142 0.0164492 0.201556
0.419547 0 0.175433
0.776913 0 0
1 0 0
1 0 0
1 0 0
1 0.000488289 0
0.0338903 0.0515145 0.186511
0.033814 0.0512856 0.185824
0.107713 0.0248264 0.195193
0.3944 0 0.17583
0.7626 0 0
1 0 0
1 0.000122072 0
1 0.00361639 0
1 0.00515755 0
0.0124666 0.109255 0.184009
0.0144656 0.100114 0.181918
0.0673686 0.0898299 0.183032
0.363867 0 0.177752
0.744793 0 0
1 0 0
1 0.00575265 0
1 0.0104524 0
1 0.012253 0
0 0.301717 0.18587
0 0.295491 0.185107
0 0.287739 0.184176
0.276967 0.262425 0.19942
0.698466 0.187289 0.0371405
1 0.0944991 0
1 0.0265354 0
1 0.0321508 0
1 0.0341955 0
0 0.573587 0.153887
0 0.570016 0.152819
0 0.565621 0.151522
0 0.553582 0.147967
0.579477 0.506722 0.16997
1 0.429755 0
1 0.379873 0
1 0.358114 0
1 0.351202 0
9.15541e-05 0.8439 0.104463
4.57771e-05 0.841367 0.103182
1.5259e-05 0.83827 0.101625
0 0.829831 0.0973373
0.315892 0.808835 0.132326
0.884077 0.749203 0.0983139
1 0.705684 0
1 0.690806 0
1 0.685359 0
0.0158236 0.973571 0.0187686
0.0158236 0.973571 0.0187686
0.0158236 0.973571 0.0187686
0.0158236 0.973571 0.0187686
0.0158236 0.973571 0.0187686
0.742245 0.944289 0.151171
1 0.905058 0.0398413
1 0.891203 0
1 0.887037 0
0.0158236 0.973571 0.0187686
0.0158236 0.973571 0.0187686
0.0158236 0.973571 0.0187686
0.0158236 0.973571 0.0187686
0.0158236 0.973571 0.0187686
0.667445 0.960006 0.14464
1 0.941924 0.137758
1 0.93756 0.0292363
1 0.93756 0.0292363
0.0158236 0.973571 0.0187686
0.0158236 0.973571 0.0187686
0.0158236 0.973571 0.0187686
0.0158236 0.973571 0.0187686
0.0158236 0.973571 0.0187686
0.638071 0.96144 0.140246
0.997925 0.942641 0.153231
1 0.93756 0.0292363
1 0.93756 0.0292363
0.0632639 0.127123 0.374716
0.0631723 0.126955 0.374319
0.126604 0.112169 0.381384
0.361471 0.0313725 0.404379
0.749096 0 0.356359
1 0 0.178912
1 0 0.168353
1 0 0.163241
1 0 0.161425
0.0626993 0.126101 0.37229
0.0626078 0.125948 0.371893
0.1037 0.124437 0.371206
0.336751 0.0415808 0.399039
0.734203 0 0.357031
1 0 0.172641
1 0 0.162127
1 0 0.157259
1 0 0.155612
0.061738 0.128023 0.369314
0.0619211 0.124697 0.368917
0.061799 0.124483 0.368429
0.305531 0.0533913 0.392599
0.715648 0 0.357809
1 0 0.164935
1 0 0.155047
1 0 0.152209
1 0 0.152682
0.0463417 0.282445 0.382055
0.0465705 0.27686 0.380499
0.0468452 0.269963 0.378576
0.235004 0.252399 0.385367
0.682078 0.120363 0.372503
1 0 0.162295
1 0 0.139376
1 0 0.134249
1 0 0.132357
0.0166781 0.556313 0.384207
0.017319 0.55256 0.383719
0.0181125 0.547921 0.383154
0.0204013 0.535241 0.381582
0.547616 0.496025 0.398947
1 0.426184 0.273274
1 0.375463 0.221149
1 0.352392 0.215228
1 0.343786 0.213107
0 0.840101 0.351934
0 0.837552 0.351324
0 0.834424 0.350576
0 0.82594 0.348562
0.255543 0.807675 0.36611
0.865125 0.746105 0.369116
1 0.70338 0.242756
1 0.688624 0.232822
1 0.683192 0.22916
0 0.98941 0.328511
0 0.98938 0.327977
0 0.989349 0.327337
0 0.989258 0.325612
0 0.989044 0.321416
0.724071 0.945815 0.381262
1 0.905699 0.337789
1 0.891142 0.296498
1 0.886885 0.292882
0 0.988556 0.312139
0 0.988525 0.311589
0 0.988495 0.310933
0 0.988403 0.309117
0 0.988174 0.304768
0.646647 0.975143 0.361944
1 0.955413 0.37322
1 0.950912 0.3149
1 0.950851 0.313832
0 0.988251 0.30605
0 0.98822 0.305501
0 0.98819 0.304829
0 0.988083 0.302998
0 0.987869 0.298573
0.615824 0.976379 0.353201
0.9841 0.955734 0.375784
1 0.950607 0.308431
1 0.950545 0.307149
0.110338 0.206455 0.562585
0.110262 0.206348 0.56231
0.117067 0.206119 0.562066
0.315267 0.145647 0.591043
0.696544 0 0.625589
1 0 0.543542
1 0 0.538918
1 0 0.53666
1 0 0.535821
0.10988 0.205737 0.560876
0.109819 0.205615 0.560601
0.109728 0.205463 0.560265
0.291539 0.147875 0.589151
0.681132 0 0.622248
1 0 0.540795
1 0 0.536141
1 0 0.533867
1 0 0.533028
0.109331 0.204837 0.558785
0.10927 0.20473 0.558495
0.109178 0.204578 0.55816
0.260822 0.150164 0.587304
0.661906 0.000137331 0.618067
1 0 0.540917
1 0 0.532738
1 0 0.530434
1 0 0.52961
0.106752 0.289128 0.560342
0.106828 0.284291 0.559442
0.106935 0.278325 0.558373
0.206699 0.261082 0.560357
0.614603 0.0753796 0.612955
1 0 0.542626
1 0 0.523415
1 0 0.52108
1 0 0.520226
0.0984665 0.531365 0.595544
0.0983291 0.52781 0.594598
0.0981765 0.523461 0.593439
0.0978256 0.511559 0.590249
0.495232 0.478325 0.613474
0.988037 0.376761 0.567758
1 0.291661 0.52311
1 0.259373 0.520485
1 0.246967 0.519493
0.0697642 0.818601 0.587106
0.0703593 0.815946 0.58677
0.0711223 0.81268 0.586358
0.0731975 0.8038 0.585229
0.230365 0.78793 0.592538
0.82919 0.734493 0.601511
1 0.694499 0.532921
1 0.680049 0.52871
1 0.674769 0.527214
0.00976577 0.997559 0.566003
0.00962844 0.997543 0.565652
0.00946059 0.997543 0.565209
0.00955215 0.994293 0.564004
0.0113375 0.976776 0.560967
0.682887 0.939025 0.601251
1 0.897429 0.583886
1 0.882292 0.553597
1 0.878004 0.551522
0.00596628 0.99736 0.555169
0.00585946 0.997345 0.554803
0.00570687 0.997345 0.554376
0.00534066 0.997314 0.553201
0.00448615 0.997253 0.550378
0.598917 0.991424 0.586892
0.975677 0.968383 0.614984
1 0.96408 0.572992
1 0.963363 0.571557
0.0047303 0.997284 0.551202
0.00462348 0.997269 0.550851
0.00450141 0.997253 0.550408
0.00415045 0.997238 0.549233
0.00334173 0.997177 0.54638
0.564904 0.992966 0.580484
0.953979 0.970443 0.607111
1 0.964523 0.574762
1 0.963745 0.567788
0.142458 0.258381 0.68481
0.142397 0.258289 0.684581
0.142321 0.258167 0.684291
0.285695 0.202838 0.717266
0.658 0.109331 0.73994
1 0 0.728862
1 0 0.72433
1 0 0.722637
1 0 0.722026
0.142092 0.257771 0.683375
0.142031 0.257679 0.683146
0.141955 0.257557 0.682857
0.271092 0.219593 0.704433
0.642664 0.115785 0.736675
1 0 0.729091
1 0 0.722271
1 0 0.720577
1 0 0.719966
0.141619 0.257023 0.68162
0.141558 0.256931 0.681376
0.141482 0.256809 0.681102
0.253529 0.237552 0.689464
0.623682 0.123247 0.732647
1 0 0.729351
1 0 0.719753
1 0 0.718059
1 0 0.717433
0.142061 0.297566 0.680903
0.142046 0.29279 0.680369
0.142 0.286809 0.679728
0.18941 0.269337 0.679179
0.570886 0.141054 0.721935
1 0 0.730022
1 0 0.712886
1 0 0.711162
1 0 0.710552
0.136187 0.525963 0.709499
0.136141 0.52256 0.708553
0.136065 0.518395 0.707393
0.135882 0.507012 0.704234
0.468071 0.479271 0.716426
0.941695 0.35758 0.753719
1 0.278676 0.719951
1 0.245121 0.717418
1 0.232166 0.716442
0.175082 0.794949 0.737041
0.175555 0.792203 0.736751
0.17612 0.788846 0.7364
0.177615 0.779706 0.735454
0.236728 0.764569 0.73959
0.795407 0.721782 0.752605
1 0.66804 0.692332
1 0.652125 0.690806
1 0.646281 0.690257
0.106401 0.989364 0.718761
0.106905 0.987137 0.718486
0.107515 0.984405 0.718135
0.109178 0.976989 0.717174
0.113268 0.958938 0.714916
0.646876 0.932082 0.738888
1 0.889143 0.732357
1 0.873823 0.707256
1 0.869535 0.705776
0.0974289 0.998596 0.709804
0.0972305 0.998596 0.709514
0.0969863 0.998611 0.709148
0.0963302 0.998611 0.708186
0.0947433 0.998611 0.705852
0.564294 1 0.727398
0.951949 0.977981 0.744625
1 0.959945 0.725109
1 0.955367 0.719127
0.095201 0.998611 0.706523
0.0950027 0.998611 0.706233
0.0947585 0.998611 0.705867
0.0940871 0.998611 0.704906
0.0925002 0.998611 0.702556
0.532509 1 0.722377
0.93048 0.982193 0.742458
1 0.974502 0.730785
1 0.973266 0.721431
0.143343 0.259815 0.688151
0.143343 0.259815 0.688151
0.143343 0.259815 0.688151
0.275425 0.220005 0.711971
0.645243 0.120195 0.744625
1 0 0.743862
1 0 0.741024
1 0 0.741024
1 0 0.741024
0.143343 0.259815 0.688151
0.143343 0.259815 0.688151
0.143343 0.259815 0.688151
0.261463 0.235813 0.700938
0.62974 0.127138 0.742763
1 0 0.746059
1 0 0.741024
1 0 0.741024
1 0 0.741024
0.143343 0.259815 0.688151
0.143343 0.259815 0.688151
0.143343 0.259815 0.688151
0.244739 0.252918 0.688228
0.610559 0.135103 0.74049
1 0 0.748714
1 0 0.741024
1 0 0.741024
1 0 0.741024
0.145098 0.282933 0.691005
0.14493 0.277974 0.690593
0.144625 0.271061 0.689967
0.170123 0.25977 0.689174
0.557382 0.153887 0.734722
0.992844 0 0.75584
1 0 0.741024
1 0 0.741024
1 0 0.741024
0.142947 0.517708 0.728374
0.142962 0.514366 0.727657
0.142977 0.510262 0.726772
0.143023 0.499092 0.724361
0.454337 0.471504 0.73727
0.928557 0.335241 0.794827
1 0.26009 0.764324
1 0.224765 0.763317
1 0.211002 0.762875
0.14876 0.789761 0.781521
0.148577 0.787243 0.781109
0.148363 0.784161 0.780591
0.147814 0.775769 0.779171
0.197711 0.759655 0.781109
0.779873 0.715068 0.805219
1 0.662623 0.767697
1 0.646494 0.767163
1 0.640711 0.767224
0.153307 0.979904 0.784192
0.153811 0.977646 0.783917
0.154437 0.974884 0.783597
0.15613 0.967361 0.782727
0.160204 0.949096 0.780621
0.64596 0.923476 0.800275
1 0.884871 0.795621
1 0.869886 0.773587
1 0.865644 0.772381
0.142168 0.998245 0.775876
0.141985 0.998245 0.775601
0.141772 0.998245 0.77528
0.141176 0.99826 0.77438
0.139727 0.998276 0.772229
0.562371 1 0.790036
0.939483 0.973419 0.807294
1 0.956069 0.788876
1 0.951278 0.781994
0.140154 0.998276 0.772854
0.139971 0.998276 0.77258
0.139742 0.998276 0.772259
0.139132 0.998276 0.771359
0.137682 0.998306 0.769192
0.531456 1 0.785733
0.918059 0.986481 0.805478
1 0.979049 0.796323
1 0.977676 0.78616
0.143343 0.259815 0.688151
0.143343 0.259815 0.688151
0.143343 0.259815 0.688151
0.271351 0.224765 0.708721
0.640772 0.12224 0.744091
1 0 0.744488
1 0 0.741024
1 0 0.741024
1 0 0.741024
0.143343 0.259815 0.688151
0.143343 0.259815 0.688151
0.143343 0.259815 0.688151
0.257465 0.24007 0.697841
0.625223 0.129076 0.742214
1 0 0.746685
1 0 0.741024
1 0 0.741024
1 0 0.741024
0.143343 0.259815 0.688151
0.143343 0.259815 0.688151
0.143343 0.259815 0.688151
0.23946 0.254688 0.687205
0.605982 0.136904 0.739971
1 0 0.74934
1 0 0.741024
1 0 0.741024
1 0 0.741024
0.144839 0.275578 0.690394
0.144533 0.269505 0.68983
0.14345 0.260426 0.688289
0.161166 0.259998 0.689067
0.552605 0.155352 0.734249
0.989563 0 0.756451
1 0 0.741024
1 0 0.741024
1 0 0.741024
0.142962 0.512856 0.727321
0.142977 0.509499 0.726604
0.142992 0.505379 0.725719
0.143053 0.494133 0.723308
0.448646 0.466331 0.735866
0.924758 0.326696 0.7953
1 0.250248 0.764065
1 0.213825 0.762966
1 0.199573 0.762478
0.148501 0.786114 0.780911
0.148318 0.783581 0.780499
0.148119 0.780484 0.779965
0.147585 0.772061 0.778531
0.187457 0.755291 0.779614
0.775601 0.711223 0.804578
1 0.658396 0.768383
1 0.641886 0.767208
1 0.636057 0.767269
0.15436 0.976623 0.784283
0.155047 0.974365 0.784283
0.155886 0.971572 0.784283
0.15816 0.964034 0.784298
0.163638 0.945663 0.784314
0.643656 0.919951 0.806775
0.99649 0.882353 0.804944
1 0.867552 0.784665
1 0.863355 0.784039
0.147784 0.998169 0.784237
0.147784 0.998169 0.784237
0.147784 0.998169 0.784237
0.147784 0.998169 0.784237
0.147784 0.998169 0.784237
0.561196 1 0.804685
0.935088 0.971466 0.824323
1 0.954391 0.807507
1 0.949554 0.800839
0.147784 0.998169 0.784237
0.147784 0.998169 0.784237
0.147784 0.998169 0.784237
0.147784 0.998169 0.784237
0.147784 0.998169 0.784237
0.531106 1 0.803403
0.913512 0.987976 0.825299
1 0.980636 0.818326
1 0.979248 0.808438
