modules/camera-engine/ios/LUTs/panasonic-golden-rice-field.cube
TITLE "Generated by Resolve"
LUT_3D_SIZE 5
0.0113375 0.00727855 0.00207523
0.145983 0.0104982 0.000991836
0.802014 0.103975 0.0446021
0.917876 0.114763 0.0520485
0.917876 0.114763 0.0520485
0.010605 0.100618 0.00204471
0.0868544 0.0849622 0.00205997
0.795026 0.10396 0.0427405
0.917876 0.114763 0.0520485
0.917876 0.114763 0.0520485
0.0737163 0.611337 0.112795
0.0724498 0.604044 0.111284
0.658381 0.651209 0.114336
0.91577 0.460929 0.0793622
0.916075 0.421653 0.0682994
0.126192 0.849378 0.117784
0.126192 0.849378 0.117784
0.126192 0.849378 0.117784
0.929046 0.914885 0.160601
0.943206 0.909972 0.160678
0.126192 0.849378 0.117784
0.126192 0.849378 0.117784
0.126192 0.849378 0.117784
0.909224 0.923858 0.161532
0.94255 0.923796 0.160616
0.0108034 0.00677501 0.0829786
0.134005 0.00851453 0.0803845
0.798321 0.103136 0.111849
0.919509 0.114702 0.0894942
0.919753 0.114733 0.0801251
0.0107729 0.0873579 0.0691844
0.0764782 0.0724193 0.067216
0.792432 0.103609 0.0924086
0.918151 0.114763 0.071107
0.917876 0.114763 0.0621805
0.0726482 0.605386 0.111528
0.0716259 0.598642 0.110277
0.652415 0.644785 0.112734
0.915801 0.44976 0.0751965
0.915816 0.412299 0.0660868
0.126192 0.849378 0.117784
0.126192 0.849378 0.117784
0.126192 0.849378 0.117784
0.927947 0.913619 0.160616
0.943297 0.908675 0.160693
0.126192 0.849378 0.117784
0.126192 0.849378 0.117784
0.126192 0.849378 0.117784
0.907897 0.923873 0.161547
0.94255 0.923796 0.160616
0.0637369 0.156298 0.676585
0.141268 0.1561 0.675715
0.811093 0.148455 0.571694
0.944945 0.146715 0.499321
0.944396 0.144533 0.488106
0.065156 0.159335 0.670802
0.0652323 0.155383 0.669902
0.794034 0.147921 0.571939
0.943847 0.142535 0.477821
0.943297 0.140581 0.467781
0.184909 0.665461 0.670222
0.184268 0.660014 0.671336
0.636072 0.640375 0.650584
0.932769 0.418784 0.455207
0.933104 0.386557 0.449027
0.145892 0.851911 0.356359
0.146014 0.851911 0.355184
0.14699 0.852293 0.348669
0.924926 0.903014 0.374166
0.945876 0.89514 0.369726
0.147631 0.852186 0.332387
0.147326 0.852125 0.331075
0.146639 0.852079 0.324361
0.896483 0.915602 0.357046
0.948272 0.916304 0.354452
0.173968 0.313252 0.92105
0.17377 0.313024 0.920729
0.771954 0.31693 0.922591
0.957397 0.32987 0.926345
0.957382 0.32987 0.925505
0.172702 0.311803 0.919112
0.172488 0.311559 0.918791
0.740276 0.312596 0.918471
0.957382 0.329854 0.924681
0.957366 0.329854 0.923827
0.221485 0.628153 0.932403
0.21529 0.616846 0.929412
0.512261 0.579568 0.912749
0.943221 0.494453 0.906401
0.943069 0.469459 0.904906
0.344045 0.935332 0.932357
0.343725 0.933455 0.931975
0.341573 0.923796 0.930297
0.920699 0.916869 0.927062
0.95375 0.909621 0.925826
0.339498 0.938293 0.925963
0.339254 0.938277 0.925628
0.338018 0.938155 0.923873
0.892653 0.953674 0.922301
0.953536 0.953231 0.920256
0.174487 0.313848 0.922896
0.174487 0.313848 0.922896
0.757931 0.315007 0.925155
0.957458 0.329931 0.932464
0.957458 0.329931 0.932464
0.174487 0.313848 0.922896
0.174487 0.313848 0.922896
0.721325 0.310933 0.922148
0.957458 0.329931 0.932464
0.957458 0.329931 0.932464
0.21529 0.605707 0.939132
0.212634 0.597284 0.937316
0.477974 0.558709 0.925246
0.944549 0.478218 0.924407
0.945312 0.453849 0.923186
0.351354 0.931548 0.962966
0.351324 0.929686 0.962936
0.347967 0.919356 0.962798
0.916594 0.911238 0.963012
0.953719 0.903655 0.961593
0.351476 0.939498 0.963088
0.351476 0.939498 0.963088
0.351476 0.939498 0.963088
0.887037 0.953765 0.963714
0.953429 0.953384 0.962036
