Camera18_LUT_V0/luts/absolute-hero.cube
TITLE "Camera18 V0 - Absolute Hero (PixCake 140501 direction, original approximation)"
LUT_3D_SIZE 33
DOMAIN_MIN 0.0 0.0 0.0
DOMAIN_MAX 1.0 1.0 1.0
# Original Camera 18 V0 approximation; input expected normalized display-referred RGB.
# Vivid glossy portrait direction: clean bright mids, cobalt-blue boost, luminous warm skin,
# cool clean shadows, warm highlight glow. Character layer only — tone/texture stay in JSON.
0.000000 0.000000 0.052222
0.000000 0.000000 0.047425
0.037441 0.000000 0.043750
0.064455 0.000000 0.042288
0.091162 0.000000 0.035799
0.122238 0.000000 0.032155
0.154263 0.000000 0.030127
0.186959 0.000000 0.028772
0.220176 0.000000 0.027725
0.253744 0.000000 0.026801
0.287636 0.000000 0.025958
0.321827 0.000000 0.025174
0.356279 0.000000 0.024437
0.390944 0.000000 0.023735
0.425767 0.000000 0.023062
0.460686 0.000000 0.022413
0.495638 0.000000 0.021785
0.530557 0.000000 0.021175
0.565374 0.000000 0.020581
0.600020 0.000000 0.020004
0.634425 0.000000 0.019441
0.668517 0.000000 0.018893
0.702226 0.000000 0.018360
0.735478 0.000000 0.017841
0.768202 0.000000 0.017337
0.800324 0.000000 0.016849
0.831773 0.000000 0.016376
0.862475 0.000000 0.015919
0.892356 0.000000 0.015478
0.921344 0.000000 0.015055
0.949365 0.000000 0.014648
0.976346 0.000000 0.014260
1.000000 0.000000 0.013891
0.000000 0.017075 0.040789
0.000000 0.017274 0.039960
0.031524 0.017460 0.035659
0.060586 0.017227 0.033556
0.092265 0.016073 0.030490
0.124581 0.015188 0.028860
0.156957 0.014734 0.027610
0.189564 0.014493 0.026574
0.222516 0.014364 0.025674
0.255847 0.014302 0.024862
0.289549 0.014281 0.024112
0.323589 0.014289 0.023405
0.357921 0.014317 0.022731
0.392488 0.014360 0.022083
0.427230 0.014413 0.021455
0.462083 0.014474 0.020846
0.496980 0.014542 0.020252
0.531852 0.014614 0.019672
0.566629 0.014689 0.019105
0.601241 0.014767 0.018552
0.635616 0.014847 0.018011
0.669683 0.014928 0.017483
0.703369 0.015009 0.016968
0.736602 0.015091 0.016466
0.769308 0.015172 0.015978
0.801415 0.015253 0.015504
0.832850 0.015333 0.015044
0.863540 0.015411 0.014600
0.893425 0.015482 0.014164
0.922420 0.015550 0.013744
0.950447 0.015617 0.013342
0.977433 0.015682 0.012957
1.000000 0.015658 0.012492
0.000000 0.045811 0.033100
0.003790 0.045892 0.032687
0.030751 0.045976 0.032259
0.063304 0.046905 0.029614
0.097661 0.044919 0.026773
0.129681 0.043658 0.025383
0.161547 0.042931 0.024399
0.193720 0.042482 0.023589
0.226324 0.042192 0.022871
0.259377 0.042002 0.022207
0.292854 0.041879 0.021577
0.326709 0.041803 0.020971
0.360887 0.041760 0.020381
0.395325 0.041743 0.019806
0.429958 0.041744 0.019241
0.464716 0.041761 0.018687
0.499531 0.041790 0.018141
0.534332 0.041828 0.017605
0.569046 0.041874 0.017078
0.603602 0.041925 0.016560
0.637928 0.041981 0.016052
0.671950 0.042041 0.015553
0.705596 0.042103 0.015066
0.738792 0.042168 0.014589
0.771466 0.042234 0.014124
0.803544 0.042300 0.013671
0.834952 0.042367 0.013232
0.865617 0.042434 0.012806
0.895466 0.042500 0.012394
0.924424 0.042565 0.011997
0.952418 0.042629 0.011616
0.979374 0.042691 0.011252
1.000000 0.042670 0.010803
0.000000 0.073802 0.031607
0.004792 0.073881 0.031202
0.031749 0.073964 0.030782
0.059741 0.074049 0.030349
0.092479 0.075714 0.028011
0.128323 0.075718 0.024739
0.162480 0.074366 0.022731
0.195703 0.073188 0.021488
0.228803 0.072324 0.020586
0.262082 0.071705 0.019854
0.295647 0.071261 0.019214
0.329516 0.070943 0.018626
0.363667 0.070714 0.018071
0.398057 0.070551 0.017536
0.432630 0.070437 0.017016
0.467325 0.070362 0.016506
0.502075 0.070315 0.016004
0.536811 0.070291 0.015510
0.571464 0.070285 0.015023
0.605962 0.070293 0.014543
0.640232 0.070312 0.014071
0.674203 0.070340 0.013607
0.707800 0.070376 0.013151
0.740952 0.070417 0.012704
0.773584 0.070463 0.012267
0.805622 0.070512 0.011841
0.836995 0.070563 0.011426
0.867626 0.070616 0.011023
0.897444 0.070670 0.010633
0.926374 0.070724 0.010257
0.954342 0.070779 0.009895
0.981274 0.070832 0.009548
1.000000 0.070809 0.009113
0.000000 0.102750 0.030093
0.005816 0.102828 0.029696
0.032769 0.102909 0.029285
0.060758 0.102994 0.028860
0.089708 0.103081 0.028422
0.123197 0.104692 0.026148
0.158486 0.105733 0.023443
0.193852 0.105088 0.021162
0.228406 0.104077 0.019595
0.262577 0.103129 0.018475
0.296701 0.102348 0.017604
0.330929 0.101730 0.016877
0.365312 0.101247 0.016239
0.399852 0.100873 0.015657
0.434520 0.100584 0.015113
0.469274 0.100362 0.014593
0.504058 0.100192 0.014093
0.538811 0.100065 0.013606
0.573469 0.099972 0.013131
0.607963 0.099906 0.012666
0.642224 0.099862 0.012210
0.676182 0.099835 0.011763
0.709765 0.099823 0.011325
0.742899 0.099823 0.010897
0.775514 0.099833 0.010478
0.807535 0.099850 0.010069
0.838890 0.099874 0.009671
0.869504 0.099902 0.009285
0.899305 0.099935 0.008911
0.928219 0.099970 0.008550
0.956171 0.100007 0.008202
0.983089 0.100046 0.007869
1.000000 0.100016 0.007447
0.000000 0.132581 0.028563
0.006858 0.132659 0.028175
0.033809 0.132739 0.027771
0.061794 0.132822 0.027355
0.090741 0.132908 0.026926
0.120692 0.133045 0.026428
0.154764 0.134562 0.024268
0.189844 0.135917 0.021984
0.225554 0.135862 0.019813
0.261013 0.135214 0.018074
0.296093 0.134412 0.016763
0.330982 0.133642 0.015745
0.365831 0.132970 0.014910
0.400703 0.132405 0.014193
0.435612 0.131940 0.013556
0.470541 0.131560 0.012974
0.505453 0.131253 0.012431
0.540300 0.131004 0.011917
0.575027 0.130806 0.011425
0.609572 0.130648 0.010951
0.643869 0.130523 0.010492
0.677853 0.130427 0.010045
0.711453 0.130354 0.009611
0.744599 0.130300 0.009188
0.777221 0.130262 0.008777
0.809245 0.130237 0.008377
0.840601 0.130224 0.007988
0.871214 0.130219 0.007612
0.901013 0.130222 0.007247
0.929923 0.130231 0.006896
0.957871 0.130245 0.006558
0.984784 0.130263 0.006234
1.000000 0.130222 0.005822
0.000000 0.163223 0.027024
0.007918 0.163299 0.026643
0.034866 0.163379 0.026247
0.062849 0.163461 0.025839
0.091793 0.163546 0.025419
0.121625 0.163633 0.024989
0.152625 0.163870 0.024371
0.187107 0.165252 0.022374
0.222292 0.166623 0.020354
0.258055 0.166995 0.018407
0.293997 0.166678 0.016664
0.329740 0.166099 0.015238
0.365257 0.165443 0.014096
0.400627 0.164805 0.013159
0.435910 0.164230 0.012363
0.471122 0.163729 0.011664
0.506253 0.163301 0.011036
0.541269 0.162939 0.010459
0.576127 0.162635 0.009921
0.610774 0.162382 0.009413
0.645153 0.162173 0.008930
0.679200 0.162000 0.008467
0.712850 0.161858 0.008022
0.746036 0.161743 0.007592
0.778689 0.161651 0.007177
0.810739 0.161577 0.006776
0.842114 0.161520 0.006389
0.872743 0.161477 0.006014
0.902553 0.161445 0.005654
0.931472 0.161422 0.005306
0.959427 0.161408 0.004973
0.986346 0.161401 0.004655
1.000000 0.161346 0.004250
0.000000 0.194601 0.025479
0.008993 0.194676 0.025106
0.035939 0.194755 0.024718
0.063920 0.194836 0.024318
0.092862 0.194920 0.023906
0.122691 0.195006 0.023484
0.153333 0.195094 0.023053
0.185303 0.195429 0.022321
0.220144 0.196685 0.020478
0.255596 0.197951 0.018620
0.291347 0.198616 0.016904
0.327534 0.198574 0.015239
0.363683 0.198207 0.013787
0.399657 0.197702 0.012565
0.435432 0.197154 0.011544
0.471028 0.196618 0.010676
0.506460 0.196125 0.009919
0.541714 0.195684 0.009243
0.576763 0.195298 0.008630
0.611564 0.194963 0.008064
0.646066 0.194675 0.007536
0.680214 0.194429 0.007039
0.713947 0.194220 0.006568
0.747201 0.194043 0.006119
0.779910 0.193894 0.005689
0.812005 0.193770 0.005277
0.843419 0.193666 0.004882
0.874079 0.193580 0.004503
0.903916 0.193510 0.004139
0.932857 0.193454 0.003791
0.960831 0.193408 0.003457
0.987764 0.193373 0.003140
1.000000 0.193302 0.002738
0.000000 0.226640 0.023933
0.010083 0.226715 0.023567
0.037026 0.226793 0.023188
0.065005 0.226873 0.022796
0.093945 0.226956 0.022392
0.123772 0.227041 0.021979
0.154413 0.227129 0.021556
0.185793 0.227218 0.021126
0.218629 0.227639 0.020294
0.253794 0.228785 0.018588
0.289503 0.229943 0.016864
0.325318 0.230758 0.015320
0.361614 0.230937 0.013768
0.397986 0.230757 0.012344
0.434235 0.230399 0.011094
0.470280 0.229961 0.010017
0.506087 0.229498 0.009089
0.541644 0.229044 0.008280
0.576939 0.228619 0.007562
0.611940 0.228233 0.006914
0.646608 0.227888 0.006321
0.680893 0.227584 0.005772
0.714739 0.227317 0.005259
0.748087 0.227084 0.004777
0.780876 0.226883 0.004321
0.813038 0.226709 0.003889
0.844508 0.226560 0.003478
0.875216 0.226433 0.003086
0.905094 0.226324 0.002712
0.934070 0.226232 0.002357
0.962073 0.226155 0.002018
0.989032 0.226090 0.001696
1.000000 0.226001 0.001295
0.000000 0.259268 0.022391
0.011185 0.259342 0.022033
0.038126 0.259419 0.021661
0.066103 0.259499 0.021277
0.095042 0.259581 0.020881
0.124867 0.259666 0.020476
0.155507 0.259753 0.020062
0.186885 0.259841 0.019641
0.218929 0.259931 0.019212
0.252528 0.260424 0.018297
0.287982 0.261476 0.016709
0.323907 0.262540 0.015104
0.359844 0.263406 0.013679
0.396161 0.263760 0.012250
0.432626 0.263741 0.010883
0.469001 0.263518 0.009643
0.505172 0.263190 0.008543
0.541075 0.262812 0.007575
0.576664 0.262417 0.006724
0.611910 0.262029 0.005969
0.646781 0.261663 0.005290
0.681236 0.261326 0.004671
0.715225 0.261020 0.004102
0.748694 0.260746 0.003574
0.781584 0.260502 0.003081
0.813834 0.260287 0.002618
0.845378 0.260098 0.002182
0.876150 0.259932 0.001770
0.906083 0.259787 0.001380
0.935106 0.259662 0.001011
0.963151 0.259553 0.000661
0.990145 0.259460 0.000331
1.000000 0.259353 0.000000
0.000000 0.292411 0.020856
0.012297 0.292484 0.020505
0.039238 0.292561 0.020141
0.067213 0.292640 0.019765
0.096150 0.292721 0.019377
0.125975 0.292805 0.018980
0.156613 0.292891 0.018574
0.187990 0.292979 0.018161
0.220034 0.293069 0.017741
0.252693 0.293170 0.017304
0.286929 0.293714 0.016333
0.322630 0.294685 0.014848
0.358729 0.295668 0.013347
0.394810 0.296520 0.012001
0.431084 0.297012 0.010695
0.467539 0.297129 0.009401
0.503922 0.297028 0.008193
0.540094 0.296802 0.007096
0.575969 0.296508 0.006112
0.611486 0.296182 0.005234
0.646594 0.295845 0.004449
0.681250 0.295513 0.003743
0.715409 0.295197 0.003103
0.749023 0.294903 0.002516
0.782037 0.294634 0.001974
0.814392 0.294390 0.001470
0.846028 0.294170 0.001001
0.876879 0.293974 0.000561
0.906880 0.293799 0.000147
0.935963 0.293644 0.000000
0.964060 0.293508 0.000000
0.991100 0.293388 0.000000
1.000000 0.293265 0.000000
0.000000 0.325995 0.019333
0.013420 0.326068 0.018989
0.040359 0.326143 0.018632
0.068334 0.326222 0.018263
0.097270 0.326303 0.017883
0.127094 0.326386 0.017494
0.157731 0.326471 0.017096
0.189108 0.326559 0.016691
0.221150 0.326648 0.016280
0.253784 0.326738 0.015863
0.287032 0.326870 0.015395
0.321764 0.327437 0.014402
0.357665 0.328337 0.013008
0.393888 0.329249 0.011600
0.430089 0.330060 0.010313
0.466286 0.330646 0.009115
0.502648 0.330879 0.007901
0.538937 0.330885 0.006741
0.575001 0.330753 0.005664
0.610737 0.330540 0.004683
0.646073 0.330281 0.003793
0.680945 0.330001 0.002990
0.715299 0.329713 0.002264
0.749080 0.329429 0.001605
0.782238 0.329157 0.001003
0.814717 0.328902 0.000450
0.846460 0.328667 0.000000
0.877405 0.328451 0.000000
0.907488 0.328255 0.000000
0.936642 0.328079 0.000000
0.964800 0.327920 0.000000
0.991895 0.327779 0.000000
1.000000 0.327643 0.000000
0.000000 0.359946 0.017823
0.014551 0.360018 0.017486
0.041489 0.360093 0.017137
0.069463 0.360171 0.016775
0.098399 0.360251 0.016403
0.128222 0.360334 0.016022
0.158859 0.360419 0.015632
0.190235 0.360506 0.015235
0.222278 0.360595 0.014831
0.254911 0.360685 0.014423
0.288063 0.360776 0.014010
0.321846 0.360947 0.013501
0.356963 0.361520 0.012507
0.393012 0.362359 0.011194
0.429307 0.363208 0.009869
0.465558 0.363978 0.008640
0.501675 0.364609 0.007521
0.537869 0.364936 0.006390
0.573976 0.365036 0.005285
0.609834 0.364990 0.004242
0.645330 0.364853 0.003276
0.680382 0.364660 0.002390
0.714918 0.364435 0.001581
0.748876 0.364195 0.000844
0.782194 0.363950 0.000172
0.814814 0.363709 0.000000
0.846680 0.363476 0.000000
0.877731 0.363256 0.000000
0.907907 0.363052 0.000000
0.937144 0.362863 0.000000
0.965374 0.362691 0.000000
0.992533 0.362535 0.000000
1.000000 0.362391 0.000000
0.000000 0.394190 0.016332
0.015689 0.394262 0.016001
0.042627 0.394337 0.015659
0.070601 0.394414 0.015304
0.099536 0.394494 0.014940
0.129359 0.394577 0.014566
0.159996 0.394661 0.014183
0.191372 0.394748 0.013794
0.223415 0.394836 0.013399
0.256049 0.394926 0.012998
0.289201 0.395017 0.012593
0.322797 0.395109 0.012185
0.357050 0.395321 0.011632
0.392455 0.395892 0.010649
0.428596 0.396676 0.009409
0.464908 0.397471 0.008158
0.501139 0.398201 0.006986
0.537159 0.398837 0.005923
0.573118 0.399244 0.004873
0.608961 0.399425 0.003829
0.644524 0.399456 0.002827
0.679687 0.399389 0.001888
0.714359 0.399258 0.001016
0.748463 0.399088 0.000212
0.781930 0.398895 0.000000
0.814695 0.398691 0.000000
0.846693 0.398485 0.000000
0.877864 0.398280 0.000000
0.908145 0.398083 0.000000
0.937473 0.397896 0.000000
0.965785 0.397720 0.000000
0.993015 0.397558 0.000000
1.000000 0.397413 0.000000
0.000000 0.428655 0.014860
0.016833 0.428726 0.014537
0.043772 0.428800 0.014200
0.071745 0.428878 0.013853
0.100681 0.428957 0.013496
0.130504 0.429039 0.013129
0.161141 0.429124 0.012754
0.192518 0.429210 0.012372
0.224561 0.429298 0.011984
0.257196 0.429387 0.011591
0.290348 0.429478 0.011194
0.323945 0.429570 0.010793
0.357913 0.429663 0.010391
0.392563 0.429918 0.009794
0.428170 0.430480 0.008828
0.464344 0.431216 0.007655
0.500613 0.431961 0.006472
0.536757 0.432654 0.005355
0.572645 0.433271 0.004331
0.608309 0.433740 0.003358
0.643813 0.433991 0.002376
0.678998 0.434090 0.001422
0.713740 0.434087 0.000516
0.747942 0.434014 0.000000
0.781523 0.433896 0.000000
0.814407 0.433750 0.000000
0.846527 0.433587 0.000000
0.877815 0.433416 0.000000
0.908207 0.433243 0.000000
0.937636 0.433073 0.000000
0.966038 0.432907 0.000000
0.993348 0.432750 0.000000
1.000000 0.432619 0.000000
0.000000 0.463266 0.013411
0.017983 0.463337 0.013094
0.044922 0.463411 0.012765
0.072896 0.463488 0.012424
0.101832 0.463567 0.012073
0.131655 0.463649 0.011713
0.162293 0.463733 0.011346
0.193671 0.463819 0.010971
0.225714 0.463907 0.010590
0.258350 0.463996 0.010205
0.291504 0.464087 0.009815
0.325102 0.464179 0.009422
0.359071 0.464272 0.009027
0.393344 0.464369 0.008626
0.428308 0.464662 0.007990
0.464036 0.465212 0.007048
0.500182 0.465905 0.005934
0.536347 0.466606 0.004814
0.572335 0.467263 0.003749
0.608022 0.467856 0.002764
0.643359 0.468358 0.001850
0.678452 0.468668 0.000931
0.713180 0.468828 0.000027
0.747417 0.468883 0.000000
0.781064 0.468864 0.000000
0.814032 0.468796 0.000000
0.846246 0.468694 0.000000
0.877633 0.468571 0.000000
0.908123 0.468436 0.000000
0.937648 0.468295 0.000000
0.966142 0.468152 0.000000
0.993536 0.468012 0.000000
1.000000 0.467903 0.000000
0.000000 0.497949 0.011988
0.019137 0.498020 0.011676
0.046076 0.498094 0.011353
0.074051 0.498171 0.011019
0.102987 0.498250 0.010675
0.132812 0.498332 0.010322
0.163451 0.498415 0.009961
0.194829 0.498501 0.009593
0.226874 0.498589 0.009219
0.259511 0.498678 0.008841
0.292667 0.498769 0.008458
0.326266 0.498861 0.008072
0.360236 0.498954 0.007684
0.394503 0.499048 0.007294
0.429033 0.499159 0.006884
0.464211 0.499479 0.006225
0.499982 0.500015 0.005307
0.536036 0.500669 0.004250
0.572033 0.501329 0.003187
0.607797 0.501954 0.002172
0.643210 0.502523 0.001225
0.678186 0.503030 0.000354
0.712798 0.503391 0.000000
0.746993 0.503604 0.000000
0.780645 0.503711 0.000000
0.813652 0.503742 0.000000
0.845925 0.503720 0.000000
0.877383 0.503660 0.000000
0.907950 0.503576 0.000000
0.937555 0.503476 0.000000
0.966128 0.503366 0.000000
0.993600 0.503252 0.000000
1.000000 0.503167 0.000000
0.000000 0.532632 0.010591
0.020294 0.532703 0.010285
0.047233 0.532777 0.009968
0.075209 0.532853 0.009640
0.104147 0.532932 0.009302
0.133973 0.533014 0.008956
0.164613 0.533098 0.008602
0.195993 0.533184 0.008240
0.228039 0.533271 0.007873
0.260678 0.533361 0.007501
0.293835 0.533451 0.007125
0.327437 0.533543 0.006746
0.361409 0.533636 0.006365
0.395678 0.533730 0.005982
0.430169 0.533825 0.005599
0.464899 0.533957 0.005171
0.500196 0.534295 0.004498
0.535933 0.534816 0.003607
0.571832 0.535434 0.002602
0.607596 0.536058 0.001593
0.643068 0.536652 0.000625
0.678134 0.537198 0.000000
0.712704 0.537691 0.000000
0.746769 0.538092 0.000000
0.780358 0.538351 0.000000
0.813348 0.538504 0.000000
0.845636 0.538581 0.000000
0.877130 0.538601 0.000000
0.907748 0.538581 0.000000
0.937411 0.538534 0.000000
0.966047 0.538467 0.000000
0.993580 0.538385 0.000000
1.000000 0.538327 0.000000
0.000000 0.567241 0.009223
0.021452 0.567311 0.008923
0.048393 0.567385 0.008612
0.076370 0.567461 0.008289
0.105309 0.567541 0.007958
0.135136 0.567622 0.007617
0.165778 0.567706 0.007269
0.197160 0.567792 0.006914
0.229208 0.567880 0.006554
0.261849 0.567969 0.006188
0.295008 0.568060 0.005819
0.328612 0.568152 0.005446
0.362587 0.568245 0.005071
0.396858 0.568339 0.004695
0.431352 0.568434 0.004318
0.465995 0.568530 0.003941
0.500863 0.568688 0.003490
0.536189 0.569037 0.002812
0.571819 0.569542 0.001949
0.607495 0.570128 0.000992
0.642961 0.570718 0.000034
0.678071 0.571282 0.000000
0.712717 0.571805 0.000000
0.746809 0.572282 0.000000
0.780287 0.572701 0.000000
0.813197 0.573000 0.000000
0.845449 0.573194 0.000000
0.876936 0.573309 0.000000
0.907568 0.573365 0.000000
0.937261 0.573379 0.000000
0.965936 0.573363 0.000000
0.993516 0.573325 0.000000
1.000000 0.573303 0.000000
0.000000 0.601701 0.007885
0.022611 0.601772 0.007591
0.049553 0.601845 0.007285
0.077532 0.601922 0.006968
0.106473 0.602001 0.006642
0.136302 0.602083 0.006308
0.166945 0.602167 0.005966
0.198329 0.602253 0.005617
0.230380 0.602341 0.005262
0.263023 0.602430 0.004903
0.296184 0.602522 0.004539
0.329791 0.602614 0.004173
0.363768 0.602707 0.003804
0.398042 0.602802 0.003434
0.432539 0.602897 0.003063
0.467185 0.602993 0.002692
0.501907 0.603089 0.002322
0.536845 0.603275 0.001846
0.572117 0.603631 0.001168
0.607564 0.604120 0.000333
0.642951 0.604676 0.000000
0.678052 0.605235 0.000000
0.712731 0.605772 0.000000
0.746883 0.606271 0.000000
0.780418 0.606729 0.000000
0.813263 0.607143 0.000000
0.845419 0.607473 0.000000
0.876856 0.607701 0.000000
0.907469 0.607850 0.000000
0.937165 0.607942 0.000000
0.965856 0.607990 0.000000
0.993464 0.608005 0.000000
1.000000 0.608023 0.000000
0.000000 0.635940 0.006580
0.023769 0.636011 0.006290
0.050713 0.636084 0.005989
0.078693 0.636161 0.005678
0.107636 0.636241 0.005358
0.137467 0.636322 0.005029
0.168113 0.636407 0.004692
0.199499 0.636493 0.004349
0.231552 0.636581 0.004000
0.264198 0.636671 0.003647
0.297362 0.636762 0.003289
0.330972 0.636855 0.002928
0.364952 0.636949 0.002565
0.399229 0.637044 0.002200
0.433730 0.637139 0.001835
0.468379 0.637235 0.001470
0.503104 0.637332 0.001105
0.537837 0.637432 0.000739
0.572769 0.637645 0.000239
0.607905 0.638003 0.000000
0.643095 0.638476 0.000000
0.678121 0.639003 0.000000
0.712785 0.639532 0.000000
0.746960 0.640041 0.000000
0.780545 0.640518 0.000000
0.813452 0.640957 0.000000
0.845606 0.641358 0.000000
0.876955 0.641709 0.000000
0.907508 0.641966 0.000000
0.937172 0.642147 0.000000
0.965853 0.642270 0.000000
0.993466 0.642348 0.000000
1.000000 0.642406 0.000000
0.000000 0.669883 0.005307
0.024924 0.669954 0.005022
0.051870 0.670028 0.004726
0.079853 0.670105 0.004420
0.108798 0.670185 0.004105
0.138631 0.670267 0.003781
0.169279 0.670351 0.003450
0.200668 0.670438 0.003112
0.232724 0.670526 0.002769
0.265373 0.670617 0.002421
0.298540 0.670708 0.002068
0.332153 0.670802 0.001713
0.366137 0.670896 0.001355
0.400417 0.670991 0.000996
0.434921 0.671087 0.000636
0.469574 0.671184 0.000276
0.504303 0.671281 0.000000
0.539032 0.671378 0.000000
0.573721 0.671489 0.000000
0.608557 0.671721 0.000000
0.643473 0.672079 0.000000
0.678331 0.672535 0.000000
0.712931 0.673036 0.000000
0.747091 0.673537 0.000000
0.780694 0.674021 0.000000
0.813641 0.674476 0.000000
0.845847 0.674898 0.000000
0.877235 0.675284 0.000000
0.907731 0.675636 0.000000
0.937326 0.675919 0.000000
0.965967 0.676127 0.000000
0.993558 0.676278 0.000000
1.000000 0.676376 0.000000
0.000238 0.703458 0.004068
0.026076 0.703529 0.003788
0.053024 0.703604 0.003497
0.081009 0.703681 0.003196
0.109956 0.703761 0.002885
0.139792 0.703843 0.002566
0.170443 0.703928 0.002240
0.201835 0.704015 0.001908
0.233894 0.704104 0.001569
0.266546 0.704194 0.001226
0.299717 0.704287 0.000879
0.333333 0.704380 0.000529
0.367320 0.704475 0.000176
0.401604 0.704571 0.000000
0.436112 0.704667 0.000000
0.470769 0.704765 0.000000
0.505502 0.704862 0.000000
0.540235 0.704960 0.000000
0.574897 0.705058 0.000000
0.609479 0.705184 0.000000
0.644133 0.705432 0.000000
0.678752 0.705787 0.000000
0.713207 0.706227 0.000000
0.747309 0.706703 0.000000
0.780897 0.707179 0.000000
0.813857 0.707638 0.000000
0.846095 0.708072 0.000000
0.877526 0.708475 0.000000
0.908072 0.708847 0.000000
0.937660 0.709187 0.000000
0.966233 0.709488 0.000000
0.993776 0.709719 0.000000
1.000000 0.709856 0.000000
0.001381 0.736590 0.002865
0.027221 0.736662 0.002589
0.054172 0.736736 0.002302
0.082159 0.736814 0.002006
0.111109 0.736894 0.001700
0.140948 0.736977 0.001385
0.171602 0.737062 0.001064
0.202997 0.737149 0.000736
0.235059 0.737239 0.000403
0.267715 0.737330 0.000064
0.300889 0.737423 0.000000
0.334509 0.737517 0.000000
0.368500 0.737612 0.000000
0.402789 0.737709 0.000000
0.437301 0.737806 0.000000
0.471962 0.737904 0.000000
0.506699 0.738002 0.000000
0.541437 0.738101 0.000000
0.576102 0.738200 0.000000
0.610621 0.738298 0.000000
0.645033 0.738444 0.000000
0.679422 0.738702 0.000000
0.713668 0.739053 0.000000
0.747647 0.739477 0.000000
0.781182 0.739930 0.000000
0.814127 0.740381 0.000000
0.846373 0.740818 0.000000
0.877829 0.741231 0.000000
0.908411 0.741617 0.000000
0.938041 0.741973 0.000000
0.966645 0.742300 0.000000
0.994151 0.742599 0.000000
1.000000 0.742773 0.000000
0.002516 0.769206 0.001698
0.028359 0.769278 0.001426
0.055312 0.769353 0.001143
0.083302 0.769431 0.000851
0.112255 0.769511 0.000549
0.142097 0.769595 0.000239
0.172754 0.769680 0.000000
0.204153 0.769768 0.000000
0.236218 0.769858 0.000000
0.268877 0.769950 0.000000
0.302056 0.770043 0.000000
0.335680 0.770138 0.000000
0.369675 0.770234 0.000000
0.403968 0.770331 0.000000
0.438484 0.770429 0.000000
0.473150 0.770528 0.000000
0.507891 0.770627 0.000000
0.542634 0.770727 0.000000
0.577304 0.770826 0.000000
0.611828 0.770925 0.000000
0.646133 0.771025 0.000000
0.680306 0.771192 0.000000
0.714349 0.771458 0.000000
0.748145 0.771804 0.000000
0.781574 0.772212 0.000000
0.814473 0.772643 0.000000
0.846704 0.773072 0.000000
0.878165 0.773486 0.000000
0.908767 0.773879 0.000000
0.938426 0.774247 0.000000
0.967065 0.774587 0.000000
0.994609 0.774901 0.000000
1.000000 0.775079 0.000000
0.003642 0.801232 0.000569
0.029486 0.801304 0.000300
0.056442 0.801380 0.000021
0.084435 0.801458 0.000000
0.113392 0.801539 0.000000
0.143237 0.801623 0.000000
0.173897 0.801709 0.000000
0.205299 0.801797 0.000000
0.237369 0.801888 0.000000
0.270032 0.801980 0.000000
0.303214 0.802074 0.000000
0.336842 0.802170 0.000000
0.370842 0.802267 0.000000
0.405139 0.802365 0.000000
0.439660 0.802463 0.000000
0.474330 0.802563 0.000000
0.509076 0.802663 0.000000
0.543824 0.802763 0.000000
0.578499 0.802864 0.000000
0.613028 0.802964 0.000000
0.647337 0.803064 0.000000
0.681366 0.803170 0.000000
0.715219 0.803355 0.000000
0.748837 0.803626 0.000000
0.782107 0.803966 0.000000
0.814915 0.804358 0.000000
0.847104 0.804769 0.000000
0.878551 0.805175 0.000000
0.909155 0.805568 0.000000
0.938830 0.805941 0.000000
0.967493 0.806291 0.000000
0.995066 0.806616 0.000000
1.000000 0.806789 0.000000
0.004754 0.832594 0.000000
0.030602 0.832667 0.000000
0.057561 0.832743 0.000000
0.085557 0.832821 0.000000
0.114516 0.832903 0.000000
0.144365 0.832987 0.000000
0.175029 0.833074 0.000000
0.206435 0.833163 0.000000
0.238508 0.833254 0.000000
0.271175 0.833347 0.000000
0.304362 0.833442 0.000000
0.337994 0.833539 0.000000
0.371998 0.833636 0.000000
0.406300 0.833735 0.000000
0.440826 0.833835 0.000000
