Camera18_LUT_V0/luts/absolute-hero.cube
TITLE "Camera18 V0 - Absolute Hero (PixCake 140501 direction, original approximation)"
LUT_3D_SIZE 5
DOMAIN_MIN 0.0 0.0 0.0
DOMAIN_MAX 1.0 1.0 1.0
# Original Camera 18 V0 approximation; input expected normalized display-referred RGB.
# Vivid glossy portrait direction: clean bright mids, cobalt-blue boost, luminous warm skin,
# cool clean shadows, warm highlight glow. Character layer only — tone/texture stay in JSON.
0.000000 0.000000 0.052222
0.220176 0.000000 0.027725
0.495638 0.000000 0.021785
0.768202 0.000000 0.017337
1.000000 0.000000 0.013891
0.000000 0.226640 0.023933
0.218629 0.227639 0.020294
0.506087 0.229498 0.009089
0.780876 0.226883 0.004321
1.000000 0.226001 0.001295
0.000000 0.497949 0.011988
0.226874 0.498589 0.009219
0.499982 0.500015 0.005307
0.780645 0.503711 0.000000
1.000000 0.503167 0.000000
0.002516 0.769206 0.001698
0.236218 0.769858 0.000000
0.507891 0.770627 0.000000
0.781574 0.772212 0.000000
1.000000 0.775079 0.000000
0.011011 1.000000 0.000000
0.244944 1.000000 0.000000
0.516925 1.000000 0.000000
0.789044 1.000000 0.000000
1.000000 1.000000 0.000000
0.000000 0.000000 0.278246
0.218833 0.000000 0.270481
0.488256 0.000000 0.263854
0.759598 0.000000 0.253927
0.994604 0.000000 0.248503
0.000000 0.226733 0.254541
0.217844 0.227552 0.252988
0.504158 0.223456 0.243409
0.779239 0.223021 0.238009
1.000000 0.223390 0.234195
0.000000 0.498167 0.242286
0.219155 0.502142 0.231561
0.500599 0.500649 0.225517
0.784908 0.500759 0.222409
1.000000 0.500415 0.221672
0.003343 0.769427 0.232116
0.228584 0.773475 0.221067
0.505040 0.772971 0.216994
0.782751 0.772966 0.212413
1.000000 0.775882 0.217681
0.011913 1.000000 0.224255
0.245875 1.000000 0.222023
0.517895 1.000000 0.219466
0.790057 1.000000 0.216929
1.000000 1.000000 0.213887
0.000000 0.000000 0.545503
0.207725 0.000000 0.535597
0.493674 0.000000 0.536030
0.764027 0.000000 0.531066
0.994098 0.000000 0.523979
0.000000 0.224719 0.529987
0.214630 0.225469 0.535446
0.503277 0.221723 0.528254
0.774558 0.223637 0.517935
1.000000 0.226233 0.509346
0.000000 0.498413 0.509968
0.219246 0.501540 0.510110
0.500073 0.499769 0.504600
0.787389 0.495535 0.496002
1.000000 0.494855 0.491537
0.004312 0.769684 0.499908
0.229158 0.773302 0.494411
0.501665 0.774420 0.486064
0.783809 0.773118 0.480292
1.000000 0.775743 0.482998
0.012973 1.000000 0.492120
0.246970 1.000000 0.489901
0.519037 1.000000 0.487353
0.791252 1.000000 0.484819
1.000000 1.000000 0.481770
0.000000 0.000000 0.812788
0.206491 0.000000 0.805384
0.486445 0.000000 0.798502
0.766644 0.000000 0.800256
1.000000 0.000000 0.797212
0.000000 0.224254 0.800025
0.214217 0.225107 0.804793
0.494494 0.225421 0.795814
0.778219 0.220780 0.794478
1.000000 0.222071 0.786245
0.000000 0.497449 0.781898
0.221427 0.498980 0.786015
0.496732 0.497802 0.787858
0.785697 0.493605 0.782072
1.000000 0.496523 0.772396
0.005289 0.769943 0.767711
0.229742 0.773131 0.767765
0.501881 0.773838 0.764755
0.783510 0.772072 0.758867
1.000000 0.766850 0.749584
0.014046 1.000000 0.759991
0.248081 1.000000 0.757783
0.520196 1.000000 0.755242
0.792466 1.000000 0.752707
1.000000 1.000000 0.749648
0.000000 0.000000 1.000000
0.206591 0.000000 1.000000
0.483235 0.000000 1.000000
0.763300 0.000000 1.000000
1.000000 0.000000 1.000000
0.000000 0.224258 1.000000
0.212403 0.224738 1.000000
0.487683 0.227022 1.000000
0.769190 0.224831 1.000000
1.000000 0.220771 1.000000
0.000000 0.496837 1.000000
0.223155 0.496664 1.000000
0.493067 0.496766 1.000000
0.773691 0.498237 1.000000
1.000000 0.491991 1.000000
0.004728 0.769603 1.000000
0.237720 0.769950 0.998907
0.507316 0.769862 0.999333
0.775821 0.769314 1.000000
1.000000 0.763206 1.000000
0.014981 1.000000 0.990488
0.249049 1.000000 0.988289
0.521207 1.000000 0.985752
0.793527 1.000000 0.983213
1.000000 1.000000 0.977569
