Camera18_LUT_V0/luts/absolute-hero.cube
TITLE "Camera18 V0 - Absolute Hero (PixCake 140501 direction, original approximation)"
LUT_3D_SIZE 9
DOMAIN_MIN 0.0 0.0 0.0
DOMAIN_MAX 1.0 1.0 1.0
# Original Camera 18 V0 approximation; input expected normalized display-referred RGB.
# Vivid glossy portrait direction: clean bright mids, cobalt-blue boost, luminous warm skin,
# cool clean shadows, warm highlight glow. Character layer only — tone/texture stay in JSON.
0.000000 0.000000 0.052222
0.091162 0.000000 0.035799
0.220176 0.000000 0.027725
0.356279 0.000000 0.024437
0.495638 0.000000 0.021785
0.634425 0.000000 0.019441
0.768202 0.000000 0.017337
0.892356 0.000000 0.015478
1.000000 0.000000 0.013891
0.000000 0.102750 0.030093
0.089708 0.103081 0.028422
0.228406 0.104077 0.019595
0.365312 0.101247 0.016239
0.504058 0.100192 0.014093
0.642224 0.099862 0.012210
0.775514 0.099833 0.010478
0.899305 0.099935 0.008911
1.000000 0.100016 0.007447
0.000000 0.226640 0.023933
0.093945 0.226956 0.022392
0.218629 0.227639 0.020294
0.361614 0.230937 0.013768
0.506087 0.229498 0.009089
0.646608 0.227888 0.006321
0.780876 0.226883 0.004321
0.905094 0.226324 0.002712
1.000000 0.226001 0.001295
0.000000 0.359946 0.017823
0.098399 0.360251 0.016403
0.222278 0.360595 0.014831
0.356963 0.361520 0.012507
0.501675 0.364609 0.007521
0.645330 0.364853 0.003276
0.782194 0.363950 0.000172
0.907907 0.363052 0.000000
1.000000 0.362391 0.000000
0.000000 0.497949 0.011988
0.102987 0.498250 0.010675
0.226874 0.498589 0.009219
0.360236 0.498954 0.007684
0.499982 0.500015 0.005307
0.643210 0.502523 0.001225
0.780645 0.503711 0.000000
0.907950 0.503576 0.000000
1.000000 0.503167 0.000000
0.000000 0.635940 0.006580
0.107636 0.636241 0.005358
0.231552 0.636581 0.004000
0.364952 0.636949 0.002565
0.503104 0.637332 0.001105
0.643095 0.638476 0.000000
0.780545 0.640518 0.000000
0.907508 0.641966 0.000000
1.000000 0.642406 0.000000
0.002516 0.769206 0.001698
0.112255 0.769511 0.000549
0.236218 0.769858 0.000000
0.369675 0.770234 0.000000
0.507891 0.770627 0.000000
0.646133 0.771025 0.000000
0.781574 0.772212 0.000000
0.908767 0.773879 0.000000
1.000000 0.775079 0.000000
0.006931 0.893032 0.000000
0.116719 0.893345 0.000000
0.240743 0.893702 0.000000
0.374269 0.894090 0.000000
0.512563 0.894497 0.000000
0.650887 0.894910 0.000000
0.784629 0.895369 0.000000
0.910643 0.896526 0.000000
1.000000 0.897704 0.000000
0.011011 1.000000 0.000000
0.120854 1.000000 0.000000
0.244944 1.000000 0.000000
0.378546 1.000000 0.000000
0.516925 1.000000 0.000000
0.655339 1.000000 0.000000
0.789044 1.000000 0.000000
0.913722 1.000000 0.000000
1.000000 1.000000 0.000000
0.000000 0.000000 0.156282
0.088431 0.000000 0.147732
0.219084 0.000000 0.149111
0.348968 0.000000 0.139860
0.488521 0.000000 0.134270
0.628132 0.000000 0.130723
0.762829 0.000000 0.128029
0.887757 0.000000 0.125834
0.998166 0.000000 0.124012
0.000000 0.102181 0.140502
0.087198 0.102526 0.141935
0.220232 0.100947 0.134208
0.358039 0.099539 0.129349
0.497153 0.099547 0.126338
0.634389 0.100147 0.124210
0.768474 0.100305 0.122033
0.893055 0.100453 0.120102
1.000000 0.099525 0.117290
0.000000 0.226748 0.132000
0.089974 0.228630 0.127736
0.218311 0.227864 0.124738
0.362489 0.228124 0.120259
0.504073 0.226465 0.118061
0.642073 0.225951 0.116870
0.776054 0.225590 0.114995
0.900600 0.225388 0.113216
1.000000 0.224329 0.110037
0.000000 0.360050 0.125932
0.094611 0.361952 0.120932
0.220632 0.361721 0.118753
0.356972 0.361755 0.116102
0.501932 0.363605 0.114044
0.644130 0.363181 0.112172
0.780004 0.362260 0.109673
0.905455 0.361539 0.107618
1.000000 0.360660 0.104189
0.000000 0.498051 0.120133
0.100814 0.499350 0.116424
0.225576 0.499455 0.114727
0.359880 0.499568 0.112931
0.500033 0.500131 0.110568
0.642527 0.502133 0.109714
0.779984 0.502744 0.106583
0.907106 0.502418 0.103822
1.000000 0.502224 0.100227
0.000000 0.636042 0.114756
0.107742 0.636450 0.113273
0.231732 0.636772 0.111903
0.365211 0.637121 0.110454
0.503445 0.637483 0.108979
0.643019 0.638399 0.106868
0.780092 0.640268 0.104041
0.907133 0.641468 0.101307
1.000000 0.642338 0.097936
0.002904 0.769310 0.109900
0.112646 0.769615 0.108756
0.236614 0.769963 0.107482
0.370076 0.770340 0.106131
0.508299 0.770734 0.104752
0.646546 0.771132 0.103392
0.781583 0.772149 0.101343
0.908609 0.773745 0.098674
1.000000 0.775453 0.095970
0.007335 0.893138 0.105631
0.117128 0.893452 0.104540
0.241158 0.893810 0.103322
0.374691 0.894199 0.102025
0.512993 0.894608 0.100697
0.651326 0.895023 0.099382
0.784992 0.895448 0.098098
0.910768 0.896505 0.096127
1.000000 0.897933 0.093799
0.011433 1.000000 0.102005
0.121283 1.000000 0.100949
0.245380 1.000000 0.099767
0.378991 1.000000 0.098503
0.517379 1.000000 0.097204
0.655803 1.000000 0.095911
0.789518 1.000000 0.094666
0.914123 1.000000 0.093334
1.000000 1.000000 0.091625
0.000000 0.000000 0.278246
0.081467 0.000000 0.271431
0.218833 0.000000 0.270481
0.354645 0.000000 0.270749
0.488256 0.000000 0.263854
0.625636 0.000000 0.258140
0.759598 0.000000 0.253927
0.884254 0.000000 0.250824
0.994604 0.000000 0.248503
0.000000 0.100360 0.269335
0.085126 0.101158 0.271251
0.220482 0.099748 0.264959
0.356091 0.099122 0.260983
0.492046 0.101199 0.254197
0.629134 0.101872 0.249687
0.763507 0.101702 0.246764
0.888546 0.101545 0.244480
1.000000 0.100544 0.241896
0.000000 0.226733 0.254541
0.089663 0.228215 0.255340
0.217844 0.227552 0.252988
0.360135 0.224985 0.247745
0.504158 0.223456 0.243409
0.644999 0.222969 0.240305
0.779239 0.223021 0.238009
0.897053 0.224659 0.237292
1.000000 0.223390 0.234195
0.000000 0.360167 0.248044
0.094837 0.361874 0.245542
0.216851 0.363148 0.240250
0.356917 0.361860 0.236641
0.505619 0.361426 0.232762
0.649078 0.359730 0.230425
0.784677 0.358830 0.228938
0.905486 0.359550 0.230140
1.000000 0.358314 0.226684
0.000000 0.498167 0.242286
0.101155 0.499386 0.239600
0.219155 0.502142 0.231561
0.357104 0.501278 0.228733
0.500599 0.500649 0.225517
0.646255 0.501369 0.223936
0.784908 0.500759 0.222409
0.909105 0.501161 0.225404
1.000000 0.500415 0.221672
0.000000 0.636157 0.236944
0.108164 0.636560 0.235550
0.223353 0.640382 0.225445
0.360027 0.639874 0.223092
0.501571 0.639350 0.220683
0.644076 0.639222 0.217827
0.782966 0.640127 0.217482
0.908993 0.641408 0.222900
1.000000 0.641873 0.219100
0.003343 0.769427 0.232116
0.113090 0.769733 0.230978
0.228584 0.773475 0.221067
0.364390 0.773225 0.219056
0.505040 0.772971 0.216994
0.645715 0.772721 0.214950
0.782751 0.772966 0.212413
0.909553 0.774061 0.220699
1.000000 0.775882 0.217681
0.007793 0.893258 0.227868
0.117592 0.893573 0.226781
0.241629 0.893932 0.225567
0.375170 0.894323 0.224275
0.513482 0.894734 0.222951
0.651824 0.895150 0.221639
0.785455 0.895559 0.220381
0.911291 0.896638 0.218386
1.000000 0.898252 0.215840
0.011913 1.000000 0.224255
0.121769 1.000000 0.223203
0.245875 1.000000 0.222023
0.379496 1.000000 0.220763
0.517895 1.000000 0.219466
0.656330 1.000000 0.218174
0.790057 1.000000 0.216929
0.914552 1.000000 0.215658
1.000000 1.000000 0.213887
0.000000 0.000000 0.409540
0.080450 0.000000 0.404844
0.211051 0.000000 0.398813
0.354360 0.000000 0.401342
0.493969 0.000000 0.400767
0.628734 0.000000 0.395419
0.759885 0.000000 0.390673
0.883332 0.000000 0.386714
0.993159 0.000000 0.383669
0.000000 0.099888 0.402811
0.084698 0.100806 0.403622
0.213999 0.101746 0.396946
0.357642 0.097961 0.396353
0.495517 0.098168 0.392472
0.629052 0.101349 0.386575
0.761822 0.102435 0.382407
0.886200 0.102754 0.379187
0.997587 0.102176 0.376548
0.000000 0.225476 0.390796
0.089136 0.226274 0.392699
0.215412 0.226061 0.394881
0.360062 0.223839 0.389931
0.501609 0.223378 0.384989
0.640705 0.224035 0.379038
0.774816 0.224158 0.374824
0.891850 0.226036 0.371530
1.000000 0.224780 0.368788
0.000000 0.360261 0.379604
0.095009 0.361760 0.379783
0.216641 0.362646 0.379394
0.356452 0.361301 0.376168
0.504397 0.358625 0.371130
0.649201 0.356997 0.367079
0.783904 0.356661 0.364370
0.901978 0.358179 0.363697
1.000000 0.356697 0.360413
0.000000 0.498291 0.373779
0.101523 0.499424 0.372195
0.219204 0.501849 0.368397
0.354544 0.502003 0.363179
0.500546 0.500457 0.359335
0.649057 0.499629 0.355734
0.788001 0.498476 0.354779
0.910428 0.498768 0.356699
1.000000 0.497459 0.353047
0.000000 0.636281 0.368474
0.108619 0.636677 0.367175
0.223532 0.640209 0.360786
0.355483 0.641589 0.353672
0.499684 0.640355 0.350514
0.644512 0.639375 0.347077
0.785074 0.639968 0.348905
0.911756 0.640732 0.353325
1.000000 0.640474 0.349340
0.003818 0.769553 0.363675
0.113570 0.769860 0.362543
0.228865 0.773390 0.355354
0.362151 0.774157 0.350725
0.503773 0.773645 0.348395
0.645420 0.773138 0.346083
0.783313 0.773101 0.343327
0.910833 0.774471 0.351672
1.000000 0.776143 0.348334
0.008289 0.893388 0.359449
0.118094 0.893704 0.358367
0.242139 0.894064 0.357158
0.375424 0.894564 0.355592
0.513823 0.894955 0.354250
0.652254 0.895353 0.352919
0.785971 0.895744 0.351642
0.911897 0.896810 0.349625
1.000000 0.898678 0.347110
0.012432 1.000000 0.355851
0.122296 1.000000 0.354802
0.246411 1.000000 0.353626
0.380043 1.000000 0.352368
0.518453 1.000000 0.351073
0.656902 1.000000 0.349782
0.790642 1.000000 0.348538
0.915014 1.000000 0.347333
1.000000 1.000000 0.345493
0.000000 0.000000 0.545503
0.080263 0.000000 0.541785
0.207725 0.000000 0.535597
0.348819 0.000000 0.533491
0.493674 0.000000 0.536030
0.632931 0.000000 0.535197
0.764027 0.000000 0.531066
0.885715 0.000000 0.527177
0.994098 0.000000 0.523979
0.000000 0.099814 0.539575
0.084819 0.100823 0.538224
0.211806 0.101830 0.533107
0.351226 0.101405 0.528870
0.496323 0.097859 0.530109
0.633159 0.098392 0.526634
0.764395 0.100399 0.522859
0.886830 0.102004 0.519521
0.997078 0.102095 0.517277
0.000000 0.224719 0.529987
0.089253 0.225393 0.530126
0.214630 0.225469 0.535446
0.355037 0.225321 0.529472
0.503277 0.221723 0.528254
0.642894 0.221749 0.523421
0.774558 0.223637 0.517935
0.890209 0.226743 0.511954
1.000000 0.226233 0.509346
0.000000 0.359513 0.518798
0.095958 0.360246 0.519081
0.216541 0.360969 0.523258
0.354667 0.360070 0.523226
0.503885 0.357530 0.518932
0.646535 0.356959 0.513848
0.779209 0.357746 0.507982
0.896036 0.359857 0.503499
1.000000 0.358527 0.500575
0.000000 0.498413 0.509968
0.101892 0.499459 0.509519
0.219246 0.501540 0.510110
0.354337 0.501434 0.508228
0.500073 0.499769 0.504600
0.648544 0.497015 0.499653
0.787389 0.495535 0.496002
0.909360 0.495935 0.494421
1.000000 0.494855 0.491537
0.000000 0.636410 0.504677
0.109092 0.636799 0.503477
0.223719 0.640031 0.500935
0.355443 0.641170 0.496909
0.498279 0.640490 0.492307
0.644510 0.639015 0.488519
0.788233 0.638765 0.486439
0.916158 0.638222 0.487288
1.000000 0.637211 0.484606
0.004312 0.769684 0.499908
0.114069 0.769992 0.498783
0.229158 0.773302 0.494411
0.362368 0.773983 0.490908
0.501665 0.774420 0.486064
0.644686 0.773548 0.483369
0.783809 0.773118 0.480292
0.913638 0.774741 0.485057
1.000000 0.775743 0.482998
0.008805 0.893522 0.495704
0.118617 0.893840 0.494627
0.242670 0.894202 0.493423
0.375958 0.894696 0.491951
0.512138 0.895998 0.488187
0.651477 0.896157 0.486605
0.786071 0.896317 0.485084
0.912835 0.897179 0.482828
1.000000 0.899278 0.482853
0.012973 1.000000 0.492120
0.122845 1.000000 0.491074
0.246970 1.000000 0.489901
0.380613 1.000000 0.488646
0.519037 1.000000 0.487353
0.657498 1.000000 0.486063
0.791252 1.000000 0.484819
0.915545 1.000000 0.483659
1.000000 1.000000 0.481770
0.000000 0.000000 0.681473
0.080393 0.000000 0.678284
0.206762 0.000000 0.673000
0.344939 0.000000 0.668821
0.489852 0.000000 0.668522
0.632621 0.000000 0.670475
0.766967 0.000000 0.669614
0.889408 0.000000 0.666495
0.997454 0.000000 0.663411
0.000000 0.099868 0.675897
0.085194 0.101013 0.671696
0.210837 0.102020 0.667578
0.347268 0.102966 0.662704
0.491182 0.101201 0.661393
0.633589 0.098538 0.662801
0.767539 0.098295 0.661657
0.890184 0.099666 0.658857
0.999879 0.099953 0.657516
0.000000 0.224382 0.667711
0.089810 0.225088 0.665141
0.214365 0.225223 0.673156
0.352678 0.225398 0.668114
0.498279 0.224128 0.664278
0.643799 0.220954 0.664233
0.777566 0.221210 0.659862
0.892828 0.224699 0.652340
1.000000 0.225023 0.650865
0.000000 0.358821 0.657803
0.096364 0.359269 0.656244
0.216705 0.359963 0.663295
0.353719 0.359358 0.665887
0.499983 0.358568 0.660333
0.648099 0.355169 0.658745
0.781184 0.355588 0.652514
0.895746 0.359480 0.645213
1.000000 0.359391 0.642745
0.000000 0.497988 0.648072
0.103570 0.498356 0.646908
0.220685 0.500080 0.651392
0.354308 0.499977 0.653095
0.498336 0.498592 0.651735
0.647635 0.495881 0.647918
0.783244 0.495937 0.642501
0.902647 0.497689 0.636569
1.000000 0.497167 0.633004
0.000146 0.636539 0.640886
0.109566 0.636921 0.639782
0.223908 0.639852 0.641087
0.355405 0.640750 0.640150
0.498109 0.639929 0.637386
0.644009 0.638259 0.633720
0.788564 0.635292 0.628590
0.916046 0.634134 0.625634
1.000000 0.633100 0.622847
0.004808 0.769816 0.636144
0.114570 0.770124 0.635025
0.229454 0.773215 0.633471
0.362587 0.773809 0.631093
0.501774 0.774124 0.627839
0.643216 0.773921 0.623216
0.784140 0.772921 0.619662
0.918357 0.773696 0.619112
1.000000 0.773165 0.617123
0.009324 0.893658 0.631961
0.119143 0.893976 0.630888
0.243205 0.894340 0.629689
0.376496 0.894829 0.628312
0.512607 0.896051 0.625593
0.649728 0.897137 0.621423
0.785703 0.896932 0.619515
0.913796 0.897474 0.616876
1.000000 0.900153 0.618209
0.013517 1.000000 0.628391
0.123398 1.000000 0.627348
0.247533 1.000000 0.626178
0.381188 1.000000 0.624925
0.519624 1.000000 0.623634
0.658099 1.000000 0.622345
0.791867 1.000000 0.621099
0.916174 1.000000 0.619938
1.000000 1.000000 0.618046
0.000000 0.000000 0.812788
0.080653 0.000000 0.809917
0.206491 0.000000 0.805384
0.342942 0.000000 0.800587
0.486445 0.000000 0.798502
0.629967 0.000000 0.798930
0.766644 0.000000 0.800256
0.891403 0.000000 0.799470
1.000000 0.000000 0.797212
0.000000 0.099965 0.807392
0.085391 0.101053 0.803120
0.210632 0.101945 0.799497
0.346059 0.103116 0.794836
0.488315 0.102720 0.791917
0.631346 0.100658 0.791794
0.767715 0.098647 0.792841
0.892401 0.098316 0.792094
1.000000 0.097638 0.791921
0.000000 0.224254 0.800025
0.089799 0.224995 0.797044
0.214217 0.225107 0.804793
0.351257 0.225394 0.800512
0.494494 0.225421 0.795814
0.639603 0.223243 0.794280
0.778219 0.220780 0.794478
0.895831 0.222696 0.786397
1.000000 0.222071 0.786245
0.000000 0.358405 0.791160
0.095789 0.358895 0.789144
0.217073 0.359396 0.796287
0.352718 0.358973 0.797122
0.496045 0.359185 0.791955
0.642138 0.357543 0.788712
0.782466 0.354489 0.788948
0.899722 0.356610 0.780649
1.000000 0.356507 0.779884
0.000000 0.497449 0.781898
0.102691 0.497803 0.780452
0.221427 0.498980 0.786015
0.355298 0.498515 0.787382
0.496732 0.497802 0.787858
0.642788 0.497335 0.782236
0.785697 0.493605 0.782072
0.905191 0.495219 0.775321
1.000000 0.496523 0.772396
0.000000 0.636318 0.773636
0.109484 0.636628 0.772433
0.226105 0.638651 0.775827
0.359542 0.638676 0.775865
0.499048 0.638136 0.776241
0.641849 0.637036 0.775734
0.786852 0.633913 0.772866
0.909142 0.635297 0.766812
1.000000 0.635749 0.761958
0.005289 0.769943 0.767711
0.115057 0.770252 0.766598
0.229742 0.773131 0.767765
0.362801 0.773642 0.766473
0.501881 0.773838 0.764755
0.643165 0.773461 0.762371
0.783510 0.772072 0.758867
0.920587 0.768660 0.753020
1.000000 0.766850 0.749584
0.009828 0.893789 0.763548
0.119654 0.894109 0.762480
0.243724 0.894474 0.761285
0.377018 0.894958 0.759999
0.513065 0.896103 0.758289
0.650078 0.897066 0.755710
0.784369 0.897611 0.751397
0.914800 0.897617 0.748069
1.000000 0.900246 0.747437
0.014046 1.000000 0.759991
0.123936 1.000000 0.758951
0.248081 1.000000 0.757783
0.381747 1.000000 0.756532
0.520196 1.000000 0.755242
0.658684 1.000000 0.753953
0.792466 1.000000 0.752707
0.916787 1.000000 0.751544
1.000000 1.000000 0.749648
0.000000 0.000000 0.934785
0.080956 0.000000 0.932120
0.206449 0.000000 0.928077
0.342047 0.000000 0.923326
0.484224 0.000000 0.920253
0.627315 0.000000 0.919344
0.764772 0.000000 0.920055
0.891075 0.000000 0.920827
1.000000 0.000000 0.920173
0.000000 0.100072 0.929493
0.085489 0.101044 0.925635
0.210410 0.101809 0.922468
0.345548 0.102899 0.918154
0.486628 0.103338 0.914350
0.629224 0.102075 0.912955
0.766516 0.100099 0.913369
0.892617 0.098597 0.914031
1.000000 0.096672 0.915363
0.000000 0.224226 0.922627
0.089774 0.224936 0.919763
0.213895 0.225378 0.917815
0.348626 0.226302 0.914181
0.489107 0.227456 0.909468
0.631829 0.226649 0.907216
0.769916 0.224466 0.907648
0.896398 0.222688 0.908714
1.000000 0.220475 0.910476
0.000000 0.358178 0.914492
0.095389 0.358685 0.912428
0.218626 0.358767 0.911837
0.352157 0.359187 0.910333
0.492218 0.360299 0.906073
0.634310 0.360735 0.901905
0.773527 0.358443 0.901954
0.900701 0.356257 0.903486
1.000000 0.353911 0.905347
0.000000 0.497061 0.905829
0.101919 0.497440 0.904303
0.224995 0.497449 0.904072
0.357359 0.497446 0.904182
0.495423 0.497600 0.905571
0.637209 0.498764 0.900146
0.778078 0.496912 0.898283
0.907358 0.493761 0.900358
1.000000 0.492494 0.899869
0.000000 0.635936 0.897579
0.108702 0.636257 0.896345
0.232104 0.636384 0.895805
0.364541 0.636451 0.895803
0.500617 0.636425 0.898193
0.639557 0.636275 0.899635
0.780477 0.636323 0.893928
0.913310 0.631830 0.896298
1.000000 0.632021 0.893544
0.005212 0.769851 0.890675
0.114990 0.770164 0.889559
0.238843 0.770456 0.888538
0.371853 0.770789 0.887731
0.507945 0.771360 0.888391
0.644848 0.771336 0.889889
0.780490 0.770777 0.890583
0.916684 0.766905 0.889374
1.000000 0.768820 0.884028
0.010299 0.893911 0.885793
0.120132 0.894232 0.884729
0.244209 0.894599 0.883538
0.377506 0.895079 0.882337
0.513493 0.896152 0.881564
0.650406 0.897002 0.880462
0.784516 0.897348 0.878701
0.916361 0.897051 0.874055
1.000000 0.892423 0.866846
0.014541 1.000000 0.882247
0.124438 1.000000 0.881210
0.248593 1.000000 0.880044
0.382270 1.000000 0.878795
0.520731 1.000000 0.877505
0.659232 1.000000 0.876216
0.793027 1.000000 0.874969
0.917361 1.000000 0.873803
1.000000 1.000000 0.871904
0.000000 0.000000 1.000000
0.081277 0.000000 1.000000
0.206591 0.000000 1.000000
0.341860 0.000000 1.000000
0.483235 0.000000 1.000000
0.625759 0.000000 1.000000
0.763300 0.000000 1.000000
0.890053 0.000000 1.000000
1.000000 0.000000 1.000000
0.000000 0.100175 1.000000
0.084360 0.100550 1.000000
0.209294 0.101320 1.000000
0.344505 0.102439 1.000000
0.485363 0.103282 1.000000
0.628075 0.102355 1.000000
0.766228 0.100377 1.000000
0.893499 0.098271 1.000000
1.000000 0.097009 1.000000
0.000000 0.224258 1.000000
0.088471 0.224372 1.000000
0.212403 0.224738 1.000000
0.347186 0.225681 1.000000
0.487683 0.227022 1.000000
0.630198 0.226867 1.000000
0.769190 0.224831 1.000000
0.897325 0.222328 1.000000
1.000000 0.220771 1.000000
0.000000 0.358087 1.000000
0.093938 0.358060 1.000000
0.216921 0.358039 1.000000
0.350211 0.358378 1.000000
0.490315 0.359558 1.000000
0.632023 0.360733 1.000000
0.771850 0.359013 1.000000
0.901378 0.355996 1.000000
1.000000 0.354012 1.000000
0.000000 0.496837 1.000000
0.100431 0.496797 1.000000
0.223155 0.496664 1.000000
0.355201 0.496493 1.000000
0.493067 0.496766 1.000000
0.634103 0.498302 1.000000
0.773691 0.498237 1.000000
0.905397 0.494670 1.000000
1.000000 0.491991 1.000000
0.000000 0.635633 1.000000
0.107388 0.635681 1.000000
0.230374 0.635640 1.000000
0.362414 0.635453 1.000000
0.498771 0.635106 1.000000
0.636449 0.635283 1.000000
0.774538 0.637252 1.000000
0.908867 0.633851 1.000000
1.000000 0.629957 1.000000
0.004728 0.769603 1.000000
0.114199 0.769792 0.999453
0.237720 0.769950 0.998907
0.370425 0.770013 0.998729
0.507316 0.769862 0.999333
0.643275 0.769332 1.000000
0.775821 0.769314 1.000000
0.910294 0.769347 0.994574
1.000000 0.763206 1.000000
0.010414 0.893898 0.994450
0.120186 0.894194 0.993482
0.244161 0.894518 0.992448
0.377567 0.894844 0.991447
0.515577 0.895121 0.990651
0.653192 0.895234 0.990465
0.784779 0.894812 0.992172
0.907547 0.894624 0.993073
1.000000 0.887375 0.996207
0.014981 1.000000 0.990488
0.124886 1.000000 0.989452
0.249049 1.000000 0.988289
0.382736 1.000000 0.987041
0.521207 1.000000 0.985752
0.659721 1.000000 0.984462
0.793527 1.000000 0.983213
0.917874 1.000000 0.982045
1.000000 1.000000 0.977569
