Camera18_LUT_V0/luts/canon-g7x2.cube
TITLE "Camera18 V0 - Canon G7 X II inspired"
LUT_3D_SIZE 33
DOMAIN_MIN 0.0 0.0 0.0
DOMAIN_MAX 1.0 1.0 1.0
# Original Camera 18 V0 approximation; input expected normalized display-referred RGB.
# Warm/pleasant skin, modest saturation, gentle midtone lift; starting point only.
0.004300 0.002150 0.000000
0.039167 0.002009 0.000000
0.074036 0.001867 0.000000
0.108905 0.001727 0.000000
0.143775 0.001587 0.000000
0.178647 0.001447 0.000000
0.213519 0.001307 0.000000
0.248393 0.001168 0.000000
0.283267 0.001029 0.000052
0.318142 0.000891 0.000593
0.353019 0.000753 0.001133
0.387896 0.000616 0.001671
0.422774 0.000479 0.002209
0.457654 0.000342 0.002747
0.492534 0.000206 0.003283
0.527416 0.000070 0.003819
0.562298 0.000000 0.004354
0.597181 0.000000 0.004888
0.632066 0.000000 0.005421
0.666951 0.000000 0.005953
0.701838 0.000000 0.006485
0.736725 0.000000 0.007016
0.771613 0.000000 0.007546
0.806503 0.000000 0.008075
0.841393 0.000000 0.008603
0.876285 0.000000 0.009131
0.911177 0.000000 0.009658
0.946070 0.000000 0.010184
0.980965 0.000000 0.010709
1.000000 0.000000 0.011232
1.000000 0.000000 0.011728
1.000000 0.000000 0.012223
1.000000 0.000000 0.012392
0.004298 0.036082 0.000000
0.039046 0.035406 0.000000
0.074252 0.034631 0.000000
0.109263 0.033742 0.000000
0.144214 0.032853 0.000000
0.179139 0.031965 0.000000
0.214049 0.031078 0.000000
0.248950 0.030191 0.000000
0.283845 0.029303 0.000000
0.318738 0.028416 0.000000
0.353628 0.027528 0.000000
0.388517 0.026640 0.000000
0.423404 0.025752 0.000000
0.458292 0.024865 0.000000
0.493181 0.023979 0.000000
0.528070 0.023093 0.000000
0.562961 0.022208 0.000000
0.597852 0.021324 0.000000
0.632743 0.020440 0.000000
0.667636 0.019557 0.000000
0.702529 0.018674 0.000000
0.737423 0.017792 0.000000
0.772318 0.016910 0.000000
0.807214 0.016029 0.000000
0.842111 0.015148 0.000000
0.877008 0.014268 0.000000
0.911906 0.013388 0.000000
0.946805 0.012509 0.000000
0.981303 0.011625 0.000000
1.000000 0.010724 0.000000
1.000000 0.009828 0.000000
1.000000 0.008938 0.000000
1.000000 0.007933 0.000000
0.004306 0.070018 0.000000
0.039761 0.070176 0.000000
0.073811 0.068670 0.000000
0.109109 0.067974 0.000000
0.144232 0.067124 0.000000
0.179270 0.066238 0.000000
0.214263 0.065349 0.000000
0.249230 0.064462 0.000000
0.284178 0.063575 0.000000
0.319114 0.062690 0.000000
0.354041 0.061806 0.000000
0.388961 0.060922 0.000000
0.423876 0.060038 0.000000
0.458787 0.059154 0.000000
0.493695 0.058270 0.000000
0.528601 0.057386 0.000000
0.563506 0.056503 0.000000
0.598409 0.055619 0.000000
0.633311 0.054736 0.000000
0.668212 0.053853 0.000000
0.703113 0.052969 0.000000
0.738014 0.052086 0.000000
0.772915 0.051203 0.000000
0.807815 0.050320 0.000000
0.842716 0.049438 0.000000
0.876069 0.048470 0.000000
0.909060 0.047493 0.000000
0.942022 0.046526 0.000000
0.974957 0.045568 0.000000
1.000000 0.044618 0.000000
1.000000 0.043676 0.000000
1.000000 0.042740 0.000000
1.000000 0.041002 0.000000
0.004325 0.103959 0.000000
0.039209 0.104020 0.000000
0.075797 0.104437 0.000000
0.108593 0.101941 0.000000
0.143939 0.101284 0.000000
0.179130 0.100488 0.000000
0.214238 0.099626 0.000000
0.249290 0.098744 0.000000
0.284308 0.097858 0.000000
0.319301 0.096971 0.000000
0.354277 0.096086 0.000000
0.389239 0.095201 0.000000
0.424192 0.094318 0.000000
0.459136 0.093435 0.000000
0.494074 0.092553 0.000000
0.529006 0.091672 0.000000
0.563935 0.090790 0.000000
0.598860 0.089909 0.000000
0.633782 0.089029 0.000000
0.668702 0.088148 0.000000
0.703620 0.087268 0.000000
0.737802 0.086302 0.000000
0.771079 0.085245 0.000000
0.804309 0.084203 0.000000
0.837496 0.083174 0.000000
0.870643 0.082156 0.000000
0.903753 0.081149 0.000000
0.936830 0.080153 0.000000
0.969877 0.079165 0.000000
1.000000 0.078187 0.000000
1.000000 0.077216 0.000000
1.000000 0.076253 0.000000
1.000000 0.073767 0.000000
0.004356 0.137904 0.000000
0.038973 0.137897 0.000000
0.075281 0.138225 0.000000
0.111825 0.138841 0.000000
0.143393 0.135219 0.000000
0.178772 0.134582 0.000000
0.214007 0.133833 0.000000
0.249167 0.133005 0.000000
0.284271 0.132140 0.000000
0.319334 0.131261 0.000000
0.354367 0.130377 0.000000
0.389379 0.129492 0.000000
0.424376 0.128608 0.000000
0.459359 0.127725 0.000000
0.494332 0.126842 0.000000
0.529297 0.125961 0.000000
0.564254 0.125080 0.000000
0.599094 0.124177 0.000000
0.632688 0.123036 0.000000
0.666214 0.121914 0.000000
0.699677 0.120810 0.000000
0.733085 0.119723 0.000000
0.766440 0.118651 0.000000
0.799748 0.117592 0.000000
0.833012 0.116547 0.000000
0.866236 0.115513 0.000000
0.899423 0.114490 0.000000
0.932575 0.113477 0.000000
0.965696 0.112473 0.000000
0.998788 0.111478 0.000000
1.000000 0.110492 0.000000
1.000000 0.109513 0.000000
1.000000 0.106268 0.000000
0.004397 0.171853 0.000000
0.038850 0.171803 0.000000
0.074697 0.172073 0.000000
0.111361 0.172447 0.000000
0.147841 0.173271 0.000000
0.178211 0.168504 0.000000
0.213615 0.167877 0.000000
0.248883 0.167166 0.000000
0.284081 0.166371 0.000000
0.319227 0.165530 0.000000
0.354331 0.164664 0.000000
0.389402 0.163788 0.000000
0.424448 0.162907 0.000000
0.459475 0.162025 0.000000
0.493740 0.160898 0.000000
0.527603 0.159690 0.000000
0.561381 0.158504 0.000000
0.595081 0.157341 0.000000
0.628711 0.156197 0.000000
0.662276 0.155071 0.000000
0.695781 0.153962 0.000000
0.729233 0.152869 0.000000
0.762635 0.151790 0.000000
0.795991 0.150724 0.000000
0.829304 0.149670 0.000000
0.862578 0.148628 0.000000
0.895815 0.147596 0.000000
0.929018 0.146574 0.000000
0.962189 0.145562 0.000000
0.995331 0.144558 0.000000
1.000000 0.143562 0.000000
1.000000 0.142574 0.000000
1.000000 0.138557 0.000000
0.004449 0.205807 0.000000
0.038798 0.205729 0.000000
0.074237 0.205938 0.000000
0.110859 0.206298 0.000000
0.147439 0.206781 0.000000
0.183859 0.207707 0.000000
0.213047 0.201796 0.000000
0.248472 0.201174 0.000000
0.283765 0.200492 0.000000
0.318994 0.199727 0.000000
0.353946 0.198784 0.000000
0.388239 0.197519 0.000000
0.422407 0.196265 0.000000
0.456461 0.195029 0.000000
0.490415 0.193812 0.000000
0.524280 0.192616 0.000000
0.558066 0.191439 0.000000
0.591778 0.190281 0.000000
0.625424 0.189141 0.000000
0.659009 0.188017 0.000000
0.692539 0.186908 0.000000
0.726017 0.185814 0.000000
0.759447 0.184733 0.000000
0.792832 0.183664 0.000000
0.826177 0.182608 0.000000
0.859484 0.181562 0.000000
0.892755 0.180526 0.000000
0.925993 0.179500 0.000000
0.959200 0.178482 0.000000
0.992377 0.177474 0.000000
1.000000 0.176473 0.000000
1.000000 0.175479 0.000000
1.000000 0.170683 0.000000
0.004512 0.239765 0.000000
0.038794 0.239669 0.000000
0.074004 0.239822 0.000000
0.110300 0.240154 0.000000
0.146988 0.240531 0.000000
0.183528 0.241195 0.000000
0.219568 0.241799 0.000000
0.247480 0.234697 0.000000
0.282268 0.233584 0.000000
0.316818 0.232467 0.000000
0.351216 0.231304 0.000000
0.385482 0.230116 0.000000
0.419632 0.228920 0.000000
0.453676 0.227725 0.000000
0.487626 0.226537 0.000000
0.521490 0.225362 0.000000
0.555276 0.224201 0.000000
0.588993 0.223054 0.000000
0.622646 0.221921 0.000000
0.656242 0.220803 0.000000
0.689784 0.219699 0.000000
0.723278 0.218607 0.000000
0.756725 0.217528 0.000000
0.790131 0.216461 0.000000
0.823497 0.215404 0.000000
0.856826 0.214357 0.000000
0.890120 0.213320 0.000000
0.923383 0.212293 0.000000
0.956615 0.211274 0.000000
0.989819 0.210263 0.000000
1.000000 0.209259 0.000000
1.000000 0.208263 0.000000
1.000000 0.202682 0.000000
0.004586 0.273727 0.000000
0.038825 0.273620 0.000000
0.073847 0.273725 0.000000
0.109625 0.273687 0.000000
0.145957 0.273385 0.000000
0.182002 0.273169 0.000000
0.217828 0.273392 0.000000
0.253312 0.273773 0.000000
0.279906 0.265680 0.000000
0.314492 0.264631 0.000000
0.348863 0.263590 0.000000
0.383108 0.262501 0.000000
0.417241 0.261380 0.000000
0.451275 0.260243 0.000000
0.485219 0.259100 0.000000
0.519083 0.257958 0.000000
0.552871 0.256821 0.000000
0.586592 0.255692 0.000000
0.620250 0.254573 0.000000
0.653852 0.253465 0.000000
0.687403 0.252368 0.000000
0.720906 0.251283 0.000000
0.754365 0.250208 0.000000
0.787784 0.249144 0.000000
0.821164 0.248089 0.000000
0.854509 0.247045 0.000000
0.887821 0.246009 0.000000
0.921101 0.244981 0.000000
0.954353 0.243962 0.000000
0.987576 0.242951 0.000000
1.000000 0.241947 0.000000
1.000000 0.240950 0.000000
1.000000 0.234581 0.000000
0.004662 0.307150 0.000000
0.038732 0.306377 0.000000
0.073310 0.305801 0.000000
0.108506 0.305432 0.000000
0.144502 0.305173 0.000000
0.180496 0.304972 0.000000
0.216230 0.304959 0.000000
0.251783 0.305332 0.000000
0.287021 0.305766 0.000000
0.312351 0.296671 0.000000
0.346780 0.295676 0.000000
0.381012 0.294690 0.000000
0.415134 0.293661 0.000000
0.449160 0.292597 0.000000
0.483099 0.291512 0.000000
0.516961 0.290416 0.000000
0.550752 0.289314 0.000000
0.584477 0.288212 0.000000
0.618142 0.287114 0.000000
0.651751 0.286022 0.000000
0.685309 0.284937 0.000000
0.718820 0.283861 0.000000
0.752289 0.282794 0.000000
0.785717 0.281735 0.000000
0.819109 0.280686 0.000000
0.852466 0.279644 0.000000
0.885791 0.278611 0.000000
0.919085 0.277586 0.000000
0.952351 0.276568 0.000000
0.985590 0.275558 0.000000
1.000000 0.274555 0.000000
1.000000 0.273558 0.000000
1.000000 0.266403 0.000000
0.004726 0.338756 0.000000
0.038566 0.338044 0.000000
0.072824 0.337496 0.000000
0.107688 0.337145 0.000000
0.143222 0.336919 0.000000
0.179129 0.336757 0.000000
0.214808 0.336630 0.000000
0.250337 0.336840 0.000000
0.285666 0.337304 0.000000
0.320710 0.337776 0.000000
0.344816 0.327668 0.000000
0.379119 0.326723 0.000000
0.413239 0.325775 0.000000
0.447262 0.324796 0.000000
0.481199 0.323782 0.000000
0.515061 0.322742 0.000000
0.548853 0.321687 0.000000
0.582583 0.320622 0.000000
0.616254 0.319554 0.000000
0.649872 0.318485 0.000000
0.683439 0.317418 0.000000
0.716959 0.316356 0.000000
0.750436 0.315299 0.000000
0.783874 0.314250 0.000000
0.817275 0.313207 0.000000
0.850642 0.312171 0.000000
0.883978 0.311143 0.000000
0.917284 0.310121 0.000000
0.950561 0.309106 0.000000
0.983813 0.308099 0.000000
1.000000 0.307097 0.000000
1.000000 0.306102 0.000000
1.000000 0.298166 0.000000
0.004804 0.370365 0.000000
0.038461 0.369705 0.000000
0.072455 0.369180 0.000000
0.107031 0.368842 0.000000
0.142099 0.368638 0.000000
0.177878 0.368501 0.000000
0.213550 0.368405 0.000000
0.249002 0.368406 0.000000
0.284356 0.368776 0.000000
0.319501 0.369299 0.000000
0.354390 0.369799 0.000000
0.377300 0.358671 0.000000
0.411501 0.357766 0.000000
0.445529 0.356849 0.000000
0.479468 0.355915 0.000000
0.513332 0.354943 0.000000
0.547128 0.353943 0.000000
0.580863 0.352925 0.000000
0.614540 0.351894 0.000000
0.648165 0.350856 0.000000
0.681741 0.349815 0.000000
0.715272 0.348773 0.000000
0.748760 0.347732 0.000000
0.782208 0.346695 0.000000
0.815620 0.345662 0.000000
0.848997 0.344635 0.000000
0.882342 0.343613 0.000000
0.915659 0.342597 0.000000
0.948947 0.341587 0.000000
0.982210 0.340582 0.000000
1.000000 0.339584 0.000000
1.000000 0.338591 0.000000
1.000000 0.329882 0.000000
0.004897 0.401977 0.000000
0.038405 0.401362 0.000000
0.072175 0.400857 0.000000
0.106502 0.400527 0.000000
0.141269 0.400334 0.000000
0.176743 0.400218 0.000000
0.212368 0.400149 0.000000
0.247809 0.400096 0.000000
0.283115 0.400274 0.000000
0.318313 0.400750 0.000000
0.353306 0.401313 0.000000
0.388067 0.401834 0.000000
0.409801 0.389681 0.000000
0.443919 0.388810 0.000000
0.477870 0.387918 0.000000
0.511740 0.387021 0.000000
0.545542 0.386086 0.000000
0.579282 0.385123 0.000000
0.612967 0.384138 0.000000
0.646599 0.383138 0.000000
0.680184 0.382129 0.000000
0.713725 0.381113 0.000000
0.747224 0.380095 0.000000
0.780684 0.379075 0.000000
0.814107 0.378056 0.000000
0.847495 0.377040 0.000000
0.880852 0.376028 0.000000
0.914179 0.375019 0.000000
0.947478 0.374016 0.000000
0.980751 0.373017 0.000000
1.000000 0.372023 0.000000
1.000000 0.371034 0.000000
1.000000 0.361563 0.000000
0.005003 0.433593 0.000000
0.038388 0.433017 0.000000
0.071969 0.432528 0.000000
0.106078 0.432206 0.000000
0.140627 0.432017 0.000000
0.175719 0.431917 0.000000
0.211264 0.431866 0.000000
0.246715 0.431842 0.000000
0.281972 0.431863 0.000000
0.317165 0.432204 0.000000
0.352227 0.432751 0.000000
0.387092 0.433342 0.000000
0.421747 0.433880 0.000000
0.442320 0.420698 0.000000
0.476367 0.419855 0.000000
0.510255 0.418984 0.000000
0.544066 0.418120 0.000000
0.577815 0.417218 0.000000
0.611507 0.416286 0.000000
0.645149 0.415332 0.000000
0.678743 0.414361 0.000000
0.712293 0.413378 0.000000
0.745802 0.412387 0.000000
0.779274 0.411390 0.000000
0.812709 0.410391 0.000000
0.846110 0.409391 0.000000
0.879479 0.408391 0.000000
0.912817 0.407393 0.000000
0.946128 0.406398 0.000000
0.979412 0.405406 0.000000
1.000000 0.404418 0.000000
1.000000 0.403435 0.000000
1.000000 0.393218 0.000000
0.005122 0.465213 0.000000
0.038400 0.464670 0.000000
0.071823 0.464197 0.000000
0.105741 0.463880 0.000000
0.140093 0.463693 0.000000
0.174799 0.463604 0.000000
0.210244 0.463564 0.000000
0.245668 0.463561 0.000000
0.280944 0.463570 0.000000
0.316082 0.463720 0.000000
0.351167 0.464176 0.000000
0.386110 0.464772 0.000000
0.420867 0.465383 0.000000
0.455431 0.465936 0.000000
0.474857 0.451721 0.000000
0.508844 0.450903 0.000000
0.542678 0.450049 0.000000
0.576438 0.449213 0.000000
0.610141 0.448341 0.000000
0.643793 0.447438 0.000000
0.677397 0.446512 0.000000
0.710958 0.445567 0.000000
0.744477 0.444609 0.000000
0.777960 0.443640 0.000000
0.811406 0.442665 0.000000
0.844819 0.441685 0.000000
0.878201 0.440702 0.000000
0.911552 0.439719 0.000000
0.944876 0.438736 0.000000
0.978138 0.437745 0.000000
1.000000 0.436715 0.000000
1.000000 0.435688 0.000000
1.000000 0.424791 0.000000
0.005252 0.496836 0.000000
0.038439 0.496322 0.000000
0.071727 0.495864 0.000000
0.105478 0.495551 0.000000
0.139651 0.495365 0.000000
0.174164 0.495278 0.000000
0.209305 0.495250 0.000000
0.244679 0.495261 0.000000
0.279968 0.495292 0.000000
0.315086 0.495338 0.000000
0.350149 0.495641 0.000000
0.385134 0.496179 0.000000
0.419973 0.496810 0.000000
0.454638 0.497436 0.000000
0.489123 0.498001 0.000000
0.507411 0.482751 0.000000
0.541346 0.481954 0.000000
0.575135 0.481115 0.000000
0.608851 0.480304 0.000000
0.642514 0.479458 0.000000
0.676130 0.478581 0.000000
0.709702 0.477680 0.000000
0.743233 0.476760 0.000000
0.776727 0.475825 0.000000
0.810185 0.474878 0.000000
0.843610 0.473923 0.000000
0.876851 0.472924 0.000000
0.910010 0.471908 0.000000
0.943141 0.470890 0.000000
0.976246 0.469870 0.000000
1.000000 0.468851 0.000000
1.000000 0.467833 0.000000
1.000000 0.456234 0.000000
0.005395 0.528462 0.000000
0.038500 0.527975 0.000000
0.071675 0.527531 0.000000
0.105276 0.527221 0.000000
0.139289 0.527034 0.000000
0.173643 0.526947 0.000000
0.208447 0.526928 0.000000
0.243751 0.526947 0.000000
0.279028 0.526994 0.000000
0.314179 0.527050 0.000000
0.349192 0.527186 0.000000
0.384180 0.527609 0.000000
0.419074 0.528206 0.000000
0.453822 0.528862 0.000000
0.488407 0.529500 0.000000
0.522824 0.530075 0.000000
0.539983 0.513787 0.000000
0.573872 0.513010 0.000000
0.607622 0.512182 0.000000
0.641300 0.511394 0.000000
0.674929 0.510571 0.000000
0.708514 0.509719 0.000000
0.742000 0.508827 0.000000
0.775297 0.507879 0.000000
0.808560 0.506914 0.000000
0.841790 0.505937 0.000000
0.874990 0.504950 0.000000
0.908161 0.503956 0.000000
0.941305 0.502956 0.000000
0.974423 0.501953 0.000000
1.000000 0.500948 0.000000
1.000000 0.499941 0.000000
1.000000 0.487667 0.000000
0.005548 0.560093 0.000000
0.038583 0.559629 0.000000
0.071660 0.559198 0.000000
0.105129 0.558891 0.000000
0.138995 0.558703 0.000000
0.173203 0.558613 0.000000
0.207679 0.558600 0.000000
0.242887 0.558625 0.000000
0.278131 0.558683 0.000000
0.313298 0.558757 0.000000
0.348316 0.558832 0.000000
0.383270 0.559099 0.000000
0.418185 0.559612 0.000000
0.452995 0.560252 0.000000
0.487664 0.560927 0.000000
0.522180 0.561574 0.000000
0.556513 0.562152 0.000000
0.572571 0.544831 0.000000
0.606422 0.544070 0.000000
0.639985 0.543214 0.000000
0.673416 0.542395 0.000000
0.706804 0.541542 0.000000
0.740151 0.540660 0.000000
0.773461 0.539753 0.000000
0.806735 0.538825 0.000000
0.839978 0.537880 0.000000
0.873189 0.536922 0.000000
0.906372 0.535953 0.000000
0.939528 0.534976 0.000000
0.972659 0.533992 0.000000
1.000000 0.533004 0.000000
1.000000 0.532012 0.000000
1.000000 0.519094 0.000000
0.005713 0.591728 0.000000
0.038685 0.591284 0.000000
0.071679 0.590867 0.000000
0.105028 0.590562 0.000000
0.138762 0.590372 0.000000
0.172834 0.590279 0.000000
0.207180 0.590264 0.000000
0.242087 0.590297 0.000000
0.277282 0.590363 0.000000
0.312445 0.590449 0.000000
0.347500 0.590542 0.000000
0.382420 0.590674 0.000000
0.417324 0.591061 0.000000
0.452168 0.591641 0.000000
0.486655 0.592254 0.000000
0.521002 0.592881 0.000000
0.555208 0.593476 0.000000
0.589264 0.594007 0.000000
0.604505 0.575718 0.000000
0.638109 0.574921 0.000000
0.671586 0.574071 0.000000
0.704990 0.573258 0.000000
0.738351 0.572424 0.000000
0.771674 0.571562 0.000000
0.804962 0.570674 0.000000
0.838217 0.569766 0.000000
0.871441 0.568840 0.000000
0.904637 0.567899 0.000000
0.937805 0.566947 0.000000
0.970947 0.565986 0.000000
1.000000 0.565018 0.000000
1.000000 0.564044 0.000000
1.000000 0.550515 0.000000
0.005889 0.623366 0.000000
0.038805 0.622941 0.000000
0.071727 0.622536 0.000000
0.104969 0.622233 0.000000
0.138583 0.622042 0.000000
0.172528 0.621946 0.000000
0.206752 0.621928 0.000000
0.241349 0.621966 0.000000
0.276484 0.622035 0.000000
0.311626 0.622131 0.000000
0.346698 0.622239 0.000000
0.381424 0.622295 0.000000
0.416041 0.622469 0.000000
0.450641 0.622889 0.000000
0.485166 0.623458 0.000000
0.519581 0.624093 0.000000
0.553867 0.624731 0.000000
0.588021 0.625332 0.000000
0.622030 0.625871 0.000000
0.636188 0.606546 0.000000
0.669761 0.605763 0.000000
0.703214 0.604931 0.000000
0.736593 0.604122 0.000000
0.769930 0.603306 0.000000
0.803232 0.602462 0.000000
0.836501 0.601593 0.000000
0.869738 0.600702 0.000000
0.902946 0.599794 0.000000
0.936127 0.598871 0.000000
0.969282 0.597935 0.000000
1.000000 0.596989 0.000000
1.000000 0.596035 0.000000
1.000000 0.581931 0.000000
0.006076 0.655008 0.000000
0.038942 0.654600 0.000000
0.071801 0.654208 0.000000
0.104947 0.653907 0.000000
0.138451 0.653713 0.000000
0.172280 0.653613 0.000000
0.206388 0.653592 0.000000
0.240722 0.653632 0.000000
0.275529 0.653655 0.000000
0.310389 0.653697 0.000000
0.345216 0.653757 0.000000
0.379950 0.653822 0.000000
0.414555 0.653900 0.000000
0.449138 0.654191 0.000000
0.483685 0.654683 0.000000
0.518150 0.655291 0.000000
0.552505 0.655944 0.000000
0.586737 0.656591 0.000000
0.620845 0.657196 0.000000
0.654812 0.657741 0.000000
0.667889 0.637381 0.000000
0.701436 0.636610 0.000000
0.734866 0.635795 0.000000
0.768224 0.634989 0.000000
0.801540 0.634189 0.000000
0.834823 0.633362 0.000000
0.868074 0.632510 0.000000
0.901296 0.631636 0.000000
0.934490 0.630744 0.000000
0.967658 0.629837 0.000000
1.000000 0.628917 0.000000
1.000000 0.627986 0.000000
1.000000 0.613343 0.000000
0.006274 0.686654 0.000000
0.039094 0.686262 0.000000
0.071901 0.685881 0.000000
0.104958 0.685582 0.000000
0.138362 0.685386 0.000000
0.171857 0.685229 0.000000
0.205622 0.685147 0.000000
0.239616 0.685128 0.000000
0.274104 0.685147 0.000000
0.308921 0.685193 0.000000
0.343736 0.685261 0.000000
0.378488 0.685337 0.000000
0.413129 0.685414 0.000000
0.447678 0.685566 0.000000
0.482224 0.685952 0.000000
0.516719 0.686501 0.000000
0.551128 0.687139 0.000000
0.585429 0.687806 0.000000
0.619614 0.688459 0.000000
0.653680 0.689069 0.000000
0.687609 0.689620 0.000000
0.699608 0.668222 0.000000
0.733131 0.667463 0.000000
0.766543 0.666662 0.000000
0.799881 0.665859 0.000000
0.833179 0.665074 0.000000
0.866444 0.664262 0.000000
0.899680 0.663426 0.000000
0.932888 0.662568 0.000000
0.966069 0.661692 0.000000
0.999225 0.660800 0.000000
1.000000 0.659895 0.000000
1.000000 0.644752 0.000000
0.006482 0.718304 0.000000
0.039193 0.717910 0.000000
0.071735 0.717490 0.000000
0.104492 0.717140 0.000000
0.137578 0.716888 0.000000
0.170971 0.716725 0.000000
0.204635 0.716639 0.000000
0.238531 0.716616 0.000000
0.272731 0.716639 0.000000
0.307497 0.716687 0.000000
0.342288 0.716759 0.000000
0.377045 0.716845 0.000000
0.411719 0.716935 0.000000
0.446273 0.717025 0.000000
0.480795 0.717283 0.000000
0.515301 0.717745 0.000000
0.549748 0.718339 0.000000
0.584105 0.719000 0.000000
0.618357 0.719677 0.000000
0.652498 0.720335 0.000000
0.686528 0.720950 0.000000
0.720422 0.721506 0.000000
0.731346 0.699069 0.000000
0.764847 0.698321 0.000000
0.798242 0.697533 0.000000
0.831563 0.696732 0.000000
0.864844 0.695962 0.000000
0.898094 0.695164 0.000000
0.931316 0.694343 0.000000
0.964511 0.693500 0.000000
0.997681 0.692639 0.000000
1.000000 0.691761 0.000000
1.000000 0.676161 0.000000
0.006110 0.749819 0.000000
0.038634 0.749402 0.000000
0.071139 0.748993 0.000000
0.103823 0.748644 0.000000
0.136827 0.748391 0.000000
0.170128 0.748224 0.000000
0.203698 0.748133 0.000000
0.237501 0.748105 0.000000
0.271497 0.748129 0.000000
0.306118 0.748179 0.000000
0.340876 0.748254 0.000000
0.375626 0.748347 0.000000
0.410319 0.748447 0.000000
0.444914 0.748547 0.000000
0.479410 0.748687 0.000000
0.513907 0.749040 0.000000
0.548372 0.749564 0.000000
0.582772 0.750193 0.000000
0.617082 0.750872 0.000000
0.651291 0.751558 0.000000
0.685393 0.752220 0.000000
0.719390 0.752838 0.000000
0.753251 0.753399 0.000000
0.763101 0.729923 0.000000
0.796583 0.729185 0.000000
0.829963 0.728408 0.000000
0.863269 0.727609 0.000000
0.896535 0.726852 0.000000
0.929771 0.726068 0.000000
0.962981 0.725261 0.000000
0.996164 0.724432 0.000000
1.000000 0.723585 0.000000
1.000000 0.707569 0.000000
0.005600 0.781301 0.000000
0.038091 0.780897 0.000000
0.070563 0.780498 0.000000
0.103182 0.780151 0.000000
0.136108 0.779896 0.000000
0.169325 0.779725 0.000000
0.202806 0.779629 0.000000
0.236521 0.779597 0.000000
0.270432 0.779617 0.000000
0.304783 0.779671 0.000000
0.339501 0.779748 0.000000
0.374235 0.779845 0.000000
0.408934 0.779953 0.000000
0.443560 0.780065 0.000000
0.478077 0.780173 0.000000
0.512546 0.780400 0.000000
0.547013 0.780831 0.000000
0.581440 0.781404 0.000000
0.615796 0.782061 0.000000
0.650062 0.782755 0.000000
0.684231 0.783447 0.000000
0.718298 0.784113 0.000000
0.752265 0.784735 0.000000
0.786096 0.785300 0.000000
0.794874 0.760784 0.000000
0.828338 0.760054 0.000000
0.861706 0.759289 0.000000
0.894999 0.758491 0.000000
0.928250 0.757745 0.000000
0.961475 0.756975 0.000000
0.994673 0.756180 0.000000
1.000000 0.755365 0.000000
1.000000 0.738978 0.000000
0.005102 0.812788 0.000000
0.037563 0.812394 0.000000
0.070006 0.812006 0.000000
0.102565 0.811661 0.000000
0.135421 0.811404 0.000000
0.168559 0.811229 0.000000
0.201957 0.811128 0.000000
0.235587 0.811091 0.000000
0.269417 0.811107 0.000000
0.303492 0.811164 0.000000
0.338165 0.811241 0.000000
0.372874 0.811341 0.000000
0.407571 0.811455 0.000000
0.442215 0.811576 0.000000
0.476771 0.811696 0.000000
0.511228 0.811833 0.000000
0.545680 0.812154 0.000000
0.580117 0.812650 0.000000
0.614505 0.813263 0.000000
0.648820 0.813943 0.000000
0.683047 0.814647 0.000000
0.717179 0.815345 0.000000
0.751214 0.816014 0.000000
0.785154 0.816639 0.000000
0.818959 0.817208 0.000000
0.826664 0.791651 0.000000
0.860113 0.790930 0.000000
0.893469 0.790175 0.000000
0.926750 0.789377 0.000000
0.959990 0.788643 0.000000
0.993202 0.787884 0.000000
1.000000 0.787102 0.000000
1.000000 0.770391 0.000000
0.004615 0.844278 0.000000
0.037048 0.843894 0.000000
0.069465 0.843517 0.000000
0.101972 0.843173 0.000000
0.134762 0.842915 0.000000
0.167826 0.842737 0.000000
0.201146 0.842631 0.000000
0.234697 0.842588 0.000000
0.268448 0.842600 0.000000
0.302369 0.842655 0.000000
0.336868 0.842734 0.000000
0.371546 0.842836 0.000000
0.406231 0.842954 0.000000
0.440883 0.843082 0.000000
0.475468 0.843213 0.000000
0.509957 0.843340 0.000000
0.544381 0.843543 0.000000
0.578814 0.843943 0.000000
0.613219 0.844492 0.000000
0.647570 0.845138 0.000000
