Camera18_LUT_V0/luts/canon-g7x2.cube
TITLE "Camera18 V0 - Canon G7 X II inspired"
LUT_3D_SIZE 9
DOMAIN_MIN 0.0 0.0 0.0
DOMAIN_MAX 1.0 1.0 1.0
# Original Camera 18 V0 approximation; input expected normalized display-referred RGB.
# Warm/pleasant skin, modest saturation, gentle midtone lift; starting point only.
0.004300 0.002150 0.000000
0.143775 0.001587 0.000000
0.283267 0.001029 0.000052
0.422774 0.000479 0.002209
0.562298 0.000000 0.004354
0.701838 0.000000 0.006485
0.841393 0.000000 0.008603
0.980965 0.000000 0.010709
1.000000 0.000000 0.012392
0.004356 0.137904 0.000000
0.143393 0.135219 0.000000
0.284271 0.132140 0.000000
0.424376 0.128608 0.000000
0.564254 0.125080 0.000000
0.699677 0.120810 0.000000
0.833012 0.116547 0.000000
0.965696 0.112473 0.000000
1.000000 0.106268 0.000000
0.004586 0.273727 0.000000
0.145957 0.273385 0.000000
0.279906 0.265680 0.000000
0.417241 0.261380 0.000000
0.552871 0.256821 0.000000
0.687403 0.252368 0.000000
0.821164 0.248089 0.000000
0.954353 0.243962 0.000000
1.000000 0.234581 0.000000
0.004897 0.401977 0.000000
0.141269 0.400334 0.000000
0.283115 0.400274 0.000000
0.409801 0.389681 0.000000
0.545542 0.386086 0.000000
0.680184 0.382129 0.000000
0.814107 0.378056 0.000000
0.947478 0.374016 0.000000
1.000000 0.361563 0.000000
0.005395 0.528462 0.000000
0.139289 0.527034 0.000000
0.279028 0.526994 0.000000
0.419074 0.528206 0.000000
0.539983 0.513787 0.000000
0.674929 0.510571 0.000000
0.808560 0.506914 0.000000
0.941305 0.502956 0.000000
1.000000 0.487667 0.000000
0.006076 0.655008 0.000000
0.138451 0.653713 0.000000
0.275529 0.653655 0.000000
0.414555 0.653900 0.000000
0.552505 0.655944 0.000000
0.667889 0.637381 0.000000
0.801540 0.634189 0.000000
0.934490 0.630744 0.000000
1.000000 0.613343 0.000000
0.005600 0.781301 0.000000
0.136108 0.779896 0.000000
0.270432 0.779617 0.000000
0.408934 0.779953 0.000000
0.547013 0.780831 0.000000
0.684231 0.783447 0.000000
0.794874 0.760784 0.000000
0.928250 0.757745 0.000000
1.000000 0.738978 0.000000
0.003678 0.907269 0.000000
0.133522 0.905946 0.000000
0.266639 0.905595 0.000000
0.403633 0.905950 0.000000
0.541906 0.906524 0.000000
0.679426 0.908234 0.000000
0.815376 0.910298 0.000000
0.921085 0.883279 0.000000
1.000000 0.862932 0.000000
0.001937 1.000000 0.000000
0.131309 1.000000 0.000000
0.263243 1.000000 0.000000
0.397681 1.000000 0.000000
0.533261 1.000000 0.000000
0.667025 1.000000 0.000000
0.798197 1.000000 0.000000
0.926733 1.000000 0.000000
1.000000 0.982063 0.000000
0.005435 0.001339 0.130994
0.140472 0.000805 0.131547
0.280486 0.000230 0.136658
0.419417 0.000000 0.138388
0.558881 0.000000 0.140641
0.698433 0.000000 0.142892
0.838009 0.000000 0.145098
0.977058 0.000000 0.147186
1.000000 0.000000 0.145426
0.003236 0.135638 0.130468
0.142774 0.139421 0.132761
0.282333 0.137415 0.133444
0.421908 0.135414 0.134115
0.559834 0.133024 0.134376
0.693781 0.130057 0.134009
0.826920 0.127322 0.133825
0.959475 0.124754 0.133771
1.000000 0.119944 0.131110
0.003481 0.272934 0.129769
0.138822 0.270920 0.127544
0.278034 0.268596 0.129065
0.415814 0.263552 0.125047
0.551132 0.257012 0.121377
0.685419 0.250723 0.118064
0.819020 0.244718 0.114989
0.952107 0.238942 0.112076
1.000000 0.228302 0.106834
0.003823 0.400582 0.126006
0.136059 0.398398 0.123358
0.275229 0.398021 0.124814
0.408231 0.392780 0.124997
0.544455 0.388827 0.120764
0.679079 0.383009 0.116904
0.812865 0.376951 0.113411
0.946114 0.370975 0.110148
1.000000 0.356812 0.104545
0.004352 0.527235 0.123189
0.134658 0.525470 0.120169
0.270752 0.524744 0.120663
0.411833 0.525937 0.123682
0.538580 0.516986 0.121900
0.673949 0.513631 0.117506
0.807359 0.508306 0.113827
0.940123 0.502425 0.110487
1.000000 0.485094 0.104696
0.005059 0.653884 0.120863
0.133954 0.652396 0.117353
0.267552 0.651426 0.117443
0.406673 0.651953 0.120791
0.545579 0.653936 0.122982
0.666227 0.640553 0.120560
0.800253 0.637363 0.116465
0.933383 0.632586 0.112597
1.000000 0.613116 0.106389
0.004330 0.780184 0.119531
0.131251 0.778693 0.115904
0.262985 0.777553 0.115851
0.400680 0.777862 0.118553
0.539475 0.778735 0.122163
0.677643 0.781694 0.122585
0.793297 0.764002 0.119662
0.926999 0.761060 0.115468
1.000000 0.740791 0.108918
0.002429 0.906204 0.118921
0.128393 0.904864 0.114725
0.259204 0.903721 0.114409
0.395446 0.903826 0.116494
0.534088 0.904664 0.119926
0.672167 0.906099 0.122806
0.808524 0.908168 0.121714
0.918651 0.885637 0.118428
1.000000 0.865205 0.111741
0.000708 1.000000 0.118288
0.125817 1.000000 0.113511
0.255960 1.000000 0.112998
0.390033 1.000000 0.114286
0.525453 1.000000 0.116828
0.659860 1.000000 0.119740
0.791759 1.000000 0.120664
0.920675 1.000000 0.118144
1.000000 0.984474 0.114377
0.006571 0.000529 0.266286
0.142524 0.000001 0.265470
0.276671 0.000000 0.267372
0.418042 0.000000 0.276118
0.556756 0.000000 0.277548
0.695505 0.000000 0.278989
0.834707 0.000000 0.280937
0.971092 0.000000 0.282228
1.000000 0.000000 0.277784
0.002121 0.131130 0.265448
0.139794 0.134512 0.264553
0.276863 0.135343 0.266387
0.418313 0.135521 0.272183
0.554210 0.133451 0.271604
0.688274 0.130788 0.270855
0.821584 0.128208 0.270288
0.954295 0.125740 0.269863
1.000000 0.121238 0.264775
0.002377 0.269207 0.265073
0.137107 0.267784 0.262151
0.277183 0.272493 0.265316
0.412515 0.269168 0.264578
0.546937 0.266101 0.264052
0.680667 0.263232 0.263686
0.813857 0.260520 0.263442
0.946621 0.257933 0.263294
1.000000 0.250398 0.257930
0.002755 0.399226 0.258829
0.134832 0.397137 0.256258
0.267779 0.395280 0.254420
0.406699 0.395902 0.258148
0.543539 0.392256 0.255032
0.677597 0.386178 0.251407
0.810908 0.380174 0.248026
0.943788 0.374372 0.244851
1.000000 0.360601 0.236418
0.003314 0.526029 0.254521
0.133524 0.524320 0.251780
0.265538 0.522738 0.250262
0.403712 0.523425 0.252153
0.537201 0.520198 0.253872
0.672780 0.517134 0.250441
0.806059 0.511560 0.247082
0.938539 0.505570 0.243940
1.000000 0.488149 0.235179
0.004044 0.652776 0.251262
0.132875 0.651324 0.248130
0.263621 0.649785 0.247089
0.397995 0.649438 0.248167
0.537926 0.651382 0.252243
0.664580 0.643734 0.251981
0.799098 0.640920 0.248467
0.932264 0.635984 0.244911
1.000000 0.616011 0.235836
0.003062 0.779078 0.249429
0.129937 0.777610 0.246239
0.260031 0.776168 0.245378
0.392526 0.775459 0.245712
0.531475 0.776656 0.249351
0.670593 0.779537 0.252108
0.791732 0.767228 0.250569
0.925851 0.764638 0.246839
1.000000 0.743812 0.237663
0.001182 0.905148 0.248352
0.127112 0.903825 0.244628
0.256894 0.902502 0.243794
0.388161 0.901629 0.243686
0.525699 0.902430 0.246559
0.664495 0.903855 0.250421
0.801407 0.905796 0.250919
0.916255 0.888018 0.248430
1.000000 0.867576 0.239435
0.000000 1.000000 0.247361
0.124563 1.000000 0.243078
0.254111 1.000000 0.242251
0.383804 1.000000 0.241385
0.517572 1.000000 0.242571
0.652360 1.000000 0.245005
0.785122 1.000000 0.246840
0.914597 1.000000 0.244740
1.000000 0.986903 0.240977
0.007709 0.000000 0.401577
0.143667 0.000000 0.400756
0.279641 0.000000 0.399924
0.412896 0.000000 0.403176
0.555625 0.000000 0.415556
0.694360 0.000000 0.416970
0.833111 0.000000 0.418370
0.966358 0.000000 0.417375
1.000000 0.000000 0.410044
0.001005 0.128084 0.400756
0.140351 0.133106 0.399835
0.276986 0.132604 0.398959
0.413154 0.133432 0.402141
0.551431 0.132496 0.408225
0.684567 0.130522 0.406301
0.816970 0.128716 0.404885
0.949335 0.126669 0.404125
1.000000 0.122602 0.397442
0.001271 0.263040 0.399407
0.134885 0.262008 0.395224
0.270676 0.264118 0.391458
0.404722 0.264827 0.392352
0.542035 0.265120 0.397430
0.675293 0.263036 0.397018
0.808713 0.260744 0.397063
0.941694 0.258399 0.397039
1.000000 0.251661 0.390056
0.001682 0.393795 0.390526
0.133323 0.392833 0.388017
0.265848 0.392113 0.385718
0.406620 0.400447 0.392386
0.540330 0.397610 0.391996
0.673603 0.394903 0.391704
0.806515 0.392302 0.391493
0.939127 0.389793 0.391347
1.000000 0.379599 0.383438
0.002278 0.524846 0.385641
0.132397 0.523188 0.383203
0.264345 0.521655 0.381425
0.395842 0.520255 0.379732
0.535844 0.523424 0.385665
0.671856 0.520721 0.383847
0.804472 0.514737 0.380693
0.936423 0.508712 0.377681
1.000000 0.491616 0.366177
0.003032 0.651681 0.381520
0.131753 0.650252 0.378805
0.262227 0.648694 0.377699
0.392393 0.647232 0.376634
0.529339 0.648514 0.379536
0.662949 0.646925 0.383284
0.798194 0.644606 0.380735
0.931203 0.639374 0.377516
1.000000 0.618968 0.365484
0.001796 0.777981 0.379228
0.128628 0.776537 0.376483
0.258689 0.775120 0.375488
0.388525 0.773777 0.374515
0.522561 0.773888 0.375769
0.662700 0.776717 0.380451
0.790178 0.770461 0.381392
0.924887 0.768327 0.378366
1.000000 0.746779 0.366436
0.000000 0.904099 0.377709
0.125833 0.902794 0.374461
0.255592 0.901490 0.373525
0.385178 0.900246 0.372599
0.517355 0.899830 0.372975
0.656361 0.901624 0.376955
0.793807 0.903001 0.379335
0.913895 0.890421 0.378123
1.000000 0.869943 0.366856
0.000000 1.000000 0.376376
0.123311 1.000000 0.372591
0.252824 1.000000 0.371658
0.381307 1.000000 0.369875
0.510597 1.000000 0.368744
0.644514 1.000000 0.370102
0.778167 1.000000 0.372298
0.908471 1.000000 0.371112
1.000000 0.989349 0.367337
0.008848 0.000000 0.536866
0.144812 0.000000 0.536042
0.280790 0.000000 0.535206
0.416784 0.000000 0.534358
0.549148 0.000000 0.538959
0.693236 0.000000 0.554973
0.831992 0.000000 0.556370
0.962909 0.000000 0.553241
1.000000 0.000000 0.543155
0.000000 0.125037 0.536064
0.140909 0.131699 0.535116
0.277549 0.131199 0.534236
0.413542 0.130496 0.532490
0.544141 0.130255 0.532658
0.682221 0.129493 0.541888
0.814630 0.127753 0.539898
0.946496 0.126139 0.538352
1.000000 0.122881 0.529489
0.000170 0.259414 0.533391
0.132970 0.257961 0.528441
0.270788 0.262300 0.523669
0.403132 0.260579 0.520246
0.535321 0.261595 0.522330
0.673168 0.262090 0.530740
0.805507 0.260284 0.529906
0.937471 0.258576 0.529276
1.000000 0.252866 0.521259
0.000609 0.386298 0.521486
0.131261 0.385882 0.518485
0.263395 0.386284 0.515722
0.396959 0.388989 0.513081
0.530758 0.391378 0.515899
0.668251 0.393250 0.522666
0.800794 0.391481 0.522682
0.933798 0.389532 0.523142
1.000000 0.380799 0.514762
0.001226 0.518202 0.515500
0.130971 0.517629 0.513331
0.262544 0.517202 0.511265
0.393669 0.516904 0.509316
0.536059 0.528448 0.519314
0.668095 0.525673 0.519523
0.799882 0.522976 0.519783
0.931454 0.520346 0.520087
1.000000 0.507455 0.509767
0.002022 0.650600 0.511645
0.130408 0.649138 0.509475
0.260839 0.647612 0.508200
0.390972 0.646179 0.506981
0.520847 0.644826 0.505809
0.661333 0.650124 0.514476
0.797570 0.648418 0.513573
0.929798 0.642636 0.510476
1.000000 0.622205 0.495594
0.000533 0.776895 0.508932
0.127322 0.775473 0.506639
0.257352 0.774080 0.505518
0.387162 0.772759 0.504429
0.516780 0.771501 0.503366
0.653804 0.773514 0.506790
0.788636 0.773699 0.512134
0.924207 0.772182 0.510231
1.000000 0.749704 0.495341
0.000000 0.903058 0.506995
0.124558 0.901769 0.504228
0.254293 0.900485 0.503193
0.383860 0.899258 0.502176
0.513279 0.898083 0.501173
0.647103 0.898459 0.502549
0.785324 0.899506 0.506386
0.911570 0.892845 0.507519
1.000000 0.872289 0.494033
0.000000 1.000000 0.505335
0.122062 1.000000 0.502052
0.251366 1.000000 0.500650
0.379756 1.000000 0.498511
0.507500 1.000000 0.496454
0.636902 1.000000 0.495391
0.770758 1.000000 0.496956
0.902233 1.000000 0.497190
1.000000 0.991812 0.493466
0.009990 0.000000 0.672154
0.145958 0.000000 0.671326
0.281941 0.000000 0.670486
0.417940 0.000000 0.669634
0.553953 0.000000 0.668770
0.685426 0.000000 0.674721
0.828765 0.000000 0.692605
0.959636 0.000000 0.688562
1.000000 0.000000 0.675971
0.000000 0.121992 0.671371
0.141468 0.130294 0.670396
0.278114 0.129795 0.669512
0.413013 0.128754 0.665777
0.545090 0.127332 0.660008
0.673792 0.127368 0.661780
0.812389 0.126789 0.674575
0.944288 0.125210 0.672609
1.000000 0.121990 0.661477
0.000000 0.255838 0.666859
0.131073 0.253948 0.661274
0.270927 0.260513 0.655497
0.403170 0.258872 0.651611
0.534607 0.257431 0.648200
0.665220 0.258662 0.651556
0.803782 0.259300 0.663356
0.935713 0.257636 0.662437
1.000000 0.252415 0.652199
0.000000 0.382922 0.652946
0.129500 0.382011 0.649581
0.261566 0.382474 0.646438
0.397225 0.387340 0.643289
0.528079 0.386005 0.640831
0.660513 0.388554 0.644853
0.798874 0.390528 0.654983
0.930519 0.388853 0.654634
1.000000 0.381560 0.645192
0.000169 0.509488 0.644713
0.128974 0.509423 0.642253
0.260191 0.510090 0.639890
0.390960 0.510885 0.637680
0.523311 0.513851 0.635579
0.656591 0.517492 0.640449
0.793716 0.520572 0.649182
0.924991 0.518828 0.649880
1.000000 0.508678 0.640383
0.000980 0.642682 0.640288
0.128888 0.642250 0.638555
0.258948 0.641809 0.637091
0.388708 0.641458 0.635701
0.518212 0.641187 0.634374
0.662030 0.655652 0.647903
0.793593 0.653051 0.648183
0.924996 0.650504 0.648495
1.000000 0.635010 0.635569
0.000000 0.775817 0.638546
0.126019 0.774416 0.636711
0.256019 0.773048 0.635471
0.385805 0.771748 0.634271
0.515402 0.770509 0.633104
0.644834 0.769325 0.631967
0.787105 0.776945 0.642799
0.923848 0.776206 0.642741
1.000000 0.752734 0.624634
0.000000 0.902024 0.636211
0.123285 0.900750 0.633930
0.252998 0.899485 0.632801
0.382546 0.898276 0.631697
0.511949 0.897116 0.630612
0.640778 0.895381 0.629107
0.775830 0.895620 0.631317
0.909278 0.895290 0.636629
1.000000 0.874584 0.621022
0.000000 1.000000 0.634241
0.120815 1.000000 0.631461
0.249916 1.000000 0.629406
0.378215 1.000000 0.626925
0.505881 1.000000 0.624546
0.632970 1.000000 0.622258
0.762898 1.000000 0.621484
0.895722 1.000000 0.622752
1.000000 0.994290 0.619372
0.011132 0.000000 0.807441
0.147106 0.000000 0.806609
0.283094 0.000000 0.805765
0.419097 0.000000 0.804909
0.555116 0.000000 0.804041
0.691149 0.000000 0.803161
0.818203 0.000000 0.806983
0.956520 0.000000 0.823395
1.000000 0.000000 0.808385
0.000000 0.118946 0.806677
0.142029 0.128889 0.805674
0.278679 0.128392 0.804787
0.412564 0.127046 0.798506
0.544586 0.125701 0.792155
0.675675 0.124535 0.786861
0.802816 0.124751 0.790218
0.942142 0.124291 0.806591
1.000000 0.121108 0.793227
0.000000 0.252309 0.799859
0.129192 0.249966 0.793752
0.271091 0.258756 0.786974
0.403236 0.257187 0.782680
0.534611 0.255803 0.778914
0.665389 0.254564 0.775556
0.794610 0.255952 0.780224
0.934013 0.256692 0.795445
1.000000 0.251507 0.783082
0.000000 0.379572 0.784160
0.127747 0.378158 0.780481
0.259746 0.378678 0.776985
0.397505 0.385706 0.773315
0.528311 0.384412 0.770619
0.658713 0.383227 0.768120
0.789890 0.385901 0.773383
0.928780 0.387849 0.787114
1.000000 0.380607 0.775604
0.000000 0.506248 0.774835
0.127286 0.505656 0.772168
0.258460 0.506363 0.769571
0.389196 0.507191 0.767151
0.523399 0.512229 0.764865
0.652621 0.510913 0.763256
0.784745 0.514653 0.769342
0.922877 0.517784 0.781458
1.000000 0.508675 0.770249
0.000000 0.632695 0.768323
0.126855 0.632732 0.766431
0.256556 0.633367 0.764770
0.385955 0.634091 0.763203
0.515096 0.634894 0.761715
0.646098 0.637860 0.760228
0.780177 0.642913 0.766480
0.918183 0.647388 0.776547
1.000000 0.636191 0.765581
0.000000 0.766574 0.766328
0.124552 0.766215 0.764926
0.254196 0.765922 0.763545
0.383623 0.765698 0.762216
0.512862 0.765534 0.760931
0.641935 0.765425 0.759684
0.788351 0.782982 0.776194
0.919613 0.780509 0.776507
1.000000 0.762115 0.760691
0.000000 0.900997 0.765362
0.122016 0.899738 0.763569
0.251706 0.898492 0.762352
0.381236 0.897299 0.761163
0.510624 0.896154 0.759999
0.638962 0.893764 0.757763
0.766167 0.890665 0.754910
0.907019 0.897754 0.765465
1.000000 0.876795 0.747988
0.000000 1.000000 0.763094
0.119570 1.000000 0.760820
0.248474 1.000000 0.757934
0.376684 1.000000 0.755125
0.504273 1.000000 0.752437
0.631295 1.000000 0.749856
0.757800 1.000000 0.747374
0.888550 1.000000 0.747155
1.000000 0.996785 0.745061
0.012277 0.000000 0.942727
0.148255 0.000000 0.941891
0.284249 0.000000 0.941043
0.420257 0.000000 0.940183
0.556280 0.000000 0.939311
0.692319 0.000000 0.938426
0.822540 0.000000 0.930930
0.945052 0.000000 0.933333
1.000000 0.000000 0.940435
0.000000 0.115901 0.941982
0.142592 0.127484 0.940951
0.278973 0.126865 0.939139
0.412187 0.125367 0.930736
0.544150 0.124092 0.923894
0.675221 0.122978 0.918168
0.805632 0.121986 0.913267
0.931416 0.122323 0.918176
1.000000 0.120234 0.924756
0.000000 0.248822 0.932431
0.127326 0.246013 0.925901
0.271278 0.257024 0.918131
0.403328 0.255523 0.913477
0.534643 0.254192 0.909392
0.665382 0.252995 0.905752
0.795665 0.251907 0.902465
0.923622 0.253412 0.908465
1.000000 0.250607 0.913819
0.000000 0.376244 0.915142
0.126001 0.374321 0.911195
0.257935 0.374896 0.907373
0.397797 0.384087 0.903168
0.528557 0.382831 0.900256
0.658925 0.381679 0.897560
0.788968 0.380614 0.895044
0.918463 0.383261 0.901836
1.000000 0.379641 0.905919
0.000000 0.503023 0.904812
0.125602 0.501901 0.901965
0.256733 0.502644 0.899147
0.387438 0.503504 0.896528
0.523496 0.510617 0.894046
0.652691 0.509325 0.892293
0.781651 0.508103 0.890639
0.912672 0.511924 0.897959
1.000000 0.507720 0.900140
0.000000 0.629541 0.897614
0.125005 0.628986 0.895701
0.254678 0.629648 0.893881
0.384055 0.630396 0.892170
0.513178 0.631220 0.890550
0.646251 0.636298 0.888856
0.775025 0.635136 0.887438
0.908049 0.640258 0.894917
1.000000 0.635480 0.895099
0.000000 0.755275 0.893495
0.122566 0.755387 0.891958
0.251862 0.756163 0.890429
0.380938 0.757006 0.888965
0.509824 0.757910 0.887556
0.638543 0.758869 0.886195
0.769203 0.761971 0.884813
0.904250 0.768398 0.892377
1.000000 0.762105 0.889407
0.000000 0.890436 0.892401
0.120590 0.890209 0.891074
0.249933 0.890033 0.889746
0.379114 0.889911 0.888455
0.508152 0.889837 0.887195
0.635873 0.888147 0.884310
0.762658 0.886100 0.881058
0.907782 0.903248 0.897058
1.000000 0.882214 0.878604
0.000000 1.000000 0.891896
0.118246 1.000000 0.889516
0.247041 1.000000 0.886240
0.375163 1.000000 0.883117
0.502676 1.000000 0.880131
0.629631 1.000000 0.877269
0.756079 1.000000 0.874520
0.882062 1.000000 0.871874
1.000000 0.999295 0.870541
0.013423 0.000000 1.000000
0.149406 0.000000 1.000000
0.285405 0.000000 1.000000
0.421418 0.000000 1.000000
0.557446 0.000000 1.000000
0.692376 0.000000 1.000000
0.821730 0.000000 1.000000
0.950524 0.000000 1.000000
1.000000 0.000000 1.000000
0.000000 0.112856 1.000000
0.143156 0.126080 1.000000
0.278787 0.125127 1.000000
0.411875 0.123715 1.000000
0.543777 0.122503 1.000000
0.674824 0.121436 1.000000
0.805234 0.120481 1.000000
0.935158 0.119611 1.000000
1.000000 0.119468 1.000000
0.000000 0.245374 1.000000
0.125475 0.242088 1.000000
0.271485 0.255317 1.000000
0.403445 0.253878 1.000000
0.534700 0.252595 1.000000
0.665402 0.251438 1.000000
0.795662 0.250383 1.000000
0.925564 0.249412 1.000000
1.000000 0.249803 1.000000
0.000000 0.372938 1.000000
0.124261 0.370501 1.000000
0.256132 0.371128 1.000000
0.398102 0.382481 1.000000
0.528815 0.381262 1.000000
0.659151 0.380140 1.000000
0.789171 0.379102 1.000000
0.918263 0.377970 1.000000
1.000000 0.378761 1.000000
0.000000 0.499811 1.000000
0.123923 0.498157 1.000000
0.255012 0.498935 1.000000
0.385686 0.499825 1.000000
0.523601 0.509013 1.000000
0.652770 0.507745 1.000000
0.781711 0.506544 1.000000
0.910453 0.505400 1.000000
1.000000 0.506834 1.000000
0.000000 0.626375 1.000000
0.123159 0.625248 1.000000
0.252803 0.625935 1.000000
0.382158 0.626706 1.000000
0.511265 0.627550 1.000000
0.646410 0.634742 1.000000
0.775168 0.633598 1.000000
0.903771 0.632502 1.000000
1.000000 0.634591 1.000000
0.000000 0.752127 1.000000
0.120750 0.751692 1.000000
0.250024 0.752487 1.000000
0.379085 0.753348 1.000000
0.507958 0.754269 1.000000
0.636667 0.755242 1.000000
0.769406 0.760453 1.000000
0.897893 0.759407 1.000000
1.000000 0.760672 1.000000
0.000000 0.877824 1.000000
0.118640 0.878057 1.000000
0.247642 0.878945 1.000000
0.376479 0.879886 1.000000
0.505172 0.880876 1.000000
0.632401 0.880054 1.000000
0.758786 0.879049 1.000000
0.886539 0.880156 1.000000
1.000000 0.881545 1.000000
0.000000 1.000000 1.000000
0.116843 1.000000 1.000000
0.245275 1.000000 1.000000
0.373025 1.000000 1.000000
0.500155 1.000000 1.000000
0.626722 1.000000 1.000000
0.752776 1.000000 0.999312
0.878361 1.000000 0.996353
1.000000 0.999584 0.993598
