Camera18_LUT_V0/luts/canon-g7x2.cube
TITLE "Camera18 V0 - Canon G7 X II inspired"
LUT_3D_SIZE 5
DOMAIN_MIN 0.0 0.0 0.0
DOMAIN_MAX 1.0 1.0 1.0
# Original Camera 18 V0 approximation; input expected normalized display-referred RGB.
# Warm/pleasant skin, modest saturation, gentle midtone lift; starting point only.
0.004300 0.002150 0.000000
0.283267 0.001029 0.000052
0.562298 0.000000 0.004354
0.841393 0.000000 0.008603
1.000000 0.000000 0.012392
0.004586 0.273727 0.000000
0.279906 0.265680 0.000000
0.552871 0.256821 0.000000
0.821164 0.248089 0.000000
1.000000 0.234581 0.000000
0.005395 0.528462 0.000000
0.279028 0.526994 0.000000
0.539983 0.513787 0.000000
0.808560 0.506914 0.000000
1.000000 0.487667 0.000000
0.005600 0.781301 0.000000
0.270432 0.779617 0.000000
0.547013 0.780831 0.000000
0.794874 0.760784 0.000000
1.000000 0.738978 0.000000
0.001937 1.000000 0.000000
0.263243 1.000000 0.000000
0.533261 1.000000 0.000000
0.798197 1.000000 0.000000
1.000000 0.982063 0.000000
0.006571 0.000529 0.266286
0.276671 0.000000 0.267372
0.556756 0.000000 0.277548
0.834707 0.000000 0.280937
1.000000 0.000000 0.277784
0.002377 0.269207 0.265073
0.277183 0.272493 0.265316
0.546937 0.266101 0.264052
0.813857 0.260520 0.263442
1.000000 0.250398 0.257930
0.003314 0.526029 0.254521
0.265538 0.522738 0.250262
0.537201 0.520198 0.253872
0.806059 0.511560 0.247082
1.000000 0.488149 0.235179
0.003062 0.779078 0.249429
0.260031 0.776168 0.245378
0.531475 0.776656 0.249351
0.791732 0.767228 0.250569
1.000000 0.743812 0.237663
0.000000 1.000000 0.247361
0.254111 1.000000 0.242251
0.517572 1.000000 0.242571
0.785122 1.000000 0.246840
1.000000 0.986903 0.240977
0.008848 0.000000 0.536866
0.280790 0.000000 0.535206
0.549148 0.000000 0.538959
0.831992 0.000000 0.556370
1.000000 0.000000 0.543155
0.000170 0.259414 0.533391
0.270788 0.262300 0.523669
0.535321 0.261595 0.522330
0.805507 0.260284 0.529906
1.000000 0.252866 0.521259
0.001226 0.518202 0.515500
0.262544 0.517202 0.511265
0.536059 0.528448 0.519314
0.799882 0.522976 0.519783
1.000000 0.507455 0.509767
0.000533 0.776895 0.508932
0.257352 0.774080 0.505518
0.516780 0.771501 0.503366
0.788636 0.773699 0.512134
1.000000 0.749704 0.495341
0.000000 1.000000 0.505335
0.251366 1.000000 0.500650
0.507500 1.000000 0.496454
0.770758 1.000000 0.496956
1.000000 0.991812 0.493466
0.011132 0.000000 0.807441
0.283094 0.000000 0.805765
0.555116 0.000000 0.804041
0.818203 0.000000 0.806983
1.000000 0.000000 0.808385
0.000000 0.252309 0.799859
0.271091 0.258756 0.786974
0.534611 0.255803 0.778914
0.794610 0.255952 0.780224
1.000000 0.251507 0.783082
0.000000 0.506248 0.774835
0.258460 0.506363 0.769571
0.523399 0.512229 0.764865
0.784745 0.514653 0.769342
1.000000 0.508675 0.770249
0.000000 0.766574 0.766328
0.254196 0.765922 0.763545
0.512862 0.765534 0.760931
0.788351 0.782982 0.776194
1.000000 0.762115 0.760691
0.000000 1.000000 0.763094
0.248474 1.000000 0.757934
0.504273 1.000000 0.752437
0.757800 1.000000 0.747374
1.000000 0.996785 0.745061
0.013423 0.000000 1.000000
0.285405 0.000000 1.000000
0.557446 0.000000 1.000000
0.821730 0.000000 1.000000
1.000000 0.000000 1.000000
0.000000 0.245374 1.000000
0.271485 0.255317 1.000000
0.534700 0.252595 1.000000
0.795662 0.250383 1.000000
1.000000 0.249803 1.000000
0.000000 0.499811 1.000000
0.255012 0.498935 1.000000
0.523601 0.509013 1.000000
0.781711 0.506544 1.000000
1.000000 0.506834 1.000000
0.000000 0.752127 1.000000
0.250024 0.752487 1.000000
0.507958 0.754269 1.000000
0.769406 0.760453 1.000000
1.000000 0.760672 1.000000
0.000000 1.000000 1.000000
0.245275 1.000000 1.000000
0.500155 1.000000 1.000000
0.752776 1.000000 0.999312
1.000000 0.999584 0.993598
