Camera18_LUT_V0/luts/cinestill-800t.cube
TITLE "Camera18 V0 - CineStill 800T inspired color only"
LUT_3D_SIZE 5
DOMAIN_MIN 0.0 0.0 0.0
DOMAIN_MAX 1.0 1.0 1.0
# Original Camera 18 V0 approximation; input expected normalized display-referred RGB.
# Cool/tungsten night palette with warm/red highlight tendency. Halation/grain must be separate from LUT.
0.000000 0.015000 0.050000
0.254105 0.012210 0.018398
0.449718 0.015668 0.013592
0.642913 0.019715 0.010751
0.879289 0.025209 0.008912
0.000000 0.216185 0.012778
0.212023 0.217996 0.021739
0.453730 0.236105 0.009570
0.704835 0.250060 0.007734
0.961243 0.261856 0.005832
0.009696 0.470699 0.009925
0.268607 0.480695 0.045790
0.481666 0.477586 0.029876
0.738959 0.496555 0.011240
1.000000 0.510560 0.001044
0.022482 0.737326 0.005994
0.313633 0.751641 0.061598
0.549914 0.757848 0.057077
0.769834 0.750754 0.034275
1.000000 0.773139 0.013906
0.038941 1.000000 0.000000
0.358820 1.000000 0.076369
0.592389 1.000000 0.073018
0.813177 1.000000 0.060227
1.000000 0.982619 0.036689
0.000000 0.024900 0.362948
0.230592 0.004730 0.267729
0.444952 0.002857 0.225566
0.641707 0.001539 0.206137
0.874882 0.000409 0.201597
0.000000 0.214256 0.216069
0.217025 0.227428 0.236042
0.456814 0.229438 0.230691
0.704903 0.229307 0.222800
0.958267 0.227836 0.213322
0.000000 0.473081 0.229488
0.234700 0.479252 0.240096
0.483168 0.483844 0.261783
0.743438 0.499488 0.247804
1.000000 0.503550 0.233153
0.000000 0.739722 0.227203
0.251465 0.747831 0.237458
0.544987 0.759861 0.292699
0.772146 0.757625 0.277390
1.000000 0.777906 0.259900
0.004551 1.000000 0.219354
0.267435 1.000000 0.229873
0.581794 1.000000 0.306409
0.806086 1.000000 0.297775
1.000000 0.982269 0.273387
0.000000 0.032837 0.551544
0.202564 0.004732 0.493848
0.415366 0.003040 0.452078
0.634127 0.001637 0.417570
0.888069 0.000552 0.427168
0.000000 0.237671 0.444175
0.204047 0.226838 0.453611
0.441340 0.220087 0.466185
0.704775 0.210133 0.451864
0.955963 0.198735 0.434757
0.000000 0.475648 0.466482
0.226512 0.481056 0.478911
0.488454 0.493849 0.499243
0.747291 0.495260 0.491586
1.000000 0.495490 0.482536
0.000000 0.743209 0.474750
0.234645 0.750212 0.477685
0.507938 0.756907 0.496809
0.774333 0.764401 0.521936
1.000000 0.780601 0.508268
0.004351 1.000000 0.474472
0.240951 1.000000 0.467665
0.518155 1.000000 0.484233
0.796652 0.997776 0.528705
1.000000 0.982088 0.507848
0.000000 0.041623 0.738357
0.183635 0.004733 0.707911
0.388106 0.003225 0.659610
0.604618 0.001937 0.643942
0.899444 0.000704 0.659702
0.000000 0.253918 0.673175
0.197194 0.232549 0.682460
0.413568 0.211794 0.691958
0.679242 0.214589 0.709843
0.960290 0.199152 0.691686
0.000000 0.507202 0.723965
0.216822 0.494143 0.727057
0.467029 0.485869 0.728668
0.724534 0.479867 0.739320
1.000000 0.475085 0.726757
0.000000 0.746048 0.723216
0.234827 0.752678 0.735894
0.499837 0.758711 0.748718
0.782512 0.776966 0.773485
1.000000 0.775196 0.762219
0.004155 1.000000 0.730777
0.240334 1.000000 0.729949
0.498530 1.000000 0.724248
0.757937 0.992378 0.727800
1.000000 0.982067 0.740212
0.000000 0.050646 0.924696
0.167092 0.004772 0.914622
0.372055 0.003348 0.864191
0.584707 0.002219 0.860523
0.858950 0.001090 0.904947
0.000000 0.269729 0.908241
0.189877 0.238014 0.915194
0.393310 0.203877 0.922129
0.644674 0.207045 0.939568
0.922048 0.207239 0.958438
0.000000 0.521726 0.965839
0.207083 0.498936 0.968197
0.459869 0.491776 0.974054
0.692836 0.469373 0.979599
0.976832 0.474833 0.994971
0.000000 0.789134 1.000000
0.226156 0.777095 1.000000
0.489353 0.771326 1.000000
0.752412 0.761255 1.000000
1.000000 0.754676 1.000000
0.003947 1.000000 0.986722
0.238295 1.000000 0.986433
0.495388 1.000000 0.977451
0.745799 0.988437 0.970113
0.998177 0.982519 0.970776
