Camera18_LUT_V0/luts/cinestill-800t.cube
TITLE "Camera18 V0 - CineStill 800T inspired color only"
LUT_3D_SIZE 9
DOMAIN_MIN 0.0 0.0 0.0
DOMAIN_MAX 1.0 1.0 1.0
# Original Camera 18 V0 approximation; input expected normalized display-referred RGB.
# Cool/tungsten night palette with warm/red highlight tendency. Halation/grain must be separate from LUT.
0.000000 0.015000 0.050000
0.151242 0.011611 0.024756
0.254105 0.012210 0.018398
0.352511 0.013801 0.015520
0.449718 0.015668 0.013592
0.546437 0.017658 0.012066
0.642913 0.019715 0.010751
0.745201 0.021993 0.009643
0.879289 0.025209 0.008912
0.000000 0.122997 0.016573
0.104716 0.116028 0.020308
0.212938 0.116104 0.013216
0.317012 0.116706 0.011849
0.422702 0.118840 0.010731
0.547150 0.125462 0.010025
0.673841 0.131289 0.009218
0.802113 0.136561 0.008348
0.931548 0.141433 0.007437
0.000000 0.216185 0.012778
0.114598 0.217075 0.028631
0.212023 0.217996 0.021739
0.331510 0.228935 0.013607
0.453730 0.236105 0.009570
0.578437 0.243430 0.008666
0.704835 0.250060 0.007734
0.832530 0.256165 0.006787
0.961243 0.261856 0.005832
0.004074 0.339270 0.011401
0.136949 0.347014 0.037625
0.245330 0.350539 0.036077
0.346493 0.347693 0.025949
0.471070 0.358633 0.017160
0.596662 0.364443 0.008292
0.723663 0.371000 0.006182
0.851712 0.377506 0.005226
0.980576 0.383625 0.004277
0.009696 0.470699 0.009925
0.156575 0.478038 0.046348
0.268607 0.480695 0.045790
0.379004 0.483427 0.040694
0.481666 0.477586 0.029876
0.608911 0.488648 0.020890
0.738959 0.496555 0.011240
0.870971 0.502575 0.002689
1.000000 0.510560 0.001044
0.015646 0.602272 0.008335
0.175101 0.609634 0.055076
0.289650 0.612737 0.054351
0.406090 0.616399 0.053234
0.519123 0.620422 0.043956
0.623684 0.612666 0.032491
0.756536 0.625737 0.022682
0.890059 0.634697 0.012407
1.000000 0.640836 0.002400
0.022482 0.737326 0.005994
0.196165 0.748216 0.062642
0.313633 0.751641 0.061598
0.432158 0.754772 0.060529
0.549914 0.757848 0.057077
0.665277 0.761412 0.046030
0.769834 0.750754 0.034275
0.904672 0.763733 0.024381
1.000000 0.773139 0.013906
0.030588 0.877104 0.002419
0.217282 0.888156 0.069991
0.336547 0.891118 0.068919
0.456617 0.893860 0.067833
0.577416 0.896404 0.066737
0.694958 0.899300 0.059781
0.812556 0.902511 0.048183
0.915216 0.887989 0.036166
1.000000 0.888674 0.025922
0.038941 1.000000 0.000000
0.238158 1.000000 0.077444
0.358820 1.000000 0.076369
0.477132 1.000000 0.074820
0.592389 1.000000 0.073018
0.705553 1.000000 0.070363
0.813177 1.000000 0.060227
0.921037 1.000000 0.048447
1.000000 0.982619 0.036689
0.000000 0.022511 0.265276
0.134254 0.006635 0.177034
0.249936 0.004730 0.140252
0.351649 0.003665 0.124344
0.450751 0.002842 0.114165
0.548691 0.002134 0.106446
0.646015 0.001493 0.100028
0.742973 0.000895 0.094389
0.867506 0.000341 0.092213
0.000000 0.121060 0.128629
0.103733 0.117052 0.127668
0.212015 0.111652 0.118358
0.316894 0.107163 0.110170
0.420077 0.103372 0.102816
0.541975 0.103790 0.099601
0.666383 0.103561 0.095586
0.792633 0.102860 0.090990
0.920279 0.101805 0.085959
0.000000 0.215395 0.111592
0.099590 0.216780 0.115673
0.213671 0.221856 0.127130
0.333731 0.230528 0.121976
0.455336 0.233015 0.116109
0.578731 0.233801 0.110032
0.703652 0.233795 0.103897
0.829841 0.233322 0.097730
0.957082 0.232530 0.091532
0.000000 0.340582 0.112730
0.108440 0.345222 0.118275
0.243033 0.351655 0.144635
0.347563 0.351071 0.138145
0.472615 0.360997 0.130866
0.598266 0.365054 0.123377
0.724702 0.366750 0.115955
0.851912 0.367246 0.108539
0.979821 0.367036 0.101167
0.000000 0.471560 0.111618
0.114473 0.475107 0.117104
0.265145 0.481711 0.156453
0.377713 0.484088 0.155383
0.482438 0.480731 0.145598
0.610140 0.491338 0.137538
0.741201 0.498462 0.129030
0.873098 0.502688 0.120627
1.000000 0.505260 0.112270
0.000000 0.602864 0.108557
0.119318 0.605731 0.114354
0.286364 0.614180 0.167246
0.403030 0.617721 0.166966
0.518130 0.621464 0.162060
0.625067 0.616275 0.151296
0.758278 0.629011 0.142445
0.891937 0.636994 0.133115
1.000000 0.642077 0.124007
0.000000 0.737900 0.104241
0.125587 0.742404 0.110203
0.310117 0.752917 0.177039
0.428756 0.755965 0.176509
0.548240 0.758774 0.175822
0.663986 0.762314 0.166909
0.771007 0.754202 0.155646
0.906145 0.766990 0.146445
1.000000 0.775675 0.136664
0.001019 0.877448 0.098534
0.132056 0.881344 0.104967
0.332878 0.892270 0.186246
0.453038 0.894949 0.185572
0.573915 0.897436 0.184861
0.693752 0.900014 0.181748
0.810802 0.903036 0.170971
0.912307 0.887497 0.158553
1.000000 0.888297 0.147253
0.004652 1.000000 0.092268
0.138223 1.000000 0.099246
0.355044 1.000000 0.195152
0.471979 1.000000 0.192584
0.587071 1.000000 0.189962
0.700758 1.000000 0.187446
0.809625 1.000000 0.179431
0.916960 0.998765 0.167180
1.000000 0.982422 0.155327
0.000000 0.024900 0.362948
0.114843 0.006342 0.308849
0.230592 0.004730 0.267729
0.344652 0.003643 0.240033
0.444952 0.002857 0.225566
0.543753 0.002168 0.214700
0.641707 0.001539 0.206137
0.742936 0.000955 0.200001
0.874882 0.000409 0.201597
0.000000 0.126745 0.240970
0.095659 0.114980 0.233629
0.203362 0.106539 0.229049
0.316241 0.098213 0.214503
0.419756 0.090605 0.201456
0.538527 0.086835 0.196216
0.661351 0.082872 0.190663
0.786126 0.078454 0.184235
0.912406 0.073672 0.177106
0.000000 0.214256 0.216069
0.096313 0.218549 0.223598
0.217025 0.227428 0.236042
0.335609 0.228773 0.233770
0.456814 0.229438 0.230691
0.580053 0.229579 0.226990
0.704903 0.229307 0.222800
0.831054 0.228705 0.218219
0.958267 0.227836 0.213322
0.000000 0.342511 0.226395
0.100635 0.346521 0.228761
0.225976 0.350345 0.238610
0.348560 0.354394 0.251139
0.474313 0.362385 0.245763
0.599860 0.364045 0.239603
0.726149 0.364169 0.233350
0.853220 0.363663 0.227144
0.981013 0.362823 0.220987
0.000000 0.473081 0.229488
0.102146 0.476036 0.227036
0.234700 0.479252 0.240096
0.375102 0.484843 0.268115
0.483168 0.483844 0.261783
0.612323 0.494208 0.254976
0.743438 0.499488 0.247804
0.875247 0.502178 0.240529
1.000000 0.503550 0.233153
0.000000 0.604136 0.229076
0.102490 0.606416 0.222355
0.242016 0.610252 0.239411
0.399857 0.619020 0.281037
0.517125 0.622318 0.280214
0.626402 0.619848 0.270631
0.760081 0.632108 0.262818
0.893855 0.638789 0.254495
1.000000 0.642600 0.246290
0.000000 0.739722 0.227203
0.104175 0.743153 0.216336
0.251465 0.747831 0.237458
0.425330 0.757135 0.292809
0.544987 0.759861 0.292699
0.662736 0.763078 0.287986
0.772146 0.757625 0.277390
0.907667 0.770160 0.268933
1.000000 0.777906 0.259900
0.000902 0.879053 0.223834
0.105860 0.881860 0.208700
0.259796 0.886123 0.234095
0.449443 0.896020 0.303555
0.570396 0.898453 0.303214
0.691913 0.900732 0.302721
0.806561 0.900665 0.292940
0.909470 0.887062 0.280190
1.000000 0.887943 0.267942
0.004551 1.000000 0.219354
0.107230 1.000000 0.200036
0.267435 1.000000 0.229873
0.466864 1.000000 0.309822
0.581794 1.000000 0.306409
0.695339 1.000000 0.303144
0.806086 1.000000 0.297775
0.912951 0.996747 0.285410
1.000000 0.982269 0.273387
0.000000 0.028666 0.457676
0.101717 0.006101 0.428980
0.213361 0.004751 0.382711
0.323440 0.003754 0.359722
0.439868 0.002878 0.335409
0.539293 0.002206 0.322575
0.637750 0.001587 0.312206
0.750542 0.001026 0.309564
0.881703 0.000479 0.313046
0.000000 0.130010 0.346726
0.090262 0.115367 0.339928
0.189488 0.102226 0.334592
0.301422 0.099209 0.328843
0.422839 0.091031 0.316625
0.542585 0.086037 0.312327
0.664783 0.080514 0.306565
0.789208 0.075306 0.300583
0.915318 0.070208 0.294306
0.000000 0.229509 0.332631
0.092452 0.225776 0.337243
0.207269 0.223874 0.340899
0.325209 0.221751 0.347190
0.456722 0.220103 0.342798
0.578965 0.215305 0.334821
0.702923 0.211079 0.327489
0.828176 0.206674 0.319943
0.954490 0.202022 0.312064
0.000000 0.344116 0.340669
0.100596 0.347909 0.347737
0.222195 0.351355 0.354854
0.352300 0.360421 0.367589
0.476004 0.360490 0.363758
0.600984 0.360236 0.359548
0.727035 0.359711 0.355024
0.853994 0.358961 0.350235
0.981730 0.358020 0.345223
0.000000 0.474537 0.348019
0.102122 0.477379 0.349771
0.226573 0.480188 0.355363
0.356700 0.482721 0.364910
0.483859 0.486928 0.378401
0.614764 0.496138 0.373661
0.745670 0.498861 0.367797
0.877248 0.499856 0.361691
1.000000 0.500138 0.355554
0.000000 0.605366 0.350033
0.102384 0.607582 0.347317
0.229623 0.611396 0.352695
0.367683 0.615700 0.366517
0.514786 0.623304 0.396402
0.627692 0.623386 0.390471
0.762041 0.634864 0.383938
0.895851 0.639739 0.376699
1.000000 0.642021 0.369354
0.000000 0.741491 0.350715
0.104269 0.744850 0.344026
0.234329 0.748691 0.348800
0.379001 0.752631 0.366413
0.541631 0.760940 0.409766
0.661456 0.763635 0.408927
0.773255 0.761024 0.399491
0.909294 0.773183 0.391906
1.000000 0.779659 0.383708
0.000786 0.880619 0.349546
0.105910 0.883383 0.338483
0.237909 0.886764 0.342820
0.388820 0.890425 0.364549
0.566859 0.899454 0.421791
0.688519 0.901672 0.421731
0.802447 0.898236 0.414200
0.906703 0.886681 0.401105
1.000000 0.887589 0.388055
0.004451 1.000000 0.346759
0.107255 1.000000 0.331450
0.240785 1.000000 0.335520
0.395224 1.000000 0.359338
0.576556 1.000000 0.422372
0.689961 1.000000 0.418385
0.802042 0.999520 0.414481
0.909025 0.994694 0.403127
1.000000 0.982158 0.390888
0.000000 0.032837 0.551544
0.090687 0.005939 0.542183
0.202564 0.004732 0.493848
0.305902 0.003847 0.467593
0.415366 0.003040 0.452078
0.535284 0.002246 0.429127
0.634127 0.001637 0.417570
0.757553 0.001100 0.421858
0.888069 0.000552 0.427168
0.000000 0.133586 0.450096
0.085050 0.115859 0.444658
0.178937 0.097956 0.440663
0.285143 0.095579 0.431616
0.407715 0.095079 0.437712
0.547045 0.086863 0.432527
0.669317 0.081145 0.428135
0.793401 0.075034 0.422417
0.918928 0.068611 0.415645
0.000000 0.237671 0.444175
0.088358 0.228854 0.448183
0.204047 0.226838 0.453611
0.310719 0.216981 0.457254
0.441340 0.220087 0.466185
0.580975 0.215858 0.460134
0.704775 0.210133 0.451864
0.829772 0.204157 0.443074
0.955963 0.198735 0.434757
0.000000 0.364593 0.470017
0.096384 0.359539 0.472569
0.217276 0.357406 0.475018
0.338416 0.353167 0.475417
0.462313 0.350523 0.480595
0.600762 0.350433 0.476705
0.726161 0.344923 0.467243
0.852530 0.340176 0.458742
0.979658 0.335384 0.450268
0.000000 0.475648 0.466482
0.101834 0.478381 0.472484
0.226512 0.481056 0.478911
0.352582 0.483369 0.485028
0.488454 0.493849 0.499243
0.617206 0.494724 0.495614
0.747291 0.495260 0.491586
0.878544 0.495503 0.487212
1.000000 0.495490 0.482536
0.000000 0.606556 0.471404
0.102288 0.608806 0.472752
0.230089 0.613087 0.479210
0.359667 0.616894 0.485319
0.495178 0.620454 0.495488
0.628939 0.626892 0.510789
0.764379 0.636780 0.506230
0.897962 0.639079 0.500021
1.000000 0.639643 0.493591
0.000000 0.743209 0.474750
0.104357 0.746499 0.472232
0.234645 0.750212 0.477685
0.366247 0.753574 0.482958
0.507938 0.756907 0.496809
0.658875 0.764391 0.527753
0.774333 0.764401 0.521936
0.911145 0.775913 0.515536
1.000000 0.780601 0.508268
0.000671 0.882147 0.475651
0.105957 0.884871 0.468659
0.238133 0.888153 0.473524
0.371332 0.891165 0.478281
0.518954 0.894319 0.496150
0.684969 0.902531 0.540799
0.798403 0.895699 0.534468
0.904003 0.886353 0.521323
1.000000 0.887189 0.507702
0.004351 1.000000 0.474472
0.107278 1.000000 0.463173
0.240951 1.000000 0.467665
0.372629 1.000000 0.468553
0.518155 1.000000 0.484233
0.684623 1.000000 0.533179
0.796652 0.997776 0.528705
0.905194 0.992559 0.520277
1.000000 0.982088 0.507848
0.000000 0.037184 0.645045
0.081040 0.005828 0.650815
0.192728 0.004727 0.602024
0.296507 0.003884 0.574101
0.396622 0.003166 0.555863
0.506920 0.002444 0.544595
0.635230 0.001701 0.525716
0.763987 0.001175 0.535855
0.893969 0.000627 0.542810
0.000000 0.137356 0.551703
0.079991 0.116439 0.548084
0.168454 0.093716 0.546243
0.274753 0.091475 0.535594
0.389478 0.092192 0.542197
0.525705 0.092583 0.558943
0.673516 0.081769 0.551192
0.797635 0.075545 0.546536
0.923149 0.069036 0.540719
0.000000 0.245840 0.557792
0.084296 0.231954 0.560662
0.200684 0.229727 0.567502
0.300767 0.213198 0.570050
0.423631 0.215725 0.577348
0.559517 0.217633 0.587236
0.706904 0.210957 0.579290
0.832009 0.204852 0.571109
0.958087 0.198524 0.562404
0.000000 0.372012 0.587028
0.091671 0.362251 0.589031
0.212598 0.359732 0.591964
0.334567 0.355793 0.593645
0.446157 0.344679 0.595464
0.581510 0.347754 0.602570
0.727325 0.345320 0.596912
0.853593 0.339092 0.587082
0.980563 0.332734 0.577007
0.000000 0.500220 0.603870
0.097507 0.494506 0.605481
0.221871 0.491978 0.607286
0.346716 0.488570 0.608119
0.470606 0.482896 0.606817
0.600150 0.481720 0.613286
0.747134 0.485202 0.612323
0.877502 0.480183 0.602839
1.000000 0.475954 0.594339
0.000000 0.607353 0.592298
0.102086 0.610229 0.598253
0.230188 0.614343 0.605628
0.359989 0.618014 0.612618
0.491259 0.621304 0.619278
0.635220 0.635252 0.636295
0.766922 0.635429 0.631817
0.899506 0.635388 0.627085
1.000000 0.635153 0.622126
0.000000 0.744879 0.599284
0.104440 0.748104 0.600928
0.234950 0.751693 0.607020
0.366738 0.754948 0.612882
0.499653 0.757911 0.618544
0.638072 0.760741 0.628438
0.775382 0.767756 0.644709
0.913498 0.777896 0.640317
1.000000 0.779977 0.633916
0.000557 0.883639 0.602135
0.106000 0.886324 0.599212
0.238350 0.889512 0.604578
0.371698 0.892440 0.609800
0.505940 0.895138 0.614897
0.650054 0.897862 0.628752
0.793239 0.893551 0.651898
0.901369 0.886075 0.640869
1.000000 0.886631 0.627114
0.004253 1.000000 0.602481
0.107299 1.000000 0.595195
0.241112 1.000000 0.600090
0.371494 1.000000 0.598082
0.499912 1.000000 0.596312
0.638978 1.000000 0.606971
0.791232 0.996083 0.642424
0.901394 0.990283 0.636569
1.000000 0.982058 0.624284
0.000000 0.041623 0.738357
0.072353 0.005753 0.756272
0.183635 0.004733 0.707911
0.287651 0.003925 0.678990
0.388106 0.003225 0.659610
0.486556 0.002590 0.645623
0.604618 0.001937 0.643942
0.769693 0.001254 0.651890
0.899444 0.000704 0.659702
0.000000 0.141267 0.651963
0.075061 0.117093 0.650413
0.158035 0.089504 0.651361
0.264415 0.087391 0.639224
0.380712 0.088498 0.650568
0.503972 0.090086 0.665519
0.645787 0.089287 0.682189
0.801575 0.076032 0.671796
0.927095 0.069443 0.666805
0.000000 0.253918 0.673175
0.080199 0.235001 0.674455
0.197194 0.232549 0.682460
0.290764 0.209390 0.683238
0.413568 0.211794 0.691958
0.538534 0.213731 0.699145
0.679242 0.214589 0.709843
0.834129 0.205554 0.699857
0.960290 0.199152 0.691686
0.000000 0.379598 0.705048
0.086983 0.365033 0.706277
0.208147 0.362272 0.709829
0.330650 0.358383 0.712441
0.435480 0.340583 0.713611
0.562129 0.342412 0.717608
0.701821 0.344564 0.725682
0.854864 0.339840 0.718141
0.983020 0.333716 0.709018
0.000000 0.507202 0.723965
0.092585 0.497007 0.725107
0.216822 0.494143 0.727057
0.341544 0.490422 0.728043
0.467029 0.485869 0.728668
0.582681 0.474909 0.730727
0.724534 0.479867 0.739320
0.879226 0.480883 0.736609
1.000000 0.475085 0.726757
0.000000 0.637479 0.737612
0.098360 0.632609 0.739812
0.226428 0.631306 0.742586
0.355572 0.629367 0.744675
0.485086 0.626349 0.745611
0.613175 0.620523 0.743921
0.746672 0.619459 0.750308
0.899286 0.625042 0.750909
1.000000 0.619510 0.740575
0.000000 0.746048 0.723216
0.104117 0.749202 0.729088
0.234827 0.752678 0.735894
0.366782 0.755835 0.742426
0.499837 0.758711 0.748718
0.633869 0.761341 0.754799
0.782512 0.776966 0.773485
0.916226 0.776694 0.768467
1.000000 0.775196 0.762219
0.000443 0.885084 0.728952
0.106040 0.887744 0.730128
0.238560 0.890841 0.735968
0.372054 0.893689 0.741633
0.506421 0.896315 0.747143
0.640720 0.897547 0.751514
0.771791 0.889336 0.752279
0.898797 0.885846 0.759767
1.000000 0.885567 0.746900
0.004155 1.000000 0.730777
0.107318 1.000000 0.727505
0.240334 1.000000 0.729949
0.370384 1.000000 0.726925
0.498530 1.000000 0.724248
0.624945 1.000000 0.721886
0.757937 0.992378 0.727800
0.896529 0.988398 0.750262
1.000000 0.982067 0.740212
0.000000 0.046116 0.831561
0.064362 0.005704 0.859433
0.175128 0.004749 0.811992
0.279241 0.003969 0.782534
0.379933 0.003286 0.762340
0.478636 0.002662 0.747546
0.585418 0.002113 0.748107
0.731689 0.001523 0.774461
0.903663 0.000789 0.779827
0.000000 0.145288 0.751168
0.070241 0.117811 0.751809
0.147676 0.085318 0.756041
0.254126 0.083326 0.742522
0.371846 0.084770 0.759564
0.494904 0.086206 0.776640
0.620555 0.087246 0.790217
0.767349 0.085432 0.806865
0.930580 0.069994 0.794453
0.000000 0.261880 0.790062
0.076046 0.237979 0.789406
0.193588 0.235309 0.798386
0.280712 0.205560 0.796807
0.403461 0.207845 0.806888
0.528362 0.209686 0.815238
0.654952 0.211181 0.822237
0.800169 0.211091 0.833660
0.962380 0.199760 0.821541
0.000000 0.387230 0.823999
0.082309 0.367817 0.824243
0.203764 0.364861 0.828409
0.326670 0.360941 0.831766
0.424778 0.336474 0.831952
0.551401 0.338240 0.836681
0.679182 0.339747 0.840758
0.823045 0.341036 0.849729
0.985687 0.334764 0.841788
0.000000 0.514408 0.844623
0.087645 0.499592 0.845168
0.211911 0.496499 0.847384
0.336764 0.492640 0.848747
0.463482 0.488840 0.851083
0.571859 0.470797 0.852397
0.703709 0.473567 0.856940
0.850154 0.477547 0.866608
1.000000 0.476143 0.862031
0.000000 0.645150 0.860994
0.093573 0.635596 0.862664
0.221583 0.633955 0.865704
0.350540 0.631622 0.867936
0.479911 0.628265 0.869060
0.609338 0.623345 0.868971
0.727845 0.611638 0.870247
0.873189 0.616872 0.878456
1.000000 0.620075 0.877216
0.000000 0.781768 0.876553
0.100394 0.776386 0.878114
0.231121 0.774552 0.880241
0.362694 0.772309 0.881937
0.494808 0.769506 0.883038
0.626739 0.765588 0.882970
0.756490 0.758551 0.880000
0.892889 0.757819 0.886661
1.000000 0.764235 0.887494
0.000319 0.885990 0.854906
0.105605 0.888593 0.860189
0.238276 0.891607 0.866594
0.371898 0.894381 0.872794
0.506376 0.896942 0.878815
0.638385 0.894771 0.880208
0.765100 0.887050 0.876110
0.901219 0.890354 0.882530
1.000000 0.882086 0.869718
0.004057 1.000000 0.859246
0.107322 1.000000 0.860059
0.239555 1.000000 0.859052
0.369299 1.000000 0.855107
0.497177 1.000000 0.851561
0.623360 0.998075 0.848380
0.747995 0.990889 0.845534
0.875237 0.983825 0.846933
0.999858 0.982113 0.855648
0.000000 0.050646 0.924696
0.056889 0.005675 0.960881
0.167092 0.004772 0.914622
0.271206 0.004018 0.884951
0.372055 0.003348 0.864191
0.470952 0.002734 0.848771
0.584707 0.002219 0.860523
0.708279 0.001716 0.880547
0.858950 0.001090 0.904947
0.000000 0.149395 0.849533
0.065515 0.118582 0.852407
0.137375 0.081158 0.860307
0.243884 0.079278 0.845505
0.362886 0.081010 0.869160
0.485757 0.082302 0.888245
0.611228 0.083229 0.903488
0.738623 0.083891 0.915897
0.889999 0.081175 0.932592
0.000000 0.269729 0.908241
0.071830 0.240889 0.905391
0.189877 0.238014 0.915194
0.270611 0.201706 0.910743
0.393310 0.203877 0.922129
0.518151 0.205625 0.931598
0.644674 0.207045 0.939568
0.772547 0.208206 0.946341
0.922048 0.207239 0.958438
0.000000 0.394854 0.943791
0.077635 0.370580 0.942865
0.199391 0.367452 0.947604
0.322632 0.363469 0.951587
0.414053 0.332353 0.950483
0.540650 0.334057 0.955922
0.668403 0.335512 0.960632
0.797125 0.336761 0.964735
0.947897 0.338080 0.976782
0.000000 0.521726 0.965839
0.082711 0.502205 0.965667
0.207083 0.498936 0.968197
0.332349 0.495262 0.970504
0.459869 0.491776 0.974054
0.561011 0.466672 0.974271
0.692836 0.469373 0.979599
0.825938 0.471780 0.984297
0.976832 0.474833 0.994971
0.000000 0.653046 0.985035
0.088725 0.638660 0.985987
0.216777 0.636759 0.989356
0.345752 0.634181 0.991900
0.475297 0.630710 0.993492
0.605455 0.626144 0.994406
0.716611 0.607334 0.995142
0.850974 0.609604 0.998242
1.000000 0.613972 1.000000
0.000000 0.789134 1.000000
0.095506 0.779197 1.000000
0.226156 0.777095 1.000000
0.357541 0.774526 1.000000
0.489353 0.771326 1.000000
0.621080 0.767095 1.000000
0.752412 0.761255 1.000000
0.872861 0.749042 1.000000
1.000000 0.754676 1.000000
0.001203 0.926347 1.000000
0.101948 0.920640 1.000000
0.234652 0.918410 1.000000
0.368029 0.915892 1.000000
0.501277 0.911864 1.000000
0.629126 0.899758 1.000000
0.754563 0.887380 0.999833
0.876352 0.873080 0.988661
1.000000 0.864563 0.986151
0.003947 1.000000 0.986722
0.106807 1.000000 0.991550
0.238295 1.000000 0.986433
0.367757 1.000000 0.981717
0.495388 1.000000 0.977451
0.621354 0.995491 0.973594
0.745799 0.988437 0.970113
0.868852 0.981778 0.966978
0.998177 0.982519 0.970776
