Camera18_LUT_V0/luts/cinestill-800t.cube
TITLE "Camera18 V0 - CineStill 800T inspired color only"
LUT_3D_SIZE 33
DOMAIN_MIN 0.0 0.0 0.0
DOMAIN_MAX 1.0 1.0 1.0
# Original Camera 18 V0 approximation; input expected normalized display-referred RGB.
# Cool/tungsten night palette with warm/red highlight tendency. Halation/grain must be separate from LUT.
0.000000 0.015000 0.050000
0.048823 0.016707 0.049122
0.091280 0.013186 0.034553
0.123004 0.012016 0.028302
0.151242 0.011611 0.024756
0.177914 0.011550 0.022423
0.203751 0.011673 0.020739
0.229089 0.011906 0.019444
0.254105 0.012210 0.018398
0.278903 0.012563 0.017525
0.303544 0.012952 0.016773
0.328071 0.013366 0.016112
0.352511 0.013801 0.015520
0.376883 0.014251 0.014981
0.401201 0.014713 0.014485
0.425477 0.015186 0.014024
0.449718 0.015668 0.013592
0.473930 0.016157 0.013183
0.498119 0.016652 0.012794
0.522286 0.017152 0.012422
0.546437 0.017658 0.012066
0.570573 0.018167 0.011721
0.594697 0.018680 0.011389
0.618810 0.019196 0.011066
0.642913 0.019715 0.010751
0.667007 0.020237 0.010445
0.691095 0.020762 0.010146
0.715176 0.021289 0.009853
0.745201 0.021993 0.009643
0.778704 0.022799 0.009472
0.812221 0.023604 0.009292
0.845750 0.024407 0.009105
0.879289 0.025209 0.008912
0.000000 0.053891 0.028402
0.026101 0.048174 0.027309
0.062647 0.045628 0.022848
0.095177 0.043967 0.021097
0.125395 0.042891 0.019768
0.154139 0.042185 0.018705
0.181884 0.041731 0.017820
0.208915 0.041457 0.017061
0.235421 0.041315 0.016395
0.261527 0.041276 0.015799
0.287321 0.041317 0.015258
0.312868 0.041421 0.014760
0.338215 0.041578 0.014297
0.363398 0.041779 0.013863
0.388445 0.042019 0.013453
0.413378 0.042293 0.013063
0.438214 0.042595 0.012690
0.462968 0.042920 0.012332
0.487651 0.043267 0.011987
0.512273 0.043632 0.011653
0.536842 0.044012 0.011329
0.561364 0.044407 0.011014
0.585845 0.044814 0.010706
0.610289 0.045233 0.010406
0.634701 0.045661 0.010113
0.664900 0.046505 0.009912
0.697713 0.047516 0.009742
0.730584 0.048512 0.009564
0.763508 0.049495 0.009379
0.796480 0.050465 0.009187
0.829497 0.051424 0.008989
0.862553 0.052374 0.008786
0.895647 0.053314 0.008579
0.000000 0.076664 0.021235
0.026305 0.073296 0.025232
0.054340 0.070437 0.022340
0.085108 0.069716 0.019119
0.114637 0.068753 0.017436
0.143107 0.068217 0.016744
0.170848 0.067852 0.016128
0.198028 0.067619 0.015573
0.224767 0.067489 0.015063
0.251151 0.067442 0.014592
0.277246 0.067461 0.014151
0.303102 0.067536 0.013735
0.328758 0.067657 0.013340
0.354245 0.067817 0.012964
0.379588 0.068011 0.012603
0.404806 0.068235 0.012255
0.429916 0.068484 0.011919
0.454933 0.068755 0.011593
0.479867 0.069047 0.011277
0.504729 0.069356 0.010968
0.529525 0.069681 0.010667
0.554265 0.070021 0.010373
0.584512 0.071049 0.010181
0.616643 0.072266 0.010013
0.648874 0.073453 0.009837
0.681198 0.074613 0.009653
0.713608 0.075750 0.009463
0.746094 0.076867 0.009266
0.778652 0.077964 0.009065
0.811274 0.079044 0.008858
0.843956 0.080108 0.008648
0.876693 0.081158 0.008433
0.909481 0.082195 0.008215
0.000000 0.099780 0.018315
0.027670 0.097339 0.024748
0.055053 0.095605 0.023793
0.079888 0.093165 0.020848
0.108513 0.093268 0.018181
0.136623 0.092646 0.015695
0.164116 0.092358 0.014931
0.191153 0.092237 0.014477
0.217836 0.092190 0.014051
0.244224 0.092206 0.013648
0.270365 0.092276 0.013265
0.296296 0.092390 0.012897
0.322047 0.092542 0.012544
0.347642 0.092727 0.012204
0.373102 0.092940 0.011874
0.398442 0.093178 0.011554
0.423679 0.093437 0.011243
0.448822 0.093715 0.010939
0.473883 0.094011 0.010642
0.503799 0.095255 0.010453
0.535286 0.096725 0.010287
0.566916 0.098149 0.010112
0.598674 0.099529 0.009930
0.630550 0.100870 0.009741
0.662534 0.102176 0.009546
0.694615 0.103450 0.009345
0.726785 0.104694 0.009140
0.759039 0.105912 0.008930
0.791369 0.107105 0.008717
0.823769 0.108275 0.008500
0.856234 0.109425 0.008280
0.888760 0.110556 0.008057
0.921341 0.111669 0.007832
0.000000 0.122997 0.016573
0.029711 0.121107 0.025106
0.056108 0.119669 0.024591
0.081387 0.118512 0.023048
0.104716 0.116028 0.020308
0.132238 0.116577 0.017907
0.159458 0.116455 0.015554
0.186390 0.116042 0.013592
0.212938 0.116104 0.013216
0.239243 0.116202 0.012856
0.265340 0.116336 0.012509
0.291255 0.116505 0.012174
0.317012 0.116706 0.011849
0.342630 0.116933 0.011534
0.368126 0.117183 0.011226
0.393513 0.117454 0.010926
0.422702 0.118840 0.010731
0.453554 0.120587 0.010567
0.484591 0.122270 0.010394
0.515795 0.123893 0.010213
0.547150 0.125462 0.010025
0.578644 0.126982 0.009831
0.610264 0.128457 0.009631
0.641999 0.129892 0.009427
0.673841 0.131289 0.009218
0.705780 0.132652 0.009005
0.737810 0.133983 0.008789
0.769923 0.135285 0.008570
0.802113 0.136561 0.008348
0.834376 0.137812 0.008123
0.866705 0.139040 0.007896
0.899097 0.140246 0.007668
0.931548 0.141433 0.007437
0.000000 0.146260 0.015329
0.032056 0.144757 0.025844
0.057677 0.143544 0.025416
0.082952 0.142431 0.024986
0.106957 0.141628 0.022773
0.129252 0.138954 0.020170
0.156103 0.139781 0.017928
0.182756 0.140007 0.015660
0.209226 0.139837 0.013506
0.235481 0.139706 0.012162
0.261500 0.139921 0.011840
0.287362 0.140153 0.011528
0.313086 0.140406 0.011223
0.341374 0.141795 0.011013
0.371580 0.143836 0.010851
0.402017 0.145794 0.010680
0.432662 0.147676 0.010501
0.463495 0.149489 0.010315
0.494499 0.151239 0.010122
0.525659 0.152932 0.009924
0.556961 0.154572 0.009720
0.588393 0.156164 0.009512
0.619946 0.157711 0.009300
0.651609 0.159218 0.009085
0.683375 0.160687 0.008866
0.715235 0.162120 0.008645
0.747183 0.163521 0.008421
0.779213 0.164892 0.008194
0.811319 0.166236 0.007966
0.843497 0.167553 0.007736
0.875740 0.168846 0.007504
0.908046 0.170116 0.007271
0.940411 0.171365 0.007037
0.000000 0.169551 0.014343
0.034565 0.168348 0.026788
0.059637 0.167296 0.026414
0.084470 0.166315 0.026053
0.108738 0.165462 0.025201
0.132171 0.164850 0.022763
0.153645 0.161918 0.020243
0.180045 0.162936 0.018109
0.206305 0.163418 0.015903
0.232433 0.163508 0.013778
0.260016 0.164332 0.011811
0.289500 0.166478 0.011139
0.319326 0.168744 0.010971
0.349399 0.170905 0.010794
0.379697 0.172976 0.010609
0.410200 0.174967 0.010418
0.440891 0.176887 0.010222
0.471752 0.178742 0.010019
0.502771 0.180538 0.009813
0.533933 0.182280 0.009601
0.565228 0.183972 0.009387
0.596644 0.185617 0.009169
0.628174 0.187219 0.008948
0.659808 0.188781 0.008724
0.691539 0.190306 0.008498
0.723361 0.191796 0.008270
0.755266 0.193253 0.008040
0.787251 0.194681 0.007809
0.819309 0.196080 0.007576
0.851436 0.197453 0.007342
0.883628 0.198801 0.007107
0.915881 0.200125 0.006871
0.948191 0.201428 0.006635
0.000000 0.192861 0.013510
0.037174 0.191908 0.027859
0.061839 0.190977 0.027521
0.086320 0.190099 0.027193
0.110636 0.189271 0.026874
0.134026 0.188636 0.025359
0.157187 0.188138 0.022915
0.178610 0.185587 0.020520
0.207637 0.189351 0.018715
0.236898 0.192337 0.016721
0.266357 0.194701 0.014711
0.296002 0.196598 0.012719
0.325824 0.198143 0.010748
0.356040 0.200323 0.010524
0.386456 0.202422 0.010323
0.417052 0.204440 0.010118
0.447816 0.206387 0.009908
0.478734 0.208272 0.009694
0.509795 0.210100 0.009477
0.540988 0.211876 0.009256
0.572303 0.213605 0.009033
0.603732 0.215289 0.008808
0.635266 0.216933 0.008580
0.666898 0.218537 0.008351
0.698622 0.220106 0.008120
0.730431 0.221641 0.007887
0.762320 0.223144 0.007653
0.794285 0.224618 0.007418
0.826320 0.226063 0.007183
0.858421 0.227482 0.006946
0.890584 0.228877 0.006709
0.922807 0.230248 0.006471
0.955085 0.231597 0.006232
0.000000 0.216185 0.012778
0.039850 0.215451 0.029014
0.064200 0.214613 0.028703
0.089179 0.215689 0.028647
0.114598 0.217075 0.028631
0.140157 0.218390 0.028405
0.164994 0.219752 0.026526
0.190378 0.221103 0.024229
0.212023 0.217996 0.021739
0.241646 0.221646 0.019857
0.271451 0.224610 0.017782
0.301409 0.226996 0.015686
0.331510 0.228935 0.013607
0.361749 0.230526 0.011553
0.392170 0.232077 0.010006
0.422876 0.234129 0.009789
0.453730 0.236105 0.009570
0.484722 0.238016 0.009347
0.515843 0.239870 0.009122
0.547084 0.241673 0.008895
0.578437 0.243430 0.008666
0.609896 0.245144 0.008435
0.641452 0.246819 0.008203
0.673101 0.248457 0.007969
0.704835 0.250060 0.007734
0.736649 0.251630 0.007499
0.768540 0.253170 0.007262
0.800501 0.254681 0.007025
0.832530 0.256165 0.006787
0.864622 0.257623 0.006549
0.896774 0.259057 0.006310
0.928982 0.260467 0.006072
0.961243 0.261856 0.005832
0.000227 0.240773 0.012180
0.043720 0.245418 0.031045
0.069081 0.246825 0.031020
0.094723 0.248150 0.030984
0.120626 0.249400 0.030936
0.146770 0.250581 0.030879
0.172570 0.251754 0.030032
0.197948 0.252985 0.027822
0.223962 0.254197 0.025445
0.245540 0.250408 0.022862
0.275628 0.253969 0.020926
0.305864 0.256919 0.018796
0.336221 0.259333 0.016635
0.366691 0.261318 0.014488
0.397271 0.262962 0.012368
0.427955 0.264333 0.010274
0.458838 0.265974 0.009215
0.489915 0.267918 0.008986
0.521108 0.269800 0.008755
0.552409 0.271629 0.008523
0.583813 0.273411 0.008290
0.615314 0.275150 0.008055
0.646904 0.276850 0.007820
0.678581 0.278515 0.007583
0.710337 0.280145 0.007346
0.742169 0.281745 0.007108
0.774073 0.283314 0.006870
0.806043 0.284856 0.006631
0.838078 0.286372 0.006392
0.870172 0.287862 0.006153
0.902324 0.289329 0.005914
0.934530 0.290773 0.005675
0.966786 0.292195 0.005436
0.001458 0.273600 0.011978
0.048050 0.278248 0.033381
0.073909 0.279514 0.033328
0.099999 0.280713 0.033265
0.126307 0.281849 0.033195
0.152815 0.282927 0.033116
0.179476 0.283954 0.032985
0.205326 0.285046 0.031398
0.231210 0.286170 0.029016
0.257729 0.287273 0.026587
0.279135 0.282826 0.023925
0.309596 0.286317 0.021951
0.340181 0.289258 0.019780
0.370864 0.291701 0.017571
0.401640 0.293733 0.015371
0.432503 0.295432 0.013197
0.463453 0.296860 0.011050
0.494485 0.298066 0.008926
0.525732 0.299843 0.008381
0.557103 0.301703 0.008145
0.588566 0.303513 0.007908
0.620116 0.305277 0.007671
0.651750 0.307001 0.007433
0.683463 0.308689 0.007195
0.715250 0.310343 0.006957
0.747108 0.311967 0.006718
0.779033 0.313562 0.006478
0.811022 0.315129 0.006239
0.843071 0.316671 0.006000
0.875176 0.318188 0.005761
0.907336 0.319683 0.005522
0.939548 0.321155 0.005283
0.971808 0.322607 0.005044
0.002745 0.306432 0.011711
0.052338 0.311112 0.035666
0.078610 0.312260 0.035591
0.105077 0.313353 0.035509
0.131727 0.314393 0.035421
0.158548 0.315384 0.035326
0.185529 0.316329 0.035225
0.212325 0.317266 0.034673
0.238373 0.318289 0.032624
0.264702 0.319324 0.030147
0.291633 0.320338 0.027679
0.312790 0.315254 0.024949
0.343559 0.318687 0.022947
0.374431 0.321623 0.020748
0.405387 0.324094 0.018502
0.436418 0.326173 0.016261
0.467523 0.327927 0.014042
0.498697 0.329413 0.011850
0.529941 0.330677 0.009684
0.561269 0.331857 0.007764
0.592797 0.333700 0.007525
0.624404 0.335494 0.007286
0.656087 0.337245 0.007047
0.687843 0.338958 0.006807
0.719668 0.340635 0.006568
0.751558 0.342281 0.006329
0.783511 0.343898 0.006089
0.815523 0.345488 0.005850
0.847593 0.347052 0.005611
0.879716 0.348593 0.005372
0.911890 0.350112 0.005134
0.944114 0.351609 0.004895
0.976384 0.353085 0.004657
0.004074 0.339270 0.011401
0.027924 0.346438 0.018052
0.083217 0.345053 0.037825
0.110005 0.346056 0.037728
0.136949 0.347014 0.037625
0.164040 0.347930 0.037517
0.191270 0.348807 0.037405
0.218631 0.349645 0.037288
0.245330 0.350539 0.036077
0.271657 0.351499 0.033772
0.298368 0.352461 0.031237
0.325643 0.353401 0.028741
0.346493 0.347693 0.025949
0.377519 0.351080 0.023927
0.408635 0.354012 0.021708
0.439820 0.356510 0.019435
0.471070 0.358633 0.017160
0.502380 0.360441 0.014905
0.533750 0.361986 0.012676
0.565178 0.363308 0.010472
0.596662 0.364443 0.008292
0.628256 0.365773 0.006902
0.659993 0.367555 0.006662
0.691796 0.369296 0.006422
0.723663 0.371000 0.006182
0.755591 0.372669 0.005943
0.787576 0.374308 0.005704
0.819617 0.375920 0.005465
0.851712 0.377506 0.005226
0.883857 0.379068 0.004988
0.916051 0.380607 0.004751
0.948291 0.382126 0.004514
0.980576 0.383625 0.004277
0.005439 0.372115 0.011059
0.034116 0.373284 0.010859
0.087752 0.377885 0.040037
0.114817 0.378811 0.039928
0.142016 0.379699 0.039815
0.169343 0.380549 0.039697
0.196791 0.381365 0.039576
0.224354 0.382149 0.039451
0.251861 0.382919 0.039110
0.278513 0.383784 0.037327
0.305132 0.384688 0.034873
0.332173 0.385587 0.032302
0.359736 0.386467 0.029780
0.380238 0.380145 0.026935
0.411482 0.383492 0.024898
0.442804 0.386422 0.022666
0.474188 0.388946 0.020372
0.505625 0.391112 0.018072
0.537115 0.392972 0.015787
0.568654 0.394573 0.013526
0.600243 0.395954 0.011290
0.631880 0.397147 0.009079
0.663565 0.398178 0.006889
0.695381 0.399683 0.006040
0.727294 0.401416 0.005800
0.759263 0.403113 0.005561
0.791285 0.404777 0.005323
0.823359 0.406411 0.005085
0.855482 0.408019 0.004847
0.887653 0.409601 0.004611
0.919870 0.411161 0.004374
0.953145 0.413090 0.004033
0.986544 0.414979 0.003626
0.006834 0.404968 0.010694
0.035828 0.406047 0.010488
0.092233 0.410750 0.042236
0.119538 0.411610 0.042118
0.146961 0.412435 0.041996
0.174496 0.413229 0.041871
0.202137 0.413992 0.041742
0.229881 0.414727 0.041610
0.257720 0.415434 0.041476
0.285115 0.416177 0.040618
0.311865 0.417009 0.038491
0.338763 0.417864 0.035947
0.366089 0.418710 0.033352
0.393895 0.419538 0.030803
0.414017 0.412611 0.027915
0.445450 0.415925 0.025867
0.476951 0.418854 0.023626
0.508505 0.421402 0.021317
0.540107 0.423608 0.018996
0.571753 0.425518 0.016687
0.603442 0.427173 0.014399
0.635173 0.428611 0.012136
0.666945 0.429861 0.009897
0.698759 0.430948 0.007681
0.730613 0.431894 0.005485
0.762621 0.433594 0.005185
0.794683 0.435287 0.004948
0.826792 0.436947 0.004711
0.859716 0.438929 0.004397
0.892926 0.440934 0.003989
0.926214 0.442904 0.003581
0.959576 0.444841 0.003173
0.993009 0.446748 0.002764
0.008254 0.437829 0.010315
0.037524 0.438831 0.010105
0.096670 0.443644 0.044427
0.124187 0.444445 0.044301
0.151807 0.445217 0.044173
0.179527 0.445960 0.044041
0.207341 0.446677 0.043907
0.235246 0.447368 0.043770
0.263237 0.448035 0.043631
0.291254 0.448685 0.043419
0.318457 0.449423 0.041947
0.345369 0.450222 0.039606
0.372523 0.451033 0.037006
0.400098 0.451833 0.034396
0.428111 0.452617 0.031818
0.447828 0.445091 0.028894
0.479424 0.448377 0.026838
0.511081 0.451306 0.024591
0.542786 0.453876 0.022272
0.574531 0.456120 0.019936
0.606316 0.458077 0.017607
0.638137 0.459785 0.015297
0.669995 0.461278 0.013010
0.701888 0.462583 0.010746
0.733818 0.463726 0.008506
0.766365 0.465046 0.006231
0.799254 0.466542 0.004362
0.832363 0.468651 0.003952
0.865550 0.470717 0.003543
0.898813 0.472743 0.003133
0.932147 0.474733 0.002723
0.965552 0.476689 0.002313
0.999023 0.478614 0.001903
0.009696 0.470699 0.009925
0.039209 0.471633 0.009712
0.101074 0.476564 0.046613
0.128778 0.477314 0.046482
0.156575 0.478038 0.046348
0.184459 0.478737 0.046211
0.212429 0.479412 0.046073
0.240479 0.480064 0.045932
0.268607 0.480695 0.045790
0.296808 0.481304 0.045645
0.324748 0.481932 0.045062
0.351907 0.482660 0.043170
0.379004 0.483427 0.040694
0.406390 0.484199 0.038058
0.434183 0.484960 0.035437
0.462376 0.485707 0.032830
0.481666 0.477586 0.029876
0.513406 0.480848 0.027815
0.545201 0.483777 0.025565
0.577038 0.486368 0.023239
0.608911 0.488648 0.020890
0.640819 0.490649 0.018545
0.673348 0.492789 0.016153
0.706124 0.494774 0.013687
0.738959 0.496555 0.011240
0.771852 0.498156 0.008813
0.804802 0.499599 0.006405
0.837809 0.500900 0.004015
0.870971 0.502575 0.002689
0.904288 0.504626 0.002277
0.937672 0.506638 0.001866
0.971123 0.508616 0.001455
1.000000 0.510560 0.001044
0.011158 0.503578 0.009530
0.040886 0.504453 0.009315
0.105451 0.509507 0.048798
0.133323 0.510212 0.048662
0.161277 0.510893 0.048524
0.189311 0.511553 0.048384
0.217420 0.512190 0.048242
0.245602 0.512808 0.048098
0.273854 0.513405 0.047953
0.302173 0.513985 0.047807
0.330551 0.514546 0.047651
0.358258 0.515179 0.046500
0.385469 0.515891 0.044332
0.412753 0.516629 0.041768
0.440349 0.517367 0.039110
0.468334 0.518093 0.036481
0.496684 0.518808 0.033844
0.515530 0.510097 0.030864
0.547397 0.513338 0.028799
0.579650 0.516544 0.026532
0.612386 0.519667 0.024039
0.645180 0.522465 0.021516
0.678029 0.524972 0.018990
0.710932 0.527220 0.016476
0.743888 0.529240 0.013979
0.776895 0.531058 0.011501
0.809953 0.532697 0.009044
0.843062 0.534178 0.006606
0.876221 0.535518 0.004186
0.909429 0.536731 0.001783
0.942833 0.538604 0.001011
0.976331 0.540605 0.000600
1.000000 0.542571 0.000188
0.012638 0.536467 0.009131
0.042558 0.537289 0.008915
0.109808 0.542472 0.050983
0.137830 0.543136 0.050844
0.165927 0.543780 0.050703
0.194094 0.544403 0.050560
0.222331 0.545008 0.050416
0.250633 0.545594 0.050270
0.278999 0.546162 0.050123
0.307425 0.546713 0.049975
0.335911 0.547248 0.049825
0.364272 0.547788 0.049442
0.391825 0.548427 0.047812
0.419135 0.549121 0.045459
0.446674 0.549921 0.042844
0.474901 0.551040 0.040102
0.503561 0.552136 0.037355
0.532591 0.553218 0.034568
0.550788 0.543718 0.031613
0.583576 0.547485 0.029374
0.616439 0.550934 0.026950
0.649361 0.554055 0.024440
0.682335 0.556866 0.021897
0.715359 0.559397 0.019349
0.748430 0.561675 0.016810
0.781548 0.563729 0.014287
0.814711 0.565584 0.011783
0.847920 0.567262 0.009298
0.881173 0.568782 0.006834
0.914471 0.570160 0.004387
0.947813 0.571412 0.001958
0.981216 0.572644 0.000000
1.000000 0.574634 0.000000
0.014134 0.569365 0.008732
0.044226 0.570140 0.008516
0.114149 0.575456 0.053172
0.142307 0.576085 0.053030
0.170532 0.576694 0.052887
0.198822 0.577286 0.052742
0.227174 0.577860 0.052596
0.255586 0.578417 0.052448
0.284056 0.578959 0.052300
0.312582 0.579485 0.052150
0.341209 0.580077 0.052007
0.370209 0.581024 0.051796
0.398796 0.581994 0.050852
0.426757 0.583035 0.048788
0.454672 0.584105 0.046201
0.482825 0.585177 0.043426
0.511334 0.586240 0.040624
0.540231 0.587287 0.037859
0.569462 0.588323 0.035026
0.587219 0.578185 0.032053
0.620188 0.581914 0.029801
0.653224 0.585346 0.027366
0.686314 0.588466 0.024844
0.719452 0.591291 0.022286
0.752633 0.593843 0.019719
0.785857 0.596151 0.017158
0.819121 0.598239 0.014612
0.852427 0.600130 0.012084
0.885773 0.601847 0.009576
0.919160 0.603406 0.007087
0.952585 0.604824 0.004617
0.986051 0.606114 0.002164
1.000000 0.607290 0.000000
0.015646 0.602272 0.008335
0.045893 0.603006 0.008118
0.118478 0.608460 0.055365
0.146759 0.609056 0.055221
0.175101 0.609634 0.055076
0.203502 0.610197 0.054930
0.231963 0.610749 0.054783
0.260739 0.611762 0.054600
0.289650 0.612737 0.054351
0.318652 0.613686 0.054100
0.347741 0.614611 0.053847
0.376914 0.615513 0.053591
0.406090 0.616399 0.053234
0.434528 0.617355 0.051765
0.462599 0.618364 0.049457
0.490729 0.619393 0.046771
0.519123 0.620422 0.043956
0.547865 0.621440 0.041136
0.576975 0.622443 0.038356
0.606386 0.623438 0.035477
0.623684 0.612666 0.032491
0.656816 0.616364 0.030227
0.690009 0.619779 0.027785
0.723251 0.622900 0.025253
0.756536 0.625737 0.022682
0.789861 0.628312 0.020100
0.823224 0.630648 0.017521
0.856623 0.632769 0.014956
0.890059 0.634697 0.012407
0.923532 0.636451 0.009877
0.957040 0.638049 0.007366
0.990584 0.639506 0.004874
1.000000 0.640836 0.002400
0.017172 0.635190 0.007940
0.047561 0.635885 0.007725
0.122797 0.641481 0.057564
0.151333 0.642481 0.057402
0.180038 0.643516 0.057159
0.208839 0.644525 0.056913
0.237732 0.645508 0.056665
0.266713 0.646465 0.056414
0.295781 0.647399 0.056161
0.324931 0.648309 0.055905
0.354162 0.649196 0.055647
0.383471 0.650062 0.055387
0.412855 0.650906 0.055125
0.441966 0.651767 0.054417
0.470363 0.652706 0.052562
0.498574 0.653685 0.050079
0.526913 0.654677 0.047321
0.555528 0.655665 0.044478
0.584481 0.656643 0.041642
0.613785 0.657607 0.038850
0.643356 0.658567 0.035927
0.660180 0.647164 0.032929
0.693459 0.650832 0.030657
0.726795 0.654234 0.028208
0.760176 0.657355 0.025669
0.793596 0.660205 0.023088
0.827051 0.662801 0.020493
0.860541 0.665165 0.017900
0.894064 0.667318 0.015317
0.927620 0.669281 0.012750
0.961209 0.671073 0.010201
0.994830 0.672709 0.007671
1.000000 0.674205 0.005159
0.018712 0.668117 0.007550
0.049229 0.668779 0.007336
0.127783 0.676386 0.059482
0.156571 0.677400 0.059236
0.185451 0.678389 0.058987
0.214417 0.679353 0.058736
0.243468 0.680293 0.058483
0.272601 0.681211 0.058228
0.301813 0.682106 0.057970
0.331102 0.682979 0.057711
0.360465 0.683832 0.057449
0.389900 0.684665 0.057186
0.419404 0.685478 0.056921
0.448958 0.686275 0.056631
0.477880 0.687130 0.055418
0.506307 0.688050 0.053280
0.534673 0.689000 0.050670
0.563210 0.689957 0.047859
0.592029 0.690910 0.044994
0.621175 0.691852 0.042148
0.650653 0.692781 0.039344
0.680368 0.693708 0.036378
0.696705 0.681677 0.033371
0.730119 0.685319 0.031091
0.763585 0.688709 0.028639
0.797092 0.691832 0.026095
0.830635 0.694694 0.023506
0.864211 0.697310 0.020901
0.897818 0.699701 0.018295
0.931455 0.701886 0.015697
0.965121 0.703884 0.013114
0.998817 0.705712 0.010548
1.000000 0.707386 0.008001
0.020501 0.702407 0.006886
0.051341 0.703586 0.006524
0.132829 0.711374 0.061318
0.161785 0.712344 0.061067
0.190824 0.713290 0.060814
0.219944 0.714213 0.060559
0.249141 0.715114 0.060302
0.278414 0.715995 0.060043
0.307760 0.716854 0.059782
0.337177 0.717694 0.059520
0.366663 0.718515 0.059255
0.396216 0.719317 0.058989
0.425834 0.720102 0.058722
0.455515 0.720868 0.058453
0.485054 0.721640 0.057925
0.513859 0.722490 0.056292
0.542359 0.723390 0.053945
0.570884 0.724312 0.051241
0.599608 0.725238 0.048391
0.628615 0.726158 0.045511
0.657936 0.727068 0.042655
0.687574 0.727965 0.039842
0.717420 0.728863 0.036833
0.733257 0.716207 0.033819
0.766793 0.719826 0.031534
0.800379 0.723205 0.029079
0.834003 0.726330 0.026532
0.867659 0.729203 0.023937
0.901346 0.731840 0.021323
0.935061 0.734256 0.018706
0.968803 0.736472 0.016097
1.000000 0.738503 0.013500
1.000000 0.740367 0.010919
0.022482 0.737326 0.005994
0.053514 0.738453 0.005630
0.075048 0.752137 0.020048
0.166978 0.747310 0.062899
0.196165 0.748216 0.062642
0.225426 0.749102 0.062384
0.254759 0.749968 0.062124
0.284162 0.750814 0.061862
0.313633 0.751641 0.061598
0.343170 0.752450 0.061333
0.372771 0.753241 0.061066
0.402434 0.754015 0.060798
0.432158 0.754772 0.060529
0.461940 0.755513 0.060258
0.491780 0.756238 0.059987
0.521146 0.757007 0.059027
0.549914 0.757848 0.057077
0.578514 0.758728 0.054575
0.607197 0.759624 0.051801
0.636097 0.760521 0.048923
0.665277 0.761412 0.046030
0.694759 0.762292 0.043167
0.724543 0.763161 0.040346
0.754507 0.764033 0.037294
0.769834 0.750754 0.034275
0.803484 0.754352 0.031986
0.837179 0.757722 0.029530
0.870910 0.760848 0.026980
0.904672 0.763733 0.024381
0.938461 0.766388 0.021761
0.972275 0.768830 0.019135
1.000000 0.771075 0.016515
1.000000 0.773139 0.013906
0.024483 0.772255 0.005099
0.055690 0.773335 0.004735
0.086993 0.774386 0.004370
0.172153 0.782297 0.064733
0.201477 0.783168 0.064473
0.230869 0.784019 0.064211
0.260328 0.784852 0.063949
0.289853 0.785666 0.063684
0.319441 0.786463 0.063418
0.349090 0.787243 0.063151
0.378798 0.788007 0.062883
0.408565 0.788755 0.062614
0.438388 0.789486 0.062343
0.468266 0.790203 0.062071
0.498198 0.790906 0.061798
0.528081 0.791604 0.061399
0.557269 0.792377 0.059992
0.586052 0.793207 0.057802
0.614766 0.794067 0.055182
0.643604 0.794938 0.052356
0.672669 0.795809 0.049456
0.702008 0.796673 0.046555
0.731638 0.797526 0.043687
0.761556 0.798369 0.040857
0.791627 0.799218 0.037764
0.806435 0.785318 0.034741
0.840190 0.788897 0.032449
0.873986 0.792258 0.029992
0.907817 0.795386 0.027442
0.941675 0.798282 0.024840
0.975559 0.800956 0.022215
1.000000 0.803423 0.019582
1.000000 0.805696 0.016953
0.026502 0.807195 0.004204
0.057872 0.808230 0.003840
0.089330 0.809240 0.003475
0.177314 0.817305 0.066569
0.206765 0.818142 0.066307
0.236279 0.818962 0.066043
0.265857 0.819764 0.065778
0.295494 0.820549 0.065512
0.325191 0.821318 0.065245
0.354945 0.822072 0.064976
0.384755 0.822809 0.064707
0.414619 0.823532 0.064436
0.444536 0.824241 0.064165
0.474504 0.824935 0.063892
0.504523 0.825616 0.063619
0.534590 0.826283 0.063344
0.564347 0.826978 0.062610
0.593440 0.827750 0.060858
0.622273 0.828568 0.058485
