Camera18_LUT_V0/luts/fuji-classic-chrome.cube
TITLE "Camera18 V0 - Fujifilm Classic Chrome inspired"
LUT_3D_SIZE 5
DOMAIN_MIN 0.0 0.0 0.0
DOMAIN_MAX 1.0 1.0 1.0
# Original Camera 18 V0 approximation; input expected normalized display-referred RGB.
# Muted documentary look: restrained magenta, cooler shadows, warm-ish mids, lifted toe.
0.000000 0.007500 0.022500
0.217646 0.053898 0.062368
0.412602 0.098362 0.109272
0.677708 0.159613 0.174804
0.939977 0.220157 0.239402
0.056029 0.206719 0.057321
0.213633 0.212349 0.053773
0.459745 0.274318 0.105613
0.714288 0.332224 0.161274
0.969388 0.387809 0.217984
0.133457 0.466564 0.122133
0.308996 0.473207 0.119686
0.481323 0.469760 0.111690
0.739859 0.533143 0.165917
0.998349 0.590911 0.222922
0.211602 0.732701 0.189588
0.393915 0.738924 0.188573
0.581137 0.746973 0.184010
0.756841 0.737342 0.174687
1.000000 0.797757 0.229384
0.289775 1.000000 0.260441
0.473212 1.000000 0.258025
0.654966 1.000000 0.251746
0.838290 0.999361 0.243120
1.000000 0.976669 0.232033
0.049686 0.062947 0.230329
0.210172 0.070791 0.219015
0.426950 0.123619 0.283237
0.686725 0.184334 0.363584
0.948321 0.243561 0.435708
0.049229 0.207205 0.203580
0.217101 0.220573 0.221541
0.463155 0.287091 0.291513
0.717888 0.351337 0.359434
0.977204 0.415020 0.427700
0.122225 0.467954 0.282700
0.304087 0.472477 0.296273
0.483054 0.476759 0.295378
0.742599 0.540102 0.355981
1.000000 0.597461 0.416308
0.193603 0.733903 0.351851
0.389001 0.738968 0.372202
0.575314 0.746315 0.372276
0.758348 0.744642 0.367320
1.000000 0.802134 0.423186
0.264922 1.000000 0.421144
0.466662 1.000000 0.443165
0.647918 0.996936 0.439182
0.830822 0.996581 0.432613
0.999936 0.980379 0.421913
0.097045 0.113044 0.415187
0.254871 0.117751 0.412175
0.435181 0.142061 0.439514
0.695772 0.211079 0.538423
0.956312 0.272698 0.622328
0.104811 0.284546 0.438480
0.276001 0.284098 0.445972
0.465612 0.309118 0.465695
0.720816 0.377194 0.551016
0.983978 0.442232 0.631041
0.117556 0.465642 0.451964
0.294403 0.469767 0.461267
0.485074 0.484105 0.480738
0.744008 0.552819 0.554666
1.000000 0.618256 0.625522
0.193762 0.735732 0.533098
0.377180 0.740190 0.542340
0.568888 0.744253 0.557473
0.759762 0.751884 0.560834
1.000000 0.805200 0.616273
0.264312 1.000000 0.605718
0.447430 0.999458 0.608409
0.640912 0.993881 0.623282
0.822519 0.993030 0.619281
0.997819 0.984137 0.611149
0.151210 0.171488 0.630530
0.321126 0.176695 0.654581
0.516049 0.205078 0.681662
0.699146 0.226038 0.699068
0.962505 0.298103 0.796025
0.164901 0.355847 0.679229
0.341384 0.354271 0.686473
0.531453 0.369305 0.702615
0.723190 0.396323 0.718896
0.989973 0.470960 0.816683
0.173202 0.545846 0.701342
0.353796 0.544313 0.707249
0.537718 0.542661 0.712932
0.743821 0.574776 0.738566
1.000000 0.646687 0.828463
0.186107 0.731138 0.708799
0.370335 0.735464 0.719186
0.556594 0.739248 0.729126
0.761485 0.759466 0.755561
1.000000 0.814601 0.816197
0.263494 1.000000 0.789315
0.446356 0.997859 0.791192
0.627661 0.992848 0.793373
0.813533 0.988038 0.801744
0.995764 0.987940 0.799777
0.214944 0.240651 0.885196
0.383071 0.236807 0.901976
0.584116 0.264497 0.926453
0.779456 0.291221 0.945483
0.964531 0.310539 0.960262
0.226215 0.426356 0.924825
0.406306 0.424173 0.931611
0.591537 0.429600 0.946527
0.798732 0.462236 0.969262
0.991142 0.486618 0.985930
0.234662 0.620463 0.953022
0.418289 0.618136 0.959212
0.605008 0.616057 0.965229
0.807241 0.634827 0.984253
1.000000 0.666149 1.000000
0.240404 0.819689 0.975145
0.427242 0.816674 0.979174
0.615522 0.813281 0.982818
0.803657 0.808033 0.983994
1.000000 0.832799 0.998585
0.252653 0.995096 0.965684
0.436142 0.989718 0.966753
0.618078 0.984777 0.968198
0.798651 0.980222 0.969973
0.991841 0.989865 0.985914
