Camera18_LUT_V0/luts/fuji-classic-chrome.cube
TITLE "Camera18 V0 - Fujifilm Classic Chrome inspired"
LUT_3D_SIZE 9
DOMAIN_MIN 0.0 0.0 0.0
DOMAIN_MAX 1.0 1.0 1.0
# Original Camera 18 V0 approximation; input expected normalized display-referred RGB.
# Muted documentary look: restrained magenta, cooler shadows, warm-ish mids, lifted toe.
0.000000 0.007500 0.022500
0.119583 0.031965 0.039748
0.217646 0.053898 0.062368
0.314907 0.076022 0.085641
0.412602 0.098362 0.109272
0.545086 0.128991 0.142080
0.677708 0.159613 0.174804
0.810401 0.190243 0.207495
0.939977 0.220157 0.239402
0.026968 0.112118 0.034656
0.104910 0.108502 0.030980
0.207840 0.126865 0.052013
0.314441 0.148634 0.075145
0.439973 0.178169 0.103000
0.567778 0.207101 0.131427
0.696937 0.235690 0.160206
0.826964 0.264067 0.189222
0.953382 0.291042 0.217488
0.056029 0.206719 0.057321
0.134896 0.211992 0.056868
0.213633 0.212349 0.053773
0.335192 0.244411 0.078905
0.459745 0.274318 0.105613
0.586327 0.303464 0.133173
0.714288 0.332224 0.161274
0.843216 0.360755 0.189747
0.969388 0.387809 0.217984
0.094563 0.336357 0.089745
0.178810 0.340242 0.089280
0.265768 0.344889 0.087128
0.347387 0.341009 0.082770
0.472681 0.372372 0.108242
0.599274 0.401948 0.135037
0.726991 0.430863 0.162515
0.858331 0.461117 0.191717
0.985522 0.488568 0.220332
0.133457 0.466564 0.122133
0.220590 0.469394 0.121728
0.308996 0.473207 0.119686
0.399710 0.477283 0.116379
0.481323 0.469760 0.111690
0.609434 0.501619 0.137736
0.739859 0.533143 0.165917
0.871420 0.563887 0.194774
0.998349 0.590911 0.222922
0.172403 0.596853 0.154534
0.261555 0.599842 0.154571
0.351446 0.604088 0.153175
0.443519 0.608504 0.151246
0.537301 0.613327 0.147318
0.618521 0.602717 0.142703
0.749741 0.635801 0.169782
0.881521 0.667165 0.198171
1.000000 0.694156 0.225941
0.211602 0.732701 0.189588
0.302639 0.735349 0.189808
0.393915 0.738924 0.188573
0.486677 0.742921 0.186567
0.581137 0.746973 0.184010
0.676959 0.751437 0.179419
0.756841 0.737342 0.174687
0.889389 0.770263 0.201943
1.000000 0.797757 0.229384
0.250720 0.868940 0.224943
0.343140 0.871146 0.225183
0.435524 0.874190 0.224136
0.528864 0.877798 0.222181
0.623752 0.881457 0.220003
0.719700 0.885421 0.216538
0.814298 0.886583 0.210963
0.891366 0.868484 0.206009
1.000000 0.888393 0.229981
0.289775 1.000000 0.260441
0.382338 1.000000 0.260082
0.473212 1.000000 0.258025
0.563862 1.000000 0.255051
0.654966 1.000000 0.251746
0.746640 0.999602 0.248332
0.838290 0.999361 0.243120
0.930201 0.998625 0.237186
1.000000 0.976669 0.232033
0.025115 0.038124 0.138463
0.112905 0.040546 0.125342
0.213121 0.063819 0.147197
0.311333 0.085478 0.169955
0.419571 0.109554 0.197586
0.550311 0.139485 0.234138
0.681784 0.169573 0.269388
0.813670 0.199793 0.303899
0.943857 0.229649 0.337280
0.022925 0.110606 0.111314
0.104093 0.109996 0.113025
0.206312 0.130765 0.135210
0.318676 0.158418 0.164512
0.444415 0.190907 0.198884
0.572339 0.222827 0.232708
0.701574 0.254415 0.266217
0.831652 0.285797 0.299535
0.959142 0.316015 0.331667
0.051133 0.207561 0.128236
0.133130 0.212335 0.136007
0.215364 0.216441 0.136988
0.337096 0.247985 0.165791
0.461429 0.277610 0.195063
0.587799 0.306742 0.224554
0.715571 0.335584 0.254159
0.844331 0.364228 0.283837
0.971643 0.391930 0.313316
0.086443 0.337128 0.164038
0.176778 0.340531 0.173603
0.263347 0.344815 0.173792
0.348561 0.344712 0.171582
0.474041 0.375840 0.199020
0.600558 0.405129 0.227266
0.728380 0.434066 0.256070
0.859852 0.464475 0.286861
0.987141 0.492044 0.316210
0.122038 0.467042 0.196525
0.218291 0.469711 0.208700
0.306543 0.472740 0.208550
0.397229 0.477127 0.207057
0.482205 0.473270 0.203372
0.610854 0.505409 0.231155
0.741266 0.536666 0.260663
0.872748 0.567223 0.290674
0.999574 0.594133 0.319307
0.157714 0.597157 0.227735
0.259089 0.600498 0.243494
0.349183 0.603763 0.243957
0.440801 0.608413 0.243052
0.534849 0.613486 0.240958
0.619480 0.606490 0.237078
0.750854 0.639489 0.265413
0.882652 0.670654 0.294745
1.000000 0.697372 0.322800
0.193514 0.732959 0.261558
0.299952 0.735972 0.280523
0.391629 0.738583 0.280918
0.483999 0.742517 0.279928
0.578383 0.746764 0.278475
0.674380 0.751610 0.275111
0.757606 0.740999 0.270889
0.890298 0.773885 0.299099
1.000000 0.800553 0.326536
0.229237 0.869071 0.295056
0.340288 0.871742 0.317205
0.433167 0.873898 0.317574
0.526270 0.877235 0.316648
0.620797 0.881138 0.315038
0.716915 0.885166 0.312907
0.810485 0.885507 0.307337
0.890142 0.870241 0.302495
1.000000 0.890146 0.325805
0.264908 1.000000 0.328328
0.378833 1.000000 0.352387
0.470177 1.000000 0.351164
0.560703 0.999662 0.348821
0.651400 0.998823 0.345713
0.742843 0.998198 0.342473
0.834609 0.998061 0.338086
0.926781 0.997990 0.332343
1.000000 0.978518 0.327055
0.049686 0.062947 0.230329
0.132707 0.064004 0.223473
0.210172 0.070791 0.219015
0.309050 0.095724 0.244891
0.426950 0.123619 0.283237
0.556395 0.154315 0.324903
0.686725 0.184334 0.363584
0.817688 0.214034 0.400380
0.948321 0.243561 0.435708
0.046805 0.136169 0.211702
0.124281 0.132033 0.209082
0.204140 0.138487 0.210505
0.322621 0.171373 0.252358
0.447586 0.203318 0.291607
0.574893 0.234226 0.328088
0.703664 0.265013 0.363329
0.833383 0.295807 0.397908
0.961972 0.326022 0.431301
0.049229 0.207205 0.203580
0.129075 0.211572 0.210233
0.217101 0.220573 0.221541
0.338502 0.254263 0.256920
0.463155 0.287091 0.291513
0.589844 0.319388 0.325628
0.717888 0.351337 0.359434
0.847077 0.383141 0.393128
0.977204 0.415020 0.427700
0.086703 0.338318 0.247181
0.171536 0.341318 0.251834
0.260610 0.344061 0.259138
0.349678 0.348376 0.260956
0.475352 0.379196 0.290525
0.601616 0.408235 0.320245
0.729739 0.437535 0.350671
0.861042 0.468022 0.382822
0.988775 0.495978 0.413050
0.122225 0.467954 0.282700
0.209787 0.470237 0.286606
0.304087 0.472477 0.296273
0.394214 0.476466 0.296755
0.483054 0.476759 0.295378
0.612275 0.509152 0.325141
0.742599 0.540102 0.355981
0.873932 0.570505 0.387155
1.000000 0.597461 0.416308
0.157890 0.598126 0.315929
0.247351 0.601023 0.320306
0.346736 0.604037 0.333656
0.437989 0.607687 0.334459
0.532090 0.613188 0.334308
0.620404 0.610242 0.331779
0.751979 0.643160 0.361419
0.883765 0.674087 0.391704
1.000000 0.700551 0.420044
0.193603 0.733903 0.351851
0.284850 0.736320 0.355920
0.389001 0.738968 0.372202
0.481363 0.741746 0.372773
0.575314 0.746315 0.372276
0.671612 0.751488 0.370705
0.758348 0.744642 0.367320
0.891211 0.777494 0.396538
1.000000 0.802134 0.423186
0.229284 0.869890 0.386784
0.321829 0.871960 0.390667
0.430378 0.874338 0.410026
0.523715 0.876560 0.410507
0.617822 0.880412 0.409833
0.713246 0.883895 0.408406
0.806599 0.884288 0.403425
0.888939 0.872014 0.398766
1.000000 0.891897 0.421480
0.264922 1.000000 0.421144
0.357058 1.000000 0.423258
0.466662 1.000000 0.443165
0.557536 0.997973 0.441722
0.647918 0.996936 0.439182
0.738957 0.996620 0.436102
0.830822 0.996581 0.432613
0.923301 0.997254 0.427346
0.999936 0.980379 0.421913
0.073469 0.087966 0.322688
0.151668 0.086269 0.318871
0.233008 0.094873 0.315166
0.306846 0.101198 0.313121
0.432971 0.136029 0.364004
0.561789 0.167392 0.410325
0.691515 0.198124 0.452799
0.821903 0.228777 0.492968
0.952692 0.259176 0.531428
0.071057 0.160541 0.307863
0.147550 0.157092 0.305803
0.235048 0.166376 0.318043
0.325292 0.180867 0.329696
0.451618 0.216980 0.377154
0.578488 0.248788 0.418813
0.706691 0.280177 0.457922
0.835880 0.310784 0.495106
0.965908 0.341042 0.531134
0.075591 0.248350 0.321304
0.158274 0.248702 0.325137
0.243028 0.248825 0.328623
0.339287 0.264856 0.341621
0.464539 0.299761 0.384499
0.590845 0.331561 0.422221
0.718700 0.362554 0.457844
0.848715 0.394092 0.493539
0.980318 0.426074 0.529858
0.083294 0.336394 0.327828
0.168526 0.339308 0.333208
0.255074 0.341867 0.338285
0.350933 0.352192 0.351038
0.475735 0.385017 0.385605
0.602211 0.417407 0.419792
0.731465 0.450614 0.455246
0.863138 0.484368 0.491687
0.992559 0.516158 0.526176
0.122404 0.468836 0.369188
0.210093 0.471042 0.373503
0.298554 0.473036 0.377678
0.390690 0.474925 0.384693
0.483871 0.480227 0.387689
0.613657 0.512786 0.419822
0.743662 0.543420 0.452002
0.874769 0.573810 0.484310
1.000000 0.601166 0.514183
0.158026 0.599218 0.404561
0.247616 0.602035 0.409362
0.338004 0.604631 0.414045
0.435235 0.607238 0.424723
0.528658 0.612237 0.426486
0.621296 0.613973 0.426791
0.753137 0.646805 0.457862
0.884815 0.677435 0.489120
1.000000 0.703754 0.517811
0.193685 0.734828 0.442367
0.285024 0.737188 0.446740
0.376935 0.739390 0.451041
0.478669 0.741719 0.464543
0.572039 0.745110 0.465469
0.668458 0.750826 0.465839
0.759066 0.748270 0.463971
0.892155 0.781098 0.494276
1.000000 0.803682 0.519728
0.229326 0.870694 0.478677
0.321940 0.872722 0.482789
0.414983 0.874632 0.486855
0.520938 0.876751 0.503352
0.614839 0.879263 0.503995
0.708990 0.882051 0.502805
0.802560 0.882807 0.499099
0.887758 0.873803 0.494829
1.000000 0.893637 0.517013
0.264727 1.000000 0.513689
0.356569 1.000000 0.515221
0.447976 1.000000 0.516806
0.554009 0.997048 0.533449
0.644494 0.994967 0.531818
0.735066 0.994669 0.529250
0.826825 0.994918 0.526421
0.919467 0.996074 0.521986
0.998870 0.982252 0.516609
0.097045 0.113044 0.415187
0.171080 0.108648 0.413114
0.254871 0.117751 0.412175
0.347373 0.131911 0.428368
0.435181 0.142061 0.439514
0.566274 0.179215 0.492129
0.695772 0.211079 0.538423
0.825812 0.242023 0.581455
0.956312 0.272698 0.622328
0.098195 0.191491 0.416586
0.180355 0.192332 0.423653
0.265972 0.196226 0.433467
0.362772 0.212402 0.446131
0.453026 0.224519 0.455282
0.581810 0.261635 0.503389
0.709908 0.293613 0.546373
0.838829 0.324858 0.586765
0.970362 0.356719 0.627307
0.104811 0.284546 0.438480
0.189491 0.284310 0.442330
0.276001 0.284098 0.445972
0.370505 0.293699 0.455810
0.465612 0.309118 0.465695
0.593337 0.345355 0.510825
0.720816 0.377194 0.551016
0.851449 0.409890 0.591414
0.983978 0.442232 0.631041
0.109463 0.379095 0.451791
0.196236 0.378394 0.454199
0.283942 0.377444 0.456349
0.372816 0.376575 0.458503
0.475108 0.394988 0.472993
0.602303 0.429697 0.515090
0.732005 0.463036 0.554901
0.863612 0.495861 0.593175
0.995007 0.527937 0.629764
0.117556 0.465642 0.451964
0.205594 0.467808 0.456703
0.294403 0.469767 0.461267
0.383888 0.471543 0.465678
0.485074 0.484105 0.480738
0.613756 0.518665 0.517869
0.744008 0.552819 0.554666
0.875469 0.586666 0.591214
1.000000 0.618256 0.625522
0.158154 0.600282 0.493496
0.247870 0.603023 0.498701
0.338366 0.605550 0.503761
0.429562 0.607886 0.508691
0.524478 0.610144 0.516580
0.622157 0.617684 0.522101
0.754275 0.650350 0.554873
0.885567 0.680632 0.587102
1.000000 0.707207 0.616364
0.193762 0.735732 0.533098
0.285191 0.738038 0.537764
0.377180 0.740190 0.542340
0.469681 0.742202 0.546836
0.568888 0.744253 0.557473
0.664511 0.749391 0.559586
0.759762 0.751884 0.560834
0.893154 0.784693 0.592385
1.000000 0.805200 0.616273
0.229364 0.871484 0.570731
0.322045 0.873471 0.575064
0.415147 0.875343 0.579340
0.508640 0.877108 0.583562
0.611923 0.878998 0.597137
0.704548 0.879490 0.596294
0.798175 0.880830 0.594020
0.886597 0.875606 0.590690
1.000000 0.895354 0.612409
0.264312 1.000000 0.605718
0.356085 1.000000 0.607032
0.447430 0.999458 0.608409
0.538376 0.996827 0.609845
0.640912 0.993881 0.623282
0.731180 0.992331 0.621554
0.822519 0.993030 0.619281
0.915436 0.994591 0.616212
0.997819 0.984137 0.611149
0.120533 0.138152 0.507750
0.193384 0.132863 0.513403
0.288847 0.147062 0.532513
0.384901 0.161642 0.548171
0.478283 0.174780 0.560420
0.567121 0.184040 0.569299
0.699299 0.222276 0.620832
0.829283 0.254644 0.667053
0.959600 0.285892 0.710495
0.128302 0.227026 0.537597
0.212946 0.227386 0.544123
0.296205 0.226615 0.551942
0.395523 0.242064 0.564173
0.491834 0.256947 0.574605
0.582256 0.267627 0.582258
0.712666 0.305723 0.630604
0.841592 0.338075 0.674388
0.974155 0.370684 0.718914
0.134648 0.320334 0.558038
0.220843 0.319664 0.561784
0.308767 0.319232 0.565460
0.399622 0.323070 0.573191
0.500496 0.340010 0.583596
0.593625 0.352753 0.591431
0.723066 0.390174 0.637614
0.854624 0.424021 0.682995
0.987154 0.457085 0.726022
0.139304 0.414917 0.571247
0.227150 0.413898 0.573713
0.315756 0.412680 0.575940
0.405578 0.411715 0.578255
0.504167 0.422258 0.588138
0.602843 0.439086 0.598537
0.734484 0.477485 0.646623
0.865668 0.511115 0.689509
0.997819 0.544366 0.730348
0.142991 0.510245 0.580382
0.232060 0.508951 0.582077
0.321702 0.507506 0.583622
0.412181 0.506453 0.585786
0.503878 0.505868 0.588533
0.612516 0.528551 0.607688
0.743698 0.565309 0.652827
0.874914 0.598718 0.692668
1.000000 0.630967 0.730069
0.151886 0.596006 0.577389
0.241932 0.598716 0.583025
0.332762 0.601214 0.588486
0.424296 0.603523 0.593792
0.516464 0.605662 0.598957
0.623317 0.621704 0.618024
0.753738 0.655846 0.654837
0.885213 0.689722 0.691437
1.000000 0.721053 0.725512
0.193832 0.736618 0.624039
0.285349 0.738871 0.628984
0.377416 0.740975 0.633824
0.469985 0.742943 0.638570
0.563015 0.744787 0.643229
0.659602 0.746594 0.650934
0.760436 0.755484 0.657902
0.894145 0.788195 0.690993
1.000000 0.806793 0.713099
0.229398 0.872259 0.662942
0.322144 0.874207 0.667488
0.415306 0.876042 0.671966
0.508851 0.877773 0.676381
0.602752 0.879409 0.680739
0.700274 0.877311 0.688370
0.793056 0.878151 0.687313
0.885456 0.877424 0.686355
1.000000 0.897023 0.707718
0.263901 1.000000 0.697592
0.355607 1.000000 0.698695
0.446890 0.998652 0.699870
0.537780 0.996058 0.701112
0.628301 0.993570 0.702418
0.727410 0.990882 0.712703
0.817918 0.990321 0.711166
0.910984 0.992535 0.709650
0.996784 0.986033 0.705537
0.151210 0.171488 0.630530
0.224153 0.163337 0.637606
0.321126 0.176695 0.654581
0.419360 0.191109 0.669346
0.516049 0.205078 0.681662
0.609685 0.217442 0.691611
0.699146 0.226038 0.699068
0.832127 0.265182 0.749872
0.962505 0.298103 0.796025
0.158855 0.262281 0.660214
0.245399 0.262328 0.666262
0.326120 0.257336 0.672444
0.426623 0.271807 0.683974
0.526029 0.286981 0.694529
0.621732 0.300746 0.703401
0.712326 0.310444 0.710053
0.844241 0.349606 0.758824
0.977566 0.383980 0.807478
0.164901 0.355847 0.679229
0.252286 0.354846 0.682822
0.341384 0.354271 0.686473
0.428732 0.353323 0.692745
0.531453 0.369305 0.702615
0.630326 0.384853 0.711545
0.723190 0.396323 0.718896
0.857379 0.436756 0.770150
0.989973 0.470960 0.816683
0.169494 0.450509 0.692114
0.258212 0.449237 0.694576
0.347564 0.447802 0.696821
0.438213 0.446785 0.699239
0.532440 0.451306 0.707167
0.637676 0.470550 0.719941
0.734573 0.485109 0.729761
0.867989 0.524732 0.779112
1.000000 0.558594 0.823659
0.173202 0.545846 0.701342
0.263136 0.545131 0.704308
0.353796 0.544313 0.707249
0.445138 0.543315 0.709992
0.537718 0.542661 0.712932
0.640844 0.555548 0.725564
0.743821 0.574776 0.738566
0.876724 0.613175 0.786097
1.000000 0.646687 0.828463
0.176384 0.645116 0.713052
0.267525 0.644216 0.715480
0.359265 0.643156 0.717757
0.451555 0.641950 0.719895
0.544349 0.640610 0.721906
0.638087 0.639571 0.724156
0.751489 0.665104 0.745867
0.884024 0.701793 0.790840
1.000000 0.734898 0.830251
0.186107 0.731138 0.708799
0.277944 0.733375 0.714054
0.370335 0.735464 0.719186
0.463232 0.737418 0.724207
0.556594 0.739248 0.729126
0.650381 0.740965 0.733954
0.761485 0.759466 0.755561
0.892198 0.792551 0.791395
1.000000 0.814601 0.816197
0.229297 0.872917 0.755198
0.322239 0.874930 0.760057
0.415458 0.876729 0.764730
0.509055 0.878428 0.769332
0.602535 0.879350 0.773267
0.693490 0.876767 0.774118
0.787037 0.874192 0.778033
0.884334 0.879256 0.781831
1.000000 0.898614 0.803103
0.263494 1.000000 0.789315
0.355133 1.000000 0.790213
0.446356 0.997859 0.791192
0.537190 0.995301 0.792247
0.627661 0.992848 0.793373
0.717792 0.990492 0.794567
0.813533 0.988038 0.801744
0.905692 0.989670 0.801400
0.995764 0.987940 0.799777
0.183054 0.206068 0.757869
0.254391 0.194031 0.762640
0.352413 0.206626 0.777851
0.452071 0.220656 0.791652
0.550964 0.234844 0.803686
0.647648 0.248237 0.813915
0.741338 0.259997 0.822368
0.831208 0.268064 0.828856
0.965523 0.308158 0.879957
0.189699 0.297357 0.783894
0.277756 0.297199 0.789531
0.355829 0.288262 0.794355
0.456961 0.301809 0.805157
0.558137 0.316698 0.815477
0.656950 0.331234 0.824682
0.752173 0.344129 0.832446
0.843754 0.353474 0.839472
0.980384 0.395083 0.893105
0.195451 0.391170 0.801591
0.283794 0.389908 0.805014
0.373888 0.389245 0.808613
0.457896 0.384036 0.813753
0.561274 0.398888 0.823011
0.663820 0.415256 0.833549
0.763041 0.430645 0.843995
0.856804 0.441597 0.852009
0.992372 0.482930 0.903674
0.199944 0.485929 0.814050
0.289387 0.484453 0.816473
0.379512 0.483070 0.819136
0.471480 0.482799 0.823257
0.562141 0.482740 0.830766
0.668895 0.500669 0.842730
0.771633 0.518111 0.853775
0.867411 0.530725 0.862178
1.000000 0.571406 0.912302
0.203813 0.583197 0.826504
0.294592 0.582322 0.829697
0.386021 0.581278 0.832686
0.478044 0.580079 0.835487
0.571420 0.579385 0.838570
0.669075 0.585066 0.847885
0.777127 0.605296 0.860702
0.876209 0.620605 0.870612
1.000000 0.660347 0.919392
0.206988 0.682564 0.838610
0.298831 0.681455 0.841111
0.391199 0.680207 0.843466
0.484051 0.678833 0.845688
0.577349 0.677341 0.847787
0.671736 0.676305 0.850198
0.777923 0.690447 0.863773
0.883626 0.711065 0.877745
1.000000 0.747990 0.923170
0.209674 0.782504 0.848477
0.302264 0.781090 0.850377
0.395412 0.779669 0.852275
0.488963 0.778141 0.854076
0.582886 0.776515 0.855785
0.677158 0.774797 0.857409
0.772292 0.773475 0.859364
0.886716 0.799057 0.880651
1.000000 0.825847 0.914615
0.220259 0.866385 0.840385
0.313387 0.868287 0.845371
0.406928 0.870080 0.850268
0.500850 0.871771 0.855082
0.594695 0.872737 0.859198
0.686009 0.870161 0.859825
0.776925 0.867697 0.860547
0.883608 0.881478 0.877499
1.000000 0.903345 0.902131
0.262619 1.000000 0.880558
0.354527 0.999617 0.881489
0.445826 0.997078 0.882379
0.536607 0.994556 0.883252
0.627028 0.992136 0.884204
0.717114 0.989812 0.885230
0.806884 0.987577 0.886326
0.899311 0.985337 0.890437
0.994759 0.989859 0.893873
0.214944 0.240651 0.885196
0.284283 0.224881 0.888224
0.383071 0.236807 0.901976
0.483702 0.250378 0.914851
0.584116 0.264497 0.926453
0.682971 0.278337 0.936667
0.779456 0.291221 0.945483
0.873129 0.302498 0.952890
0.964531 0.310539 0.960262
0.220741 0.332315 0.908315
0.310042 0.332025 0.913604
0.385385 0.319322 0.917287
0.486883 0.332059 0.927406
0.589123 0.346472 0.937355
0.689952 0.361151 0.946565
0.789607 0.375831 0.957186
0.886418 0.388917 0.966840
0.979207 0.398017 0.974429
0.226215 0.426356 0.924825
0.315347 0.424883 0.928075
0.406306 0.424173 0.931611
0.487076 0.415009 0.935816
0.591537 0.429600 0.946527
0.696379 0.446115 0.958393
0.798732 0.462236 0.969262
0.897310 0.476550 0.978631
0.991142 0.486618 0.985930
0.230699 0.521670 0.937746
0.321095 0.520811 0.941858
0.412198 0.519773 0.945696
0.505083 0.519438 0.949863
0.592059 0.514780 0.956010
0.699234 0.531313 0.967188
0.804695 0.548807 0.978232
0.905775 0.564734 0.987978
1.000000 0.576059 0.995476
0.234662 0.620463 0.953022
0.326192 0.619372 0.956213
0.418289 0.618136 0.959212
0.510906 0.616765 0.962037
0.605008 0.616057 0.965229
0.698102 0.616209 0.972609
0.807241 0.634827 0.984253
0.912010 0.653008 0.995207
1.000000 0.666149 1.000000
0.237825 0.719854 0.965193
0.330281 0.718566 0.967733
0.423202 0.717157 0.970135
0.516551 0.715636 0.972409
0.610298 0.714012 0.974565
0.705286 0.712996 0.977110
0.805231 0.719310 0.986803
0.915621 0.740622 1.000000
1.000000 0.753388 1.000000
0.240404 0.819689 0.975145
0.333630 0.818232 0.977211
0.427242 0.816674 0.979174
0.521214 0.815021 0.981040
0.615522 0.813281 0.982818
0.710144 0.811458 0.984514
0.803657 0.808033 0.983994
0.905429 0.817410 0.991325
1.000000 0.832799 0.998585
0.243026 0.920271 0.983861
0.336559 0.918386 0.985294
0.429820 0.914880 0.984979
0.522014 0.909390 0.982511
0.613835 0.904005 0.980140
0.705304 0.898717 0.977862
0.796443 0.893521 0.975669
0.887765 0.888853 0.973919
0.998238 0.911854 0.992200
0.252653 0.995096 0.965684
0.344605 0.992348 0.966169
0.436142 0.989718 0.966753
0.527292 0.987196 0.967432
0.618078 0.984777 0.968198
0.708524 0.982454 0.969046
0.798651 0.980222 0.969973
0.888477 0.978074 0.970973
0.991841 0.989865 0.985914
