Camera18_LUT_V0/luts/fuji-classic-chrome.cube
TITLE "Camera18 V0 - Fujifilm Classic Chrome inspired"
LUT_3D_SIZE 33
DOMAIN_MIN 0.0 0.0 0.0
DOMAIN_MAX 1.0 1.0 1.0
# Original Camera 18 V0 approximation; input expected normalized display-referred RGB.
# Muted documentary look: restrained magenta, cooler shadows, warm-ish mids, lifted toe.
0.000000 0.007500 0.022500
0.040354 0.016760 0.027306
0.068846 0.021375 0.029799
0.094585 0.026589 0.034479
0.119583 0.031965 0.039748
0.144276 0.037409 0.045261
0.168812 0.042887 0.050899
0.193257 0.048386 0.056610
0.217646 0.053898 0.062368
0.241995 0.059420 0.068157
0.266318 0.064949 0.073969
0.290620 0.070483 0.079799
0.314907 0.076022 0.085641
0.339182 0.081564 0.091494
0.363447 0.087109 0.097356
0.387705 0.092657 0.103225
0.412602 0.098362 0.109272
0.445704 0.106021 0.117487
0.478821 0.113679 0.125692
0.511949 0.121335 0.133889
0.545086 0.128991 0.142080
0.578232 0.136647 0.150267
0.611385 0.144302 0.158449
0.644544 0.151958 0.166628
0.677708 0.159613 0.174804
0.710876 0.167270 0.182979
0.744048 0.174927 0.191152
0.777223 0.182584 0.199324
0.810401 0.190243 0.207495
0.843582 0.197902 0.215666
0.876764 0.205563 0.223837
0.909948 0.213224 0.232008
0.939977 0.220157 0.239402
0.002912 0.041621 0.020284
0.029000 0.038873 0.018163
0.059552 0.042032 0.023316
0.087310 0.045885 0.028698
0.113780 0.050145 0.034099
0.139553 0.054632 0.039499
0.164906 0.059259 0.044896
0.189989 0.063976 0.050289
0.214886 0.068755 0.055679
0.239650 0.073579 0.061068
0.264316 0.078437 0.066456
0.288907 0.083320 0.071844
0.313441 0.088223 0.077231
0.337928 0.093145 0.082620
0.362377 0.098084 0.088012
0.386795 0.103037 0.093407
0.417246 0.109593 0.100261
0.449840 0.116681 0.107622
0.482499 0.123754 0.114991
0.515213 0.130814 0.122366
0.547974 0.137863 0.129748
0.580777 0.144902 0.137135
0.613614 0.151934 0.144527
0.646483 0.158960 0.151925
0.679379 0.165979 0.159326
0.712298 0.172994 0.166732
0.745239 0.180004 0.174142
0.778199 0.187011 0.181555
0.811175 0.194015 0.188973
0.844167 0.201017 0.196393
0.877172 0.208016 0.203817
0.910189 0.215013 0.211244
0.939779 0.221211 0.217906
0.011767 0.064964 0.024112
0.034071 0.063759 0.023084
0.055112 0.061921 0.021597
0.082880 0.066003 0.026852
0.109614 0.070171 0.032270
0.135709 0.074510 0.037719
0.161379 0.078986 0.043171
0.186752 0.083566 0.048617
0.211909 0.088223 0.054056
0.236904 0.092940 0.059489
0.261775 0.097704 0.064917
0.286549 0.102504 0.070341
0.311245 0.107334 0.075761
0.335878 0.112188 0.081179
0.361756 0.117484 0.086905
0.393743 0.124724 0.094097
0.425861 0.131929 0.101312
0.458090 0.139103 0.108546
0.490413 0.146251 0.115797
0.522818 0.153376 0.123063
0.555293 0.160483 0.130342
0.587830 0.167573 0.137633
0.620422 0.174648 0.144935
0.653061 0.181711 0.152246
0.685742 0.188763 0.159566
0.718462 0.195807 0.166895
0.751216 0.202845 0.174234
0.784000 0.209878 0.181581
0.816813 0.216907 0.188937
0.849650 0.223931 0.196300
0.882509 0.230953 0.203670
0.915390 0.237971 0.211047
0.944580 0.244042 0.217606
0.019513 0.088513 0.029216
0.040281 0.087660 0.028539
0.060946 0.087128 0.027499
0.080151 0.085182 0.026141
0.106883 0.089654 0.031305
0.133050 0.094043 0.036646
0.158837 0.098490 0.042032
0.184341 0.103011 0.047443
0.209632 0.107600 0.052864
0.234758 0.112248 0.058289
0.259753 0.116944 0.063714
0.284643 0.121682 0.069138
0.309448 0.126453 0.074561
0.338334 0.132884 0.080978
0.369847 0.140246 0.088021
0.401537 0.147560 0.095101
0.433377 0.154832 0.102215
0.465347 0.162070 0.109357
0.497428 0.169279 0.116523
0.529607 0.176461 0.123712
0.561871 0.183621 0.130919
0.594210 0.190761 0.138144
0.626614 0.197884 0.145385
0.659078 0.204992 0.152639
0.691595 0.212087 0.159907
0.724158 0.219170 0.167186
0.756764 0.226242 0.174476
0.789408 0.233305 0.181775
0.822086 0.240360 0.189084
0.854796 0.247407 0.196401
0.887534 0.254447 0.203726
0.920298 0.261481 0.211059
0.949124 0.267408 0.217523
0.026968 0.112118 0.034656
0.046972 0.111436 0.034161
0.066833 0.111050 0.033314
0.086830 0.110797 0.032212
0.104910 0.108502 0.030980
0.131104 0.113198 0.036060
0.156918 0.117742 0.041333
0.182479 0.122287 0.046657
0.207840 0.126865 0.052013
0.233040 0.131483 0.057393
0.258110 0.136141 0.062787
0.283604 0.141100 0.068315
0.314441 0.148634 0.075145
0.345532 0.156097 0.082036
0.376837 0.163502 0.088981
0.408325 0.170856 0.095971
0.439973 0.178169 0.103000
0.471758 0.185445 0.110065
0.503663 0.192690 0.117159
0.535674 0.199908 0.124281
0.567778 0.207101 0.131427
0.599965 0.214274 0.138594
0.632225 0.221429 0.145781
0.664552 0.228567 0.152985
0.696937 0.235690 0.160206
0.729376 0.242801 0.167441
0.761863 0.249899 0.174689
0.794394 0.256988 0.181950
0.826964 0.264067 0.189222
0.859570 0.271138 0.196505
0.892210 0.278201 0.203798
0.924880 0.285257 0.211100
0.953382 0.291042 0.217488
0.034304 0.135749 0.040236
0.053851 0.135171 0.039849
0.073219 0.134861 0.039125
0.092747 0.134646 0.038308
0.112351 0.134572 0.037082
0.129554 0.131851 0.035943
0.155419 0.136695 0.040955
0.180995 0.141353 0.046175
0.206388 0.145982 0.051449
0.231630 0.150616 0.056758
0.259626 0.157009 0.062791
0.290063 0.164661 0.069440
0.320785 0.172222 0.076172
0.351750 0.179711 0.082975
0.382925 0.187139 0.089836
0.414282 0.194518 0.096749
0.445799 0.201853 0.103707
0.477455 0.209151 0.110704
0.509234 0.216418 0.117736
0.541122 0.223657 0.124799
0.573107 0.230871 0.131890
0.605179 0.238064 0.139006
0.637328 0.245238 0.146144
0.669548 0.252395 0.153303
0.701830 0.259537 0.160481
0.734170 0.266665 0.167676
0.766561 0.273782 0.174886
0.799000 0.280887 0.182111
0.831482 0.287983 0.189350
0.864004 0.295070 0.196600
0.896561 0.302149 0.203863
0.929152 0.309221 0.211136
0.957369 0.314853 0.217454
0.041578 0.159396 0.045891
0.060819 0.158889 0.045572
0.079873 0.158617 0.044954
0.099017 0.158469 0.044186
0.118311 0.158374 0.043319
0.137694 0.158399 0.042044
0.154137 0.155217 0.040973
0.179781 0.160168 0.045933
0.205307 0.165012 0.051139
0.235064 0.173010 0.057470
0.265174 0.180831 0.063921
0.295586 0.188521 0.070474
0.326261 0.196111 0.077117
0.357164 0.203622 0.083838
0.388266 0.211068 0.090625
0.419543 0.218463 0.097470
0.450975 0.225812 0.104363
0.482545 0.233124 0.111300
0.514236 0.240404 0.118276
0.546036 0.247655 0.125286
0.577935 0.254882 0.132327
0.609921 0.262087 0.139396
0.641986 0.269272 0.146490
0.674123 0.276441 0.153607
0.706325 0.283594 0.160745
0.738586 0.290734 0.167902
0.770902 0.297861 0.175077
0.803266 0.304978 0.182268
0.835677 0.312084 0.189475
0.868129 0.319182 0.196695
0.900619 0.326271 0.203929
0.933145 0.333353 0.211175
0.961110 0.338826 0.217430
0.048816 0.183053 0.051590
0.067837 0.182600 0.051318
0.086676 0.182348 0.050786
0.105548 0.182236 0.050075
0.124583 0.182163 0.049330
0.143687 0.182179 0.048333
0.164157 0.183624 0.047417
0.180276 0.180188 0.046456
0.209887 0.188771 0.052395
0.239750 0.196909 0.058622
0.269913 0.204818 0.064987
0.300348 0.212569 0.071459
0.331023 0.220201 0.078022
0.361908 0.227743 0.084666
0.392979 0.235212 0.091380
0.424215 0.242622 0.098158
0.455598 0.249985 0.104992
0.487113 0.257308 0.111873
0.518747 0.264597 0.118796
0.550487 0.271857 0.125757
0.582324 0.279092 0.132751
0.614247 0.286304 0.139776
0.646250 0.293497 0.146829
0.678325 0.300672 0.153906
0.710465 0.307832 0.161007
0.742665 0.314979 0.168129
0.774921 0.322113 0.175270
0.807226 0.329236 0.182430
0.839579 0.336349 0.189606
0.871974 0.343452 0.196797
0.904409 0.350548 0.204004
0.936881 0.357636 0.211223
0.964662 0.362958 0.217428
0.056029 0.206719 0.057321
0.075315 0.207497 0.057410
0.094864 0.208917 0.057403
0.114682 0.210446 0.057184
0.134896 0.211992 0.056868
0.155511 0.213504 0.056501
0.176399 0.215101 0.055723
0.197711 0.216656 0.054784
0.213633 0.212349 0.053773
0.243730 0.220815 0.059759
0.273997 0.228871 0.066017
0.304487 0.236713 0.072413
0.335192 0.244411 0.078905
0.366089 0.251998 0.085480
0.397159 0.259502 0.092128
0.428383 0.266937 0.098841
0.459745 0.274318 0.105613
0.491231 0.281655 0.112438
0.522830 0.288954 0.119310
0.554532 0.296222 0.126223
0.586327 0.303464 0.133173
0.618207 0.310682 0.140156
0.650165 0.317879 0.147169
0.682194 0.325060 0.154209
0.714288 0.332224 0.161274
0.746441 0.339374 0.168362
0.778650 0.346512 0.175472
0.810910 0.353639 0.182600
0.843216 0.360755 0.189747
0.875566 0.367863 0.196911
0.907956 0.374962 0.204091
0.941058 0.382342 0.211524
0.969388 0.387809 0.217984
0.065516 0.238739 0.065359
0.085463 0.239881 0.065554
0.105485 0.241132 0.065540
0.125690 0.242506 0.065310
0.146204 0.243926 0.064961
0.167076 0.245327 0.064575
0.188232 0.246741 0.064025
0.209638 0.248229 0.063096
0.231431 0.249654 0.062095
0.247035 0.244510 0.061049
0.277513 0.252884 0.067074
0.308106 0.260882 0.073355
0.338864 0.268672 0.079779
0.369795 0.276327 0.086290
0.400884 0.283881 0.092877
0.432115 0.291354 0.099531
0.463476 0.298763 0.106245
0.494954 0.306120 0.113015
0.526538 0.313435 0.119834
0.558220 0.320714 0.126698
0.589990 0.327964 0.133604
0.621842 0.335189 0.140545
0.653769 0.342392 0.147519
0.685766 0.349576 0.154523
0.717826 0.356744 0.161553
0.749945 0.363897 0.168608
0.782118 0.371038 0.175686
0.814342 0.378167 0.182785
0.846612 0.385285 0.189904
0.879076 0.392462 0.197074
0.912338 0.399992 0.204601
0.945649 0.407506 0.212155
0.973795 0.412806 0.218561
0.075177 0.271276 0.073508
0.095541 0.272296 0.073671
0.115954 0.273409 0.073657
0.136484 0.274650 0.073427
0.157254 0.275958 0.073063
0.178326 0.277273 0.072640
0.199708 0.278555 0.072206
0.221266 0.279918 0.071441
0.243092 0.281310 0.070416
0.265266 0.282630 0.069371
0.280467 0.276672 0.068302
0.311252 0.284975 0.074360
0.342115 0.292929 0.080656
0.373096 0.300678 0.087104
0.404219 0.308301 0.093633
0.435473 0.315827 0.100232
0.466846 0.323276 0.106893
0.498330 0.330664 0.113610
0.529913 0.338003 0.120379
0.561589 0.345300 0.127194
0.593348 0.352564 0.134053
0.625186 0.359798 0.140952
0.657095 0.367009 0.147886
0.689070 0.374199 0.154853
0.721107 0.381371 0.161849
0.753202 0.388527 0.168872
0.785349 0.395670 0.175919
0.817546 0.402801 0.182988
0.850334 0.410202 0.190276
0.883476 0.417752 0.197755
0.916682 0.425287 0.205259
0.949946 0.432807 0.212786
0.977939 0.437941 0.219142
0.084862 0.303815 0.081634
0.105567 0.304736 0.081771
0.126307 0.305733 0.081760
0.147116 0.306861 0.081537
0.168108 0.308068 0.081170
0.189352 0.309302 0.080727
0.210875 0.310522 0.080262
0.232630 0.311737 0.079714
0.254528 0.313050 0.078789
0.276698 0.314359 0.077702
0.299182 0.315592 0.076624
0.313920 0.308838 0.075540
0.344956 0.317084 0.081627
0.376046 0.325004 0.087934
0.407217 0.332722 0.094402
0.438505 0.340319 0.100947
0.469902 0.347823 0.107557
0.501401 0.355254 0.114226
0.532994 0.362626 0.120947
0.564674 0.369950 0.127717
0.596433 0.377233 0.134531
0.628266 0.384484 0.141386
0.660168 0.391706 0.148279
0.692132 0.398905 0.155207
0.724156 0.406084 0.162167
0.756234 0.413245 0.169157
0.788441 0.420433 0.176190
0.821431 0.428033 0.183570
0.854470 0.435607 0.190993
0.887576 0.443163 0.198444
0.920745 0.450703 0.205919
0.953971 0.458229 0.213419
0.981842 0.463200 0.219731
0.094563 0.336357 0.089745
0.115552 0.337196 0.089859
0.136570 0.338096 0.089853
0.157621 0.339125 0.089641
0.178810 0.340242 0.089280
0.200206 0.341401 0.088828
0.221846 0.342564 0.088338
0.243736 0.343698 0.087849
0.265768 0.344889 0.087128
0.287962 0.346150 0.086097
0.310418 0.347386 0.084967
0.333158 0.348547 0.083865
0.347387 0.341009 0.082770
0.378633 0.349208 0.088884
0.409915 0.357102 0.095201
0.441250 0.364796 0.101682
0.472681 0.372372 0.108242
0.504205 0.379860 0.114863
0.535816 0.387276 0.121539
0.567507 0.394636 0.128265
0.599274 0.401948 0.135037
0.631110 0.409221 0.141851
0.663012 0.416461 0.148703
0.694973 0.423674 0.155592
0.726991 0.430863 0.162515
0.759502 0.438309 0.169633
0.792372 0.445934 0.176961
0.825317 0.453536 0.184324
0.858331 0.461117 0.191717
0.891410 0.468680 0.199138
0.924550 0.476225 0.206586
0.957747 0.483756 0.214059
0.985522 0.488568 0.220332
0.104276 0.368902 0.097847
0.125506 0.369673 0.097942
0.146762 0.370490 0.097940
0.168025 0.371433 0.097741
0.189389 0.372469 0.097390
0.210923 0.373559 0.096939
0.232668 0.374665 0.096435
0.254639 0.375760 0.095917
0.276813 0.376839 0.095368
0.299077 0.378014 0.094484
0.321525 0.379224 0.093379
0.344223 0.380398 0.092219
0.367178 0.381499 0.091099
0.380863 0.373187 0.089997
0.412288 0.381346 0.096134
0.443734 0.389219 0.102461
0.475214 0.396896 0.108951
0.506770 0.404456 0.115525
0.538405 0.411930 0.122156
0.570115 0.419335 0.128840
0.601895 0.426685 0.135570
0.633741 0.433988 0.142345
0.665649 0.441253 0.149159
0.697636 0.448500 0.156016
0.730370 0.456209 0.163210
0.763153 0.463876 0.170466
0.796011 0.471514 0.177760
0.828941 0.479126 0.185089
0.861938 0.486716 0.192451
0.894998 0.494286 0.199844
0.928117 0.501838 0.207264
0.961292 0.509373 0.214711
0.988998 0.514035 0.220948
0.113997 0.401452 0.105944
0.135434 0.402164 0.106022
0.156896 0.402910 0.106025
0.178347 0.403777 0.105840
0.199868 0.404741 0.105502
0.221527 0.405766 0.105056
0.243367 0.406819 0.104547
0.265411 0.407873 0.104012
0.287661 0.408906 0.103478
0.310045 0.409967 0.102803
0.332521 0.411119 0.101802
0.355189 0.412281 0.100646
0.378093 0.413400 0.099465
0.401232 0.414450 0.098331
0.414347 0.405371 0.097225
0.445923 0.413496 0.103382
0.477512 0.421353 0.109718
0.509121 0.429018 0.116214
0.540786 0.436564 0.122800
0.572521 0.444028 0.129441
0.604320 0.451425 0.136132
0.636180 0.458767 0.142867
0.668442 0.466329 0.149777
0.701063 0.474095 0.156915
0.733766 0.481819 0.164096
0.766547 0.489506 0.171318
0.799401 0.497160 0.178578
0.832323 0.504786 0.185874
0.865310 0.512387 0.193203
0.898358 0.519966 0.200565
0.931463 0.527526 0.207957
0.964623 0.535069 0.215377
0.992285 0.539588 0.221582
0.123725 0.434005 0.114039
0.145340 0.434668 0.114103
0.166983 0.435353 0.114109
0.188600 0.436153 0.113937
0.210264 0.437051 0.113614
0.232038 0.438016 0.113179
0.253966 0.439019 0.112671
0.276076 0.440033 0.112125
0.298376 0.441036 0.111571
0.320856 0.442019 0.111014
0.343404 0.443083 0.110182
0.366072 0.444207 0.109097
0.388933 0.445325 0.107906
0.412014 0.446397 0.106708
0.435311 0.447401 0.105564
0.447834 0.437562 0.104455
0.479543 0.445659 0.110631
0.511256 0.453503 0.116976
0.542980 0.461159 0.123473
0.574743 0.468695 0.130071
0.606566 0.476151 0.136721
0.639032 0.484058 0.143688
0.671580 0.491915 0.150745
0.704212 0.499716 0.157850
0.736922 0.507469 0.164998
0.769707 0.515181 0.172188
0.802562 0.522856 0.179415
0.835482 0.530500 0.186679
0.868465 0.538116 0.193978
0.901507 0.545707 0.201309
0.934604 0.553278 0.208671
0.967754 0.560829 0.216062
0.995398 0.565217 0.222239
0.133457 0.466564 0.122133
0.155229 0.467182 0.122185
0.177029 0.467815 0.122193
0.198796 0.468556 0.122035
0.220590 0.469394 0.121728
0.242469 0.470304 0.121305
0.264480 0.471258 0.120803
0.286651 0.472233 0.120254
0.308996 0.473207 0.119686
0.331517 0.474163 0.119121
0.354167 0.475129 0.118479
0.376870 0.476188 0.117524
0.399710 0.477283 0.116379
0.422740 0.478361 0.115161
0.445976 0.479390 0.113953
0.469411 0.480356 0.112800
0.481323 0.469760 0.111690
0.513148 0.477833 0.117884
0.544970 0.485666 0.124236
0.577035 0.493543 0.130825
0.609434 0.501619 0.137736
0.641919 0.509603 0.144706
0.674488 0.517511 0.151729
0.707136 0.525355 0.158801
0.739859 0.533143 0.165917
0.772652 0.540885 0.173075
0.805513 0.548586 0.180272
0.838436 0.556252 0.187506
0.871420 0.563887 0.194774
0.904460 0.571495 0.202076
0.937555 0.579079 0.209408
0.970699 0.586641 0.216771
0.998349 0.590911 0.222922
0.143191 0.499128 0.130229
0.165102 0.499707 0.130271
0.187042 0.500294 0.130280
0.208943 0.500982 0.130135
0.230855 0.501766 0.129844
0.252833 0.502625 0.129436
0.274922 0.503534 0.128942
0.297151 0.504470 0.128395
0.319537 0.505414 0.127819
0.342088 0.506348 0.127238
0.364800 0.507262 0.126666
0.387576 0.508235 0.125889
0.410424 0.509283 0.124843
0.433420 0.510349 0.123653
0.456599 0.511390 0.122417
0.479969 0.512383 0.121200
0.503659 0.513456 0.120080
0.514814 0.501966 0.118931
0.547155 0.510482 0.125346
0.579596 0.518874 0.132008
0.612071 0.527074 0.138815
0.644591 0.535132 0.145742
0.677186 0.543101 0.152730
0.709855 0.550995 0.159768
0.742594 0.558827 0.166853
0.775400 0.566605 0.173980
0.808271 0.574338 0.181147
0.841201 0.582031 0.188352
0.874190 0.589689 0.195592
0.907233 0.597317 0.202865
0.940327 0.604917 0.210170
0.973471 0.612495 0.217505
1.000000 0.616662 0.223634
0.152928 0.531698 0.138327
0.174962 0.532242 0.138360
0.197026 0.532790 0.138369
0.219048 0.533430 0.138237
0.241069 0.534165 0.137962
0.263139 0.534976 0.137569
0.285300 0.535841 0.137088
0.307584 0.536741 0.136545
0.330011 0.537654 0.135967
0.352589 0.538566 0.135375
0.375320 0.539464 0.134787
0.398210 0.540400 0.134176
0.421267 0.541655 0.133388
0.444417 0.542951 0.132401
0.467736 0.544248 0.131306
0.491249 0.545511 0.130182
0.514961 0.546721 0.129081
0.538863 0.547867 0.128037
0.549339 0.535458 0.126782
0.581889 0.544066 0.133314
0.614461 0.552437 0.139994
0.647059 0.560623 0.146811
0.679690 0.568668 0.153751
0.712384 0.576623 0.160755
0.745144 0.584506 0.167808
0.777967 0.592328 0.174904
0.810851 0.600098 0.182042
0.843792 0.607823 0.189218
0.876789 0.615509 0.196430
0.909837 0.623161 0.203677
0.942936 0.630783 0.210955
0.976082 0.638378 0.218264
1.000000 0.642459 0.224376
0.162665 0.564273 0.146428
0.184809 0.564786 0.146454
0.206984 0.565299 0.146463
0.229117 0.565896 0.146343
0.251238 0.566586 0.146083
0.273393 0.567353 0.145707
0.295623 0.568178 0.145238
0.318077 0.569310 0.144804
0.340647 0.570464 0.144360
0.363376 0.571620 0.143893
0.386268 0.572763 0.143420
0.409321 0.573884 0.142957
0.432465 0.575037 0.142357
0.455667 0.576271 0.141482
0.478994 0.577535 0.140436
0.502490 0.578791 0.139310
0.526170 0.580010 0.138170
0.550036 0.581177 0.137058
0.574081 0.582283 0.136005
0.583932 0.569083 0.134736
0.616605 0.577662 0.141292
0.649295 0.586015 0.147987
0.682004 0.594189 0.154815
0.714738 0.602225 0.161764
0.747522 0.610168 0.168784
0.780365 0.618042 0.175849
0.813266 0.625856 0.182957
0.846221 0.633619 0.190105
0.879229 0.641338 0.197290
0.912286 0.649018 0.204509
0.945392 0.656665 0.211762
0.978543 0.664282 0.219045
1.000000 0.668293 0.225145
0.172403 0.596853 0.154534
0.194646 0.597339 0.154553
0.216985 0.598094 0.154662
0.239271 0.598924 0.154684
0.261555 0.599842 0.154571
0.283880 0.600835 0.154340
0.306284 0.601885 0.154015
0.328799 0.602976 0.153620
0.351446 0.604088 0.153175
0.374239 0.605209 0.152702
0.397184 0.606323 0.152218
0.420282 0.607422 0.151735
0.443519 0.608504 0.151246
0.466798 0.609660 0.150517
0.490156 0.610876 0.149560
0.513646 0.612109 0.148468
0.537301 0.613327 0.147318
0.561131 0.614506 0.146165
0.585136 0.615635 0.145044
0.609307 0.616705 0.143984
0.618521 0.602717 0.142703
0.651306 0.611270 0.149280
0.684102 0.619607 0.155990
0.716913 0.627772 0.162827
0.749741 0.635801 0.169782
0.782608 0.643734 0.176816
0.815528 0.651600 0.183894
0.848500 0.659407 0.191014
0.881521 0.667165 0.198171
0.914590 0.674879 0.205364
0.947705 0.682555 0.212591
0.980863 0.690197 0.219849
1.000000 0.694156 0.225941
0.182224 0.630592 0.163162
0.204618 0.631320 0.163305
0.227060 0.632037 0.163439
0.249483 0.632818 0.163470
0.271895 0.633686 0.163367
0.294336 0.634629 0.163149
0.316843 0.635631 0.162835
0.339445 0.636676 0.162447
0.362165 0.637749 0.162006
0.385018 0.638835 0.161531
0.408012 0.639921 0.161038
0.431150 0.640997 0.160542
0.454431 0.642053 0.160053
0.477809 0.643124 0.159484
0.501219 0.644276 0.158650
0.524723 0.645472 0.157628
0.548362 0.646675 0.156500
0.572160 0.647857 0.155332
0.596125 0.649001 0.154169
0.620255 0.650095 0.153040
0.644542 0.651132 0.151973
0.653107 0.636360 0.150681
0.685993 0.644890 0.157278
0.718886 0.653213 0.164002
0.751788 0.661370 0.170848
0.784704 0.669394 0.177808
0.817647 0.677319 0.184854
0.850638 0.685178 0.191945
0.883676 0.692980 0.199074
0.916759 0.700733 0.206241
0.949885 0.708443 0.213442
0.983053 0.716116 0.220676
1.000000 0.720041 0.226763
0.192021 0.664622 0.171962
0.214541 0.665315 0.172097
0.237106 0.665996 0.172226
0.259655 0.666732 0.172264
0.282186 0.667553 0.172172
0.304735 0.668449 0.171967
0.327337 0.669406 0.171665
0.350022 0.670409 0.171286
0.372811 0.671444 0.170850
0.395721 0.672496 0.170376
0.418762 0.673554 0.169878
0.441938 0.674607 0.169372
0.465251 0.675645 0.168868
0.488694 0.676665 0.168371
0.512181 0.677742 0.167685
0.535717 0.678887 0.166764
0.559356 0.680062 0.165691
0.583131 0.681236 0.164536
0.607060 0.682385 0.163353
0.631148 0.683495 0.162181
0.655390 0.684558 0.161047
0.679781 0.685566 0.159975
0.687689 0.670011 0.158671
0.720667 0.678521 0.165286
0.753647 0.686833 0.172024
0.786634 0.694983 0.178879
0.819631 0.703003 0.185843
0.852645 0.710922 0.192899
0.885702 0.718775 0.200001
0.918800 0.726573 0.207140
0.951941 0.734322 0.214316
0.985121 0.742030 0.221525
1.000000 0.745940 0.227610
0.201813 0.698658 0.180771
0.224449 0.699319 0.180898
0.247126 0.699967 0.181022
0.269792 0.700662 0.181067
0.292432 0.701441 0.180986
0.315082 0.702294 0.180793
0.337775 0.703209 0.180503
0.360537 0.704172 0.180135
0.383392 0.705170 0.179706
0.406357 0.706189 0.179235
0.429442 0.707219 0.178735
0.452655 0.708248 0.178222
0.475997 0.709268 0.177707
0.499466 0.710272 0.177199
0.523036 0.711276 0.176650
0.546626 0.712358 0.175857
0.570282 0.713493 0.174868
0.594047 0.714646 0.173753
0.617947 0.715792 0.172576
0.641995 0.716911 0.171381
0.666194 0.717992 0.170204
0.690539 0.719026 0.169064
0.715025 0.720007 0.167988
0.722267 0.703672 0.166673
0.755328 0.712163 0.173306
0.788390 0.720464 0.180057
0.821454 0.728609 0.186920
0.854525 0.736626 0.193888
0.887607 0.744542 0.200951
0.920723 0.752390 0.208064
0.953879 0.760185 0.215213
0.987073 0.767931 0.222397
1.000000 0.771848 0.228484
0.211602 0.732701 0.189588
0.234343 0.733332 0.189708
0.257123 0.733952 0.189827
0.279897 0.734609 0.189879
0.302639 0.735349 0.189808
0.325383 0.736161 0.189627
0.348160 0.737036 0.189350
0.370997 0.737961 0.188993
0.393915 0.738924 0.188573
0.416932 0.739912 0.188107
0.440060 0.740914 0.187608
0.463308 0.741920 0.187091
0.486677 0.742921 0.186567
0.510169 0.743910 0.186046
0.533781 0.744881 0.185536
0.557445 0.745890 0.184891
0.581137 0.746973 0.184010
0.604906 0.748094 0.182965
0.628788 0.749226 0.181818
0.652802 0.750346 0.180622
0.676959 0.751437 0.179419
0.701260 0.752490 0.178236
0.725699 0.753499 0.177092
0.750272 0.754455 0.176013
0.756841 0.737342 0.174687
0.789979 0.745817 0.181337
0.823114 0.754108 0.188100
0.856250 0.762248 0.194971
0.889389 0.770263 0.201943
0.922535 0.778178 0.209011
0.955708 0.786022 0.216134
0.988916 0.793814 0.223293
1.000000 0.797757 0.229384
0.221388 0.766751 0.198413
0.244226 0.767355 0.198528
0.267100 0.767948 0.198641
0.289972 0.768571 0.198700
0.312810 0.769274 0.198639
0.335643 0.770049 0.198470
0.358500 0.770886 0.198206
0.381407 0.771776 0.197861
0.404385 0.772705 0.197450
0.427453 0.773662 0.196990
0.450623 0.774637 0.196494
0.473903 0.775620 0.195976
0.497299 0.776602 0.195447
0.520811 0.777576 0.194916
0.544440 0.778536 0.194392
0.568169 0.779487 0.193854
0.591915 0.780507 0.193104
0.615706 0.781586 0.192150
0.639582 0.782693 0.191059
0.663572 0.783804 0.189886
0.687692 0.784899 0.188677
0.711948 0.785965 0.187467
0.736342 0.786992 0.186280
0.760867 0.787977 0.185132
0.785520 0.788911 0.184050
0.791410 0.771021 0.182714
0.824618 0.779480 0.189380
0.857822 0.787764 0.196154
0.891023 0.795900 0.203032
0.924226 0.803914 0.210010
0.957432 0.811828 0.217080
0.989986 0.819114 0.224061
1.000000 0.821405 0.229679
0.231169 0.800807 0.207248
0.254097 0.801386 0.207357
0.277058 0.801956 0.207465
0.300022 0.802547 0.207529
0.322949 0.803216 0.207479
0.345865 0.803956 0.207322
0.368797 0.804758 0.207070
0.391771 0.805613 0.206737
0.414808 0.806510 0.206337
0.437924 0.807438 0.205885
0.461134 0.808387 0.205393
0.484446 0.809347 0.204876
0.507867 0.810310 0.204343
0.531399 0.811268 0.203805
0.555043 0.812215 0.203270
0.578796 0.813147 0.202745
0.602612 0.814099 0.202136
0.626440 0.815125 0.201296
0.650326 0.816198 0.200283
0.674303 0.817290 0.199154
