Camera18_LUT_V0/luts/panasonic-aesthetic-portrait.cube
TITLE "Generated by Resolve"
LUT_3D_SIZE 5
0.0167239 0.0369726 0.0116121
0.129732 0.035172 0.00727855
0.70219 0.0765545 0
0.858915 0.0858167 0
0.858915 0.0858167 0
0.0164187 0.0875105 0.0138857
0.0662547 0.0806592 0.0125734
0.683894 0.0772106 0
0.858915 0.0858167 0
0.858915 0.0858167 0
0.0158389 0.552804 0.109392
0.0153506 0.546044 0.108263
0.578592 0.53164 0.0225986
0.907332 0.413687 0.00581369
0.90341 0.378973 0.00553903
0.168124 0.819409 0.0742504
0.168124 0.819409 0.0742504
0.168124 0.819409 0.0742504
0.938888 0.867826 0.0240024
0.959503 0.860883 0.0259251
0.168124 0.819409 0.0742504
0.168124 0.819409 0.0742504
0.168124 0.819409 0.0742504
0.894881 0.875151 0.0188449
0.959319 0.878126 0.0264134
0.0319982 0.0388952 0.0686656
0.118029 0.0364233 0.0570382
0.701045 0.080293 0.025391
0.859709 0.0866102 0.00250248
0.859602 0.0864881 0
0.0255894 0.0835584 0.0523842
0.0567483 0.0747845 0.0535592
0.682155 0.0779126 0.0160525
0.859434 0.0863355 0
0.859251 0.0861524 0
0.0154574 0.547402 0.108492
0.0149538 0.540566 0.107347
0.572381 0.525673 0.0224918
0.9066 0.404578 0.00575265
0.9019 0.370062 0.00546273
0.168124 0.819409 0.0742504
0.168124 0.819409 0.0742504
0.168124 0.819409 0.0742504
0.936751 0.865934 0.023743
0.959518 0.858885 0.0255894
0.168124 0.819409 0.0742504
0.168124 0.819409 0.0742504
0.168124 0.819409 0.0742504
0.892302 0.874846 0.0188449
0.959319 0.878126 0.0264134
0.0666667 0.0853285 0.527489
0.10338 0.0872206 0.52871
0.652094 0.0887312 0.467399
0.862333 0.101442 0.441764
0.862348 0.101228 0.437675
0.0652323 0.0859846 0.522622
0.063859 0.0839857 0.520562
0.630732 0.0885634 0.464759
0.862379 0.100938 0.43357
0.862394 0.100618 0.429389
0.0567483 0.567834 0.536431
0.055314 0.560449 0.5355
0.533318 0.538308 0.538064
0.91342 0.403311 0.497688
0.907012 0.357641 0.484001
0.230793 0.851255 0.345937
0.230228 0.85098 0.344106
0.227588 0.849653 0.335256
0.922484 0.875578 0.386908
0.956069 0.868101 0.387686
0.219547 0.846159 0.31313
0.218845 0.845869 0.311406
0.215305 0.84445 0.302663
0.879805 0.893309 0.333211
0.955764 0.897414 0.347402
0.136522 0.230411 0.851804
0.136538 0.230411 0.851514
0.62034 0.207279 0.814389
0.874495 0.211887 0.810758
0.874479 0.210651 0.809216
0.136584 0.230472 0.850019
0.136599 0.230472 0.849729
0.596048 0.205264 0.81149
0.874495 0.209476 0.807706
0.874495 0.208316 0.806195
0.154162 0.545693 0.888548
0.152407 0.537987 0.886748
0.505943 0.507301 0.870222
0.904585 0.365118 0.829816
0.902052 0.326848 0.818784
0.312215 0.891875 0.857557
0.31162 0.889632 0.857282
0.301167 0.875547 0.857176
0.894423 0.863554 0.875334
0.946807 0.852171 0.8766
0.318883 0.896864 0.845945
0.319249 0.896941 0.845319
0.319982 0.896941 0.842252
0.848997 0.911849 0.858549
0.947005 0.911498 0.861784
0.136461 0.23035 0.853666
0.136461 0.23035 0.853666
0.608835 0.208743 0.819455
0.874479 0.220615 0.821881
0.874479 0.220615 0.821881
0.136461 0.23035 0.853666
0.136461 0.23035 0.853666
0.584344 0.208515 0.820005
0.874479 0.220615 0.821881
0.874479 0.220615 0.821881
0.154574 0.526802 0.89868
0.153857 0.517571 0.897169
0.482292 0.483558 0.881895
0.904311 0.339422 0.843427
0.902815 0.315038 0.841932
0.350011 0.88925 0.90811
0.347478 0.886412 0.908614
0.3346 0.870939 0.912123
0.888167 0.856382 0.924178
0.947585 0.843854 0.924743
0.354635 0.899351 0.906981
0.354635 0.899351 0.906981
0.354635 0.899351 0.906981
0.849897 0.913359 0.921462
0.952163 0.914046 0.926726
