Camera18_LUT_V0/luts/panasonic-warm-skin-tone.cube
# Created by Adobe Lightroom plugin Export LUT (1.24.0)
# www.johnrellis.com/lightroom/exportlut.htm
# Photo: P1014654.jpg
# Color profile: C:\Program Files (x86)\Common Files\Adobe\Color\Profiles\Recommended\sRGB Color Space Profile.icm
LUT_3D_SIZE 33
DOMAIN_MIN 0.0 0.0 0.0
DOMAIN_MAX 1.0 1.0 1.0
0.006470 0.000153 0.000305
0.034882 0.000122 0.000214
0.065217 0.000641 0.000000
0.100557 0.002838 0.000702
0.142092 0.004639 0.002136
0.195560 0.005219 0.000397
0.251347 0.005035 0.000031
0.305974 0.003693 0.000000
0.358587 0.002838 0.000000
0.410193 0.004578 0.000092
0.460334 0.009216 0.000580
0.508171 0.015412 0.004028
0.553796 0.023438 0.006928
0.596582 0.030671 0.010529
0.635126 0.038788 0.014160
0.672419 0.046448 0.018097
0.709010 0.054383 0.022126
0.744381 0.061524 0.025757
0.778622 0.069368 0.029206
0.812985 0.076387 0.033234
0.846860 0.083955 0.036500
0.879484 0.091493 0.040620
0.909880 0.099062 0.045197
0.939055 0.107332 0.050050
0.967193 0.116274 0.054902
0.993835 0.125887 0.060121
1.000000 0.135012 0.064851
1.000000 0.141787 0.067903
1.000000 0.147555 0.071015
1.000000 0.152804 0.074372
1.000000 0.157748 0.077607
1.000000 0.162844 0.081605
1.000000 0.168368 0.086244
0.007782 0.024292 0.003357
0.030915 0.025360 0.000488
0.058045 0.025635 0.000000
0.094087 0.028199 0.000244
0.135592 0.031495 0.000214
0.190494 0.033173 0.000183
0.247318 0.034974 0.000031
0.302739 0.035889 0.000031
0.354833 0.036011 0.000061
0.404822 0.037842 0.000183
0.453925 0.041688 0.000214
0.501030 0.047669 0.000000
0.546868 0.054475 0.000671
0.590143 0.062104 0.004303
0.629725 0.069642 0.008331
0.667811 0.076997 0.012238
0.703853 0.084779 0.015656
0.738979 0.091859 0.019501
0.773281 0.098543 0.023713
0.807675 0.105104 0.027436
0.841703 0.112459 0.031098
0.874662 0.119722 0.035340
0.905211 0.127443 0.040528
0.934417 0.134890 0.045411
0.962890 0.142153 0.050568
0.989868 0.149935 0.056306
1.000000 0.157443 0.062074
1.000000 0.162814 0.065705
1.000000 0.166995 0.069184
1.000000 0.171115 0.073091
1.000000 0.175113 0.077028
1.000000 0.178897 0.080995
1.000000 0.183566 0.085756
0.010040 0.049775 0.006104
0.029053 0.048280 0.005493
0.052491 0.049531 0.001678
0.087831 0.051423 0.000336
0.127962 0.056367 0.000122
0.183627 0.061311 0.000000
0.241947 0.065003 0.000000
0.299199 0.067536 0.000000
0.351598 0.069368 0.000092
0.400977 0.071015 0.000000
0.448951 0.074556 0.000031
0.496101 0.079591 0.000061
0.542046 0.085023 0.000000
0.584985 0.091279 0.000000
0.625299 0.097993 0.003510
0.663691 0.104921 0.007446
0.700069 0.111910 0.011566
0.735103 0.118563 0.015198
0.769284 0.124575 0.019318
0.803708 0.130648 0.023346
0.837827 0.136446 0.027131
0.871000 0.142855 0.031586
0.901915 0.149447 0.037263
0.931670 0.156039 0.042420
0.960449 0.162692 0.048341
0.987762 0.169680 0.054108
1.000000 0.176364 0.059846
1.000000 0.181277 0.063783
1.000000 0.184695 0.068086
1.000000 0.188144 0.072724
1.000000 0.191653 0.076448
1.000000 0.194736 0.081086
1.000000 0.198764 0.085664
0.012512 0.082246 0.009400
0.032685 0.079194 0.009247
0.050324 0.079927 0.006836
0.078218 0.081727 0.002045
0.118349 0.084749 0.000275
0.171023 0.091157 0.000000
0.230014 0.097444 0.000000
0.291325 0.102113 0.000000
0.347295 0.105104 0.000275
0.398108 0.107637 0.000000
0.447120 0.110658 0.000000
0.494331 0.114565 0.000000
0.539635 0.118654 0.000000
0.582238 0.123476 0.000000
0.622187 0.129458 0.000000
0.660731 0.135592 0.003510
0.697169 0.141726 0.006897
0.732265 0.147127 0.011109
0.766323 0.152407 0.014771
0.800198 0.157809 0.018921
0.834043 0.162753 0.022889
0.867094 0.168215 0.027863
0.898283 0.174258 0.033173
0.928161 0.180056 0.039399
0.956970 0.186130 0.045411
0.984375 0.192599 0.051637
1.000000 0.198550 0.057740
1.000000 0.203189 0.062715
1.000000 0.206088 0.067079
1.000000 0.208621 0.071687
1.000000 0.211460 0.076173
1.000000 0.214115 0.080568
1.000000 0.217777 0.085176
0.014313 0.118837 0.011688
0.033661 0.115755 0.011383
0.051667 0.114046 0.010132
0.073518 0.113802 0.005890
0.108064 0.116823 0.002380
0.159884 0.122469 0.000153
0.216373 0.128847 0.000244
0.279973 0.135988 0.000000
0.338537 0.141451 0.000000
0.392126 0.145541 0.000000
0.442786 0.149142 0.000031
0.490730 0.152438 0.000000
0.536217 0.155337 0.000000
0.578973 0.158724 0.000000
0.619501 0.163272 0.000122
0.657404 0.168521 0.000275
0.693812 0.173190 0.002960
0.729030 0.177798 0.007446
0.763302 0.182376 0.011078
0.796872 0.187228 0.014862
0.830442 0.191714 0.019257
0.863157 0.196719 0.023865
0.894072 0.201938 0.030182
0.923949 0.207034 0.036011
0.952972 0.211948 0.041962
0.980529 0.217746 0.049195
1.000000 0.223484 0.056001
1.000000 0.227878 0.061646
1.000000 0.230106 0.066499
1.000000 0.232364 0.071168
1.000000 0.234592 0.075776
1.000000 0.236790 0.079957
1.000000 0.239872 0.084962
0.017243 0.159060 0.015747
0.038087 0.156161 0.014771
0.055634 0.153811 0.013519
0.076081 0.152041 0.009522
0.104280 0.153750 0.005035
0.148379 0.157382 0.001404
0.203525 0.162905 0.000275
0.263920 0.168490 0.000336
0.323095 0.175998 0.000122
0.379065 0.182559 0.000000
0.432685 0.187533 0.000061
0.483192 0.191226 0.000000
0.530083 0.194339 0.000000
0.573816 0.197208 0.000031
0.614893 0.200839 0.000000
0.653040 0.204593 0.000275
0.689448 0.208133 0.000916
0.724544 0.211276 0.003662
0.759182 0.214755 0.007843
0.793027 0.218875 0.011627
0.826322 0.223056 0.015564
0.858579 0.227390 0.020874
0.889616 0.231632 0.026947
0.919768 0.236149 0.033021
0.948913 0.240635 0.039826
0.974273 0.244053 0.045258
1.000000 0.249546 0.052766
1.000000 0.253513 0.058930
1.000000 0.255497 0.063935
1.000000 0.257420 0.068788
1.000000 0.259403 0.073304
1.000000 0.261112 0.077882
1.000000 0.263859 0.083009
0.022370 0.199344 0.022431
0.043488 0.196841 0.022004
0.061189 0.194766 0.020447
0.080873 0.192416 0.017487
0.105928 0.192142 0.009857
0.140383 0.193027 0.002686
0.186160 0.195712 0.000214
0.244907 0.201541 0.000214
0.303838 0.206546 0.000000
0.361425 0.214786 0.000244
0.417334 0.222385 0.000244
0.470741 0.228428 0.000305
0.520409 0.233219 0.000000
0.565728 0.236790 0.000427
0.607507 0.239933 0.000977
0.646601 0.242679 0.001526
0.683558 0.245365 0.002289
0.718441 0.247837 0.003113
0.752956 0.249973 0.005676
0.786923 0.252873 0.009522
0.820798 0.256504 0.013825
0.852720 0.260075 0.018158
0.883391 0.263798 0.024445
0.914000 0.267582 0.031373
0.943603 0.271733 0.038025
0.971649 0.276249 0.044953
0.997955 0.280705 0.052796
1.000000 0.283909 0.059632
1.000000 0.285740 0.064881
1.000000 0.287205 0.070100
1.000000 0.288487 0.074434
1.000000 0.289647 0.079225
1.000000 0.291997 0.084321
0.033509 0.243259 0.034485
0.052857 0.241184 0.034119
0.070069 0.239109 0.033204
0.089876 0.236606 0.031006
0.113130 0.235172 0.026520
0.141726 0.234867 0.016754
0.178561 0.236149 0.002167
0.229648 0.238163 0.000000
0.288304 0.241642 0.000092
0.346166 0.248203 0.000183
0.403998 0.256504 0.000000
0.459480 0.264744 0.000336
0.511833 0.272068 0.000275
0.559136 0.277409 0.000946
0.602106 0.280919 0.001495
0.642237 0.283391 0.002625
0.680049 0.285618 0.003693
0.714931 0.287663 0.005035
0.749294 0.289433 0.006470
0.783413 0.291234 0.009949
0.817472 0.293645 0.013458
0.849363 0.296330 0.018189
0.879850 0.298955 0.024262
0.910430 0.302037 0.030976
0.940185 0.305486 0.038636
0.968231 0.309422 0.046021
0.994476 0.312963 0.054139
1.000000 0.315557 0.061219
1.000000 0.317174 0.066712
1.000000 0.317998 0.071809
1.000000 0.318669 0.076295
1.000000 0.319646 0.081392
1.000000 0.321721 0.086824
0.047883 0.287724 0.049165
0.065309 0.285801 0.049348
0.081575 0.283787 0.048371
0.100832 0.281071 0.047669
0.122499 0.279088 0.045380
0.147372 0.278172 0.039246
0.177768 0.278752 0.026795
0.220890 0.277531 0.006592
0.273686 0.277317 0.000214
0.331273 0.282444 0.000214
0.389746 0.289128 0.000214
0.447456 0.297551 0.000092
0.501610 0.307103 0.000366
0.550744 0.314641 0.000916
0.595483 0.320012 0.001740
0.636805 0.323949 0.003174
0.675471 0.327062 0.004761
0.711238 0.329076 0.006531
0.746456 0.330938 0.008789
0.780697 0.332311 0.010590
0.814389 0.333959 0.015198
0.845762 0.334997 0.020569
0.876280 0.336309 0.026703
0.907256 0.338537 0.033387
0.936919 0.341283 0.041291
0.965209 0.344366 0.049622
0.991241 0.347051 0.057465
1.000000 0.349371 0.065217
1.000000 0.350561 0.070375
1.000000 0.351019 0.075074
1.000000 0.351324 0.080232
1.000000 0.351934 0.085512
1.000000 0.353521 0.091188
0.064515 0.329686 0.065278
0.080354 0.327581 0.065431
0.094820 0.325963 0.065522
0.112642 0.323705 0.064942
0.132296 0.321599 0.063722
0.154360 0.320409 0.059297
0.181430 0.320104 0.051484
0.219486 0.318975 0.037079
0.266270 0.316747 0.015473
0.317998 0.316930 0.002594
0.375708 0.321721 0.000916
0.434485 0.329229 0.000519
0.489662 0.338659 0.000946
0.540368 0.347967 0.001495
0.586511 0.355352 0.002167
0.629297 0.361242 0.003082
0.669154 0.366064 0.004883
0.706386 0.369390 0.007263
0.742702 0.371984 0.009918
0.778012 0.373877 0.012909
0.811734 0.375036 0.016846
0.842802 0.375372 0.023072
0.873075 0.376043 0.031342
0.903655 0.377081 0.038941
0.933410 0.378973 0.046998
0.961944 0.380926 0.054994
0.988159 0.382727 0.062867
1.000000 0.384619 0.070680
1.000000 0.385199 0.076631
1.000000 0.385168 0.081697
1.000000 0.384985 0.086336
1.000000 0.385351 0.091920
1.000000 0.386572 0.097810
0.083284 0.369543 0.082155
0.096040 0.367803 0.081971
0.109255 0.366705 0.082124
0.125246 0.365240 0.082094
0.143099 0.363409 0.081941
0.163699 0.361364 0.080079
0.187686 0.359869 0.075257
0.221927 0.357946 0.063691
0.262913 0.356817 0.046815
0.309728 0.354681 0.026246
0.360815 0.355566 0.006622
0.418647 0.361059 0.002686
0.476112 0.368994 0.001465
0.528038 0.377996 0.001862
0.575372 0.386725 0.002869
0.619959 0.394110 0.003784
0.661250 0.400793 0.005646
0.699550 0.406500 0.007202
0.737209 0.411200 0.010620
0.773587 0.414405 0.013977
0.807767 0.416358 0.018494
0.839475 0.416632 0.025452
0.870115 0.416815 0.035126
0.900053 0.417304 0.044282
0.929229 0.417945 0.053590
0.958129 0.418769 0.062501
0.984375 0.419562 0.070497
1.000000 0.420966 0.079011
1.000000 0.420844 0.085084
1.000000 0.420447 0.089998
1.000000 0.419867 0.094820
1.000000 0.420050 0.100221
1.000000 0.420844 0.105898
0.102144 0.408606 0.099611
0.113832 0.407691 0.099916
0.125704 0.406928 0.100130
0.140108 0.405463 0.100893
0.156313 0.403662 0.101106
0.175631 0.401526 0.100679
0.198184 0.399481 0.097230
0.227909 0.396796 0.086885
0.262425 0.395178 0.074250
0.304936 0.393347 0.057862
0.352117 0.391547 0.037476
0.403540 0.393530 0.016144
0.459236 0.398871 0.006043
0.513756 0.406775 0.002197
0.562066 0.415045 0.003449
0.608331 0.423682 0.004547
0.651270 0.431830 0.006622
0.688685 0.437812 0.008637
0.727230 0.444709 0.011505
0.764920 0.449928 0.014496
0.799985 0.453346 0.019623
0.832792 0.454597 0.027985
0.864164 0.455207 0.037812
0.894774 0.455451 0.046723
0.924254 0.455604 0.056275
0.952819 0.455482 0.066590
0.978576 0.455512 0.076509
1.000000 0.456519 0.086122
1.000000 0.456184 0.092683
1.000000 0.455360 0.098299
1.000000 0.454597 0.103059
1.000000 0.454658 0.108461
1.000000 0.455207 0.114290
0.120729 0.444770 0.117220
0.131319 0.443793 0.117586
0.141634 0.442908 0.117891
0.154604 0.441505 0.118990
0.169955 0.439887 0.119509
0.187716 0.438117 0.119631
0.208347 0.435889 0.116762
0.232700 0.433845 0.109560
0.262760 0.431922 0.100008
0.300694 0.429206 0.086030
0.345464 0.427161 0.068727
0.393011 0.426398 0.047669
0.443153 0.429419 0.027070
0.495552 0.434577 0.010224
0.546288 0.441871 0.003601
0.593500 0.449653 0.005158
0.637842 0.458289 0.007538
0.679103 0.467353 0.010651
0.718685 0.476173 0.013245
0.757382 0.483223 0.016632
0.793210 0.487953 0.022736
0.826719 0.490791 0.031434
0.858854 0.492683 0.041505
0.890196 0.493507 0.051026
0.920439 0.493782 0.061128
0.949187 0.493141 0.071748
0.975189 0.492775 0.082033
0.998566 0.493233 0.092439
1.000000 0.492927 0.100435
1.000000 0.492164 0.107393
1.000000 0.491310 0.113680
1.000000 0.491096 0.119295
1.000000 0.491341 0.124971
0.138949 0.479652 0.135134
0.148440 0.478737 0.135622
0.157473 0.477729 0.136324
0.169558 0.476539 0.137057
0.183719 0.475196 0.137819
0.199924 0.473701 0.138033
0.217380 0.471809 0.136019
0.238651 0.469673 0.131746
0.264256 0.467781 0.124392
0.301122 0.465614 0.111940
0.343114 0.463539 0.096437
0.387884 0.462196 0.078157
0.432715 0.461769 0.058320
0.480446 0.464820 0.037598
0.529473 0.469520 0.017182
0.578820 0.476356 0.006348
0.624109 0.483619 0.007294
0.666712 0.492836 0.011017
0.707362 0.502373 0.014618
0.747127 0.511070 0.018982
0.784298 0.517540 0.025391
0.818509 0.522240 0.034607
0.851438 0.525963 0.044923
0.883696 0.528374 0.054841
0.914885 0.529473 0.065766
0.944518 0.529503 0.076356
0.971221 0.529381 0.086915
0.994812 0.529717 0.097108
1.000000 0.529381 0.105776
1.000000 0.528405 0.113710
1.000000 0.527245 0.121370
1.000000 0.526909 0.128267
1.000000 0.526757 0.135042
0.156039 0.513024 0.150912
0.164157 0.512383 0.151858
0.172671 0.511589 0.152560
0.183749 0.510460 0.153384
0.196994 0.509209 0.154360
0.211521 0.507774 0.154757
0.226444 0.506096 0.153750
0.246220 0.503777 0.150607
0.270298 0.501488 0.144503
0.304265 0.499367 0.133333
0.342687 0.497292 0.119600
0.383581 0.495399 0.104372
0.425879 0.494545 0.088563
0.469490 0.495308 0.069642
0.514824 0.498634 0.048890
0.562249 0.503014 0.025208
0.609064 0.509239 0.010803
0.653010 0.516930 0.010529
0.694514 0.526268 0.014984
0.735195 0.535363 0.019989
0.773465 0.543084 0.027466
0.809110 0.549767 0.037751
0.843046 0.555505 0.047852
0.876249 0.559869 0.058015
0.908507 0.562737 0.068482
0.939086 0.564019 0.079866
0.966674 0.564813 0.091157
0.991241 0.565576 0.101869
1.000000 0.565393 0.111696
1.000000 0.563989 0.120150
1.000000 0.562524 0.128878
1.000000 0.562188 0.136233
1.000000 0.561944 0.143526
0.171695 0.544244 0.166018
0.179416 0.543603 0.166903
0.187259 0.542870 0.167727
0.197147 0.541741 0.168643
0.209537 0.540520 0.169833
0.222141 0.538933 0.170077
0.235996 0.537255 0.169650
0.254490 0.535027 0.166995
0.278111 0.532586 0.161685
0.308751 0.530297 0.152224
0.342626 0.528344 0.140993
0.380896 0.526238 0.128237
0.420722 0.524620 0.114168
0.462928 0.524956 0.098299
0.503990 0.526665 0.079164
0.547295 0.529961 0.058656
0.592554 0.534386 0.035798
0.637415 0.541070 0.017609
0.680049 0.548943 0.015656
0.721736 0.557275 0.021241
0.760861 0.565454 0.028412
0.797818 0.573663 0.039002
0.832853 0.581201 0.049592
0.867308 0.587488 0.060151
0.900877 0.592157 0.070436
0.932341 0.594781 0.081605
0.960967 0.596796 0.093294
0.986511 0.598291 0.105013
1.000000 0.598840 0.116365
1.000000 0.597620 0.125948
1.000000 0.596460 0.134981
1.000000 0.596246 0.143282
1.000000 0.595972 0.151431
0.186984 0.573388 0.180423
0.193698 0.572778 0.181247
0.200626 0.571954 0.181918
0.209781 0.570916 0.182864
0.220951 0.569574 0.184085
0.232425 0.567987 0.184268
0.246006 0.566247 0.184329
0.263401 0.564050 0.182071
0.284611 0.561883 0.177890
0.312383 0.559747 0.170169
0.343328 0.557733 0.160861
0.378759 0.556023 0.149264
0.416999 0.554162 0.136965
0.457465 0.553368 0.122713
0.495766 0.553796 0.106691
0.535698 0.556390 0.089143
0.577478 0.559869 0.068299
0.621088 0.564752 0.044739
0.664485 0.571588 0.024811
0.707271 0.578790 0.020966
0.747372 0.586389 0.028138
0.785489 0.594720 0.037598
0.821530 0.603510 0.048951
0.856901 0.611505 0.060121
0.891936 0.617700 0.071199
0.924407 0.621973 0.082277
0.954589 0.625177 0.093965
0.980682 0.627741 0.106722
1.000000 0.629175 0.119173
1.000000 0.628870 0.130678
0.999969 0.628321 0.140505
1.000000 0.628473 0.150210
0.999969 0.628382 0.159884
0.201053 0.601343 0.194553
0.207401 0.600732 0.195224
0.213718 0.600000 0.195804
0.222416 0.598993 0.196597
0.231937 0.597742 0.197604
0.242863 0.596185 0.198123
0.256046 0.594476 0.198337
0.271824 0.592554 0.197055
0.291051 0.590417 0.193637
0.314000 0.587274 0.187137
0.342290 0.585321 0.179141
0.376532 0.583612 0.168307
0.414252 0.582330 0.156466
0.453285 0.581201 0.144381
0.490486 0.580957 0.131930
0.527184 0.582330 0.116915
0.565423 0.584985 0.098360
0.605341 0.588190 0.076814
0.647822 0.593103 0.053285
0.690333 0.599756 0.032319
0.732296 0.606897 0.026429
0.771511 0.614099 0.035065
0.808927 0.622675 0.045808
0.845304 0.631403 0.057649
0.880735 0.639185 0.069215
0.914397 0.645014 0.080720
0.946502 0.649653 0.092683
0.973236 0.653132 0.106020
0.998810 0.655634 0.119448
0.999969 0.656367 0.132448
0.999969 0.656977 0.144106
1.000000 0.657679 0.155856
1.000000 0.658045 0.166812
0.214450 0.627497 0.207736
0.220188 0.626978 0.208438
0.226108 0.626398 0.208927
0.233341 0.625574 0.209720
0.242557 0.624445 0.210636
0.252873 0.623194 0.211368
0.265507 0.621576 0.211734
0.279576 0.619837 0.211185
0.296483 0.617823 0.208621
0.317845 0.615778 0.203952
0.343114 0.613977 0.196933
0.377173 0.612268 0.186191
0.414221 0.610803 0.174868
0.452369 0.610040 0.163943
0.488441 0.609857 0.155093
0.523033 0.610285 0.142885
0.557733 0.611749 0.126375
0.594507 0.613733 0.107149
0.633997 0.616785 0.084657
0.675013 0.622095 0.061707
0.717250 0.628473 0.040375
0.758328 0.635187 0.033051
0.796323 0.642542 0.042115
0.833463 0.650782 0.053986
0.869596 0.659144 0.066407
0.904356 0.666224 0.078767
0.937621 0.672236 0.091493
0.965942 0.676783 0.105226
0.992004 0.680110 0.119478
0.999969 0.681971 0.134218
1.000000 0.683192 0.147890
0.999969 0.684749 0.161654
0.999969 0.685725 0.174319
0.227024 0.654994 0.220127
0.232120 0.654536 0.220768
0.237369 0.654017 0.221347
0.244236 0.653285 0.222141
0.253086 0.652338 0.223026
0.263005 0.651118 0.223911
0.274327 0.649714 0.224247
0.286503 0.648127 0.223819
0.300389 0.646448 0.222202
0.320531 0.644526 0.217990
0.346227 0.642542 0.211582
0.378943 0.640742 0.200473
0.415473 0.639124 0.190494
0.451972 0.638148 0.181155
0.486885 0.637934 0.173526
0.520409 0.637903 0.164279
0.553033 0.638483 0.151736
0.587427 0.639826 0.135286
0.623407 0.641871 0.115175
0.661524 0.644984 0.093019
0.701991 0.650233 0.070039
0.743008 0.656031 0.049317
0.782986 0.662898 0.040009
0.820951 0.669947 0.048463
0.857664 0.678004 0.062104
0.893065 0.685695 0.075105
0.927153 0.692500 0.088563
0.957610 0.698054 0.102998
0.984619 0.702296 0.117800
0.999969 0.705165 0.134066
0.999969 0.707057 0.149599
0.999969 0.709041 0.164950
1.000000 0.710811 0.179599
0.238254 0.682368 0.231418
0.242893 0.681971 0.232090
0.247868 0.681514 0.232700
0.254673 0.680934 0.233310
0.262821 0.680049 0.234165
0.271916 0.678920 0.235019
0.282170 0.677607 0.235325
0.292515 0.676173 0.235386
0.306249 0.674495 0.233768
0.324071 0.672602 0.230594
0.350774 0.670314 0.223758
0.382238 0.668086 0.214511
0.417395 0.666163 0.205234
0.451942 0.664942 0.197177
0.486183 0.664576 0.189029
0.518730 0.664790 0.181399
0.550195 0.665126 0.172183
0.583062 0.666224 0.161013
0.616876 0.667720 0.144198
0.651545 0.669734 0.122805
0.688746 0.672511 0.100893
0.728389 0.677272 0.078157
0.768307 0.683345 0.057313
0.807828 0.689906 0.046815
0.845335 0.696773 0.055726
0.881254 0.704524 0.069612
0.915984 0.711330 0.083619
0.948272 0.717556 0.098421
0.976501 0.722499 0.114351
0.997711 0.726314 0.131380
0.999969 0.728939 0.148653
0.999969 0.731319 0.165347
0.999969 0.733486 0.181643
0.249638 0.709438 0.242557
0.254215 0.709041 0.243198
0.259007 0.708644 0.243656
0.264927 0.708034 0.244388
0.272313 0.707179 0.245304
0.281102 0.706142 0.246250
0.289738 0.704982 0.246708
0.299046 0.703731 0.247013
0.313085 0.701930 0.245396
0.329992 0.699977 0.242832
0.355871 0.697719 0.236759
0.385748 0.695338 0.229068
0.418647 0.693233 0.219883
0.452125 0.691768 0.211185
0.485328 0.690944 0.203525
0.517510 0.690852 0.196048
0.548363 0.691157 0.189487
0.579767 0.691737 0.181888
0.611719 0.692927 0.169009
0.644373 0.694392 0.151156
0.678645 0.696132 0.130251
0.715267 0.699123 0.108492
0.753750 0.703761 0.085420
0.792782 0.709651 0.064912
0.831754 0.716182 0.053437
0.868650 0.723049 0.060761
0.904143 0.729488 0.075166
0.937804 0.735775 0.091066
0.967437 0.741085 0.107454
0.992523 0.745418 0.124758
0.999969 0.748684 0.143862
0.999969 0.751492 0.161715
0.999969 0.754086 0.179324
0.260655 0.735348 0.252720
0.264836 0.735012 0.253269
0.268894 0.734615 0.254002
0.274357 0.734066 0.254673
0.281285 0.733364 0.255619
0.289189 0.732418 0.256535
0.296971 0.731380 0.256962
0.306798 0.730159 0.257084
0.319646 0.728542 0.256107
0.337377 0.726711 0.253788
0.360571 0.724788 0.249210
0.388922 0.722591 0.242679
0.420233 0.720424 0.234440
0.452949 0.718776 0.224430
0.485786 0.717464 0.216922
0.517632 0.716884 0.210727
0.548425 0.716976 0.206027
0.578729 0.717556 0.200595
0.608820 0.718410 0.190402
0.639887 0.719905 0.177066
0.672389 0.721065 0.158907
0.706050 0.722896 0.138033
0.742092 0.725917 0.115908
0.779690 0.730526 0.093324
0.817929 0.736690 0.073457
0.856107 0.742824 0.060670
0.892668 0.748898 0.066041
0.927672 0.754574 0.082185
0.958740 0.760067 0.099825
0.985931 0.764523 0.117861
0.999969 0.768032 0.137331
0.999969 0.770779 0.156313
0.999969 0.773861 0.175113
0.271763 0.761776 0.263096
0.275059 0.761196 0.263493
0.278935 0.760861 0.264164
0.284245 0.760433 0.264775
0.290471 0.759823 0.265690
0.297093 0.759091 0.266636
0.304692 0.758175 0.267155
0.314946 0.757015 0.267491
0.327001 0.755581 0.267094
0.344488 0.753841 0.265293
0.366278 0.751980 0.261509
0.392309 0.749844 0.255497
0.422980 0.747738 0.247227
0.455238 0.745937 0.238010
0.487861 0.744350 0.230411
0.519097 0.743343 0.225895
0.549187 0.743130 0.221866
0.579004 0.743526 0.217777
0.607935 0.744289 0.211185
0.637293 0.745388 0.199924
0.667903 0.746426 0.185183
0.699977 0.747372 0.166537
0.733333 0.749233 0.145785
0.768521 0.752773 0.123293
0.805051 0.757137 0.101106
0.842710 0.763058 0.080598
0.880369 0.768856 0.067170
0.916747 0.774014 0.070985
0.949462 0.779202 0.089113
0.977874 0.783749 0.108034
0.999969 0.787106 0.128634
0.999969 0.789731 0.148806
0.999969 0.792905 0.168460
0.283146 0.788174 0.274418
0.286595 0.787900 0.274876
0.290257 0.787594 0.275517
0.294682 0.787198 0.276249
0.299992 0.786709 0.277104
0.306554 0.786038 0.278141
0.314611 0.785153 0.278965
0.324041 0.784115 0.279637
0.336431 0.782773 0.279454
0.352148 0.781247 0.278050
0.372839 0.779355 0.274327
0.397101 0.777340 0.268956
0.427375 0.775021 0.260899
0.459174 0.773129 0.253117
0.491524 0.771420 0.245457
0.521752 0.770443 0.240024
0.551415 0.769802 0.236698
0.580621 0.769711 0.233188
0.609369 0.770291 0.229282
0.637537 0.771511 0.221683
0.666407 0.772641 0.210147
0.696620 0.773434 0.193973
0.728298 0.774166 0.175143
0.760739 0.776242 0.153536
0.794766 0.779416 0.130373
0.830808 0.783536 0.108949
0.867674 0.788998 0.088136
0.905272 0.794156 0.073579
0.940185 0.798825 0.076448
0.970001 0.803128 0.096071
0.996338 0.806332 0.117556
0.999939 0.808743 0.138003
0.999969 0.811887 0.159121
0.294926 0.814908 0.286107
0.297642 0.814664 0.286870
0.300816 0.814389 0.287602
0.304997 0.814023 0.288396
0.310216 0.813565 0.289250
0.316777 0.812924 0.290471
0.324285 0.812131 0.291661
0.333593 0.811154 0.292302
0.344884 0.810056 0.292271
0.359991 0.808652 0.290959
0.379492 0.806973 0.287999
0.404395 0.804837 0.282780
0.433539 0.802548 0.275761
0.464515 0.800565 0.268498
0.495644 0.798795 0.261265
0.525719 0.797543 0.254765
0.554955 0.796628 0.250278
0.583459 0.796414 0.247898
0.611444 0.796902 0.245548
0.638972 0.798062 0.241520
0.666957 0.799100 0.233127
0.695735 0.799619 0.220645
0.725399 0.800076 0.203708
0.756069 0.800961 0.183261
0.787625 0.802853 0.161288
0.821042 0.805966 0.138552
0.856138 0.809842 0.116609
0.893126 0.814542 0.094942
0.929473 0.818631 0.080171
0.961669 0.822904 0.081941
0.989014 0.826017 0.102327
0.999023 0.828244 0.124422
0.999969 0.831174 0.145449
0.306218 0.841733 0.298772
0.308782 0.841550 0.299321
0.311711 0.841276 0.300114
0.315648 0.840909 0.300847
0.320470 0.840452 0.301701
0.326452 0.839811 0.302861
0.333806 0.839078 0.304051
0.342412 0.838163 0.304448
0.352850 0.837156 0.304692
0.368139 0.835721 0.303319
0.386481 0.834165 0.301030
0.412634 0.832212 0.296971
0.441077 0.829953 0.291051
0.471260 0.827970 0.284276
0.500969 0.826139 0.276493
0.530358 0.824674 0.270176
0.559319 0.823545 0.265293
0.586847 0.823087 0.262913
0.614008 0.823301 0.261570
