Camera18_LUT_V0/luts/panasonic-warm-skin-tone.cube
# Created by Adobe Lightroom plugin Export LUT (1.24.0)
# www.johnrellis.com/lightroom/exportlut.htm
# Photo: P1014654.jpg
# Color profile: C:\Program Files (x86)\Common Files\Adobe\Color\Profiles\Recommended\sRGB Color Space Profile.icm
LUT_3D_SIZE 9
DOMAIN_MIN 0.0 0.0 0.0
DOMAIN_MAX 1.0 1.0 1.0
0.006470 0.000153 0.000305
0.142092 0.004639 0.002136
0.358587 0.002838 0.000000
0.553796 0.023438 0.006928
0.709010 0.054383 0.022126
0.846860 0.083955 0.036500
0.967193 0.116274 0.054902
1.000000 0.147555 0.071015
1.000000 0.168368 0.086244
0.014313 0.118837 0.011688
0.108064 0.116823 0.002380
0.338537 0.141451 0.000000
0.536217 0.155337 0.000000
0.693812 0.173190 0.002960
0.830442 0.191714 0.019257
0.952972 0.211948 0.041962
1.000000 0.230106 0.066499
1.000000 0.239872 0.084962
0.047883 0.287724 0.049165
0.122499 0.279088 0.045380
0.273686 0.277317 0.000214
0.501610 0.307103 0.000366
0.675471 0.327062 0.004761
0.814389 0.333959 0.015198
0.936919 0.341283 0.041291
1.000000 0.350561 0.070375
1.000000 0.353521 0.091188
0.120729 0.444770 0.117220
0.169955 0.439887 0.119509
0.262760 0.431922 0.100008
0.443153 0.429419 0.027070
0.637842 0.458289 0.007538
0.793210 0.487953 0.022736
0.920439 0.493782 0.061128
1.000000 0.492927 0.100435
1.000000 0.491341 0.124971
0.186984 0.573388 0.180423
0.220951 0.569574 0.184085
0.284611 0.561883 0.177890
0.416999 0.554162 0.136965
0.577478 0.559869 0.068299
0.747372 0.586389 0.028138
0.891936 0.617700 0.071199
1.000000 0.629175 0.119173
0.999969 0.628382 0.159884
0.238254 0.682368 0.231418
0.262821 0.680049 0.234165
0.306249 0.674495 0.233768
0.417395 0.666163 0.205234
0.550195 0.665126 0.172183
0.688746 0.672511 0.100893
0.845335 0.696773 0.055726
0.976501 0.722499 0.114351
0.999969 0.733486 0.181643
0.283146 0.788174 0.274418
0.299992 0.786709 0.277104
0.336431 0.782773 0.279454
0.427375 0.775021 0.260899
0.551415 0.769802 0.236698
0.666407 0.772641 0.210147
0.794766 0.779416 0.130373
0.940185 0.798825 0.076448
0.999969 0.811887 0.159121
0.330999 0.895262 0.326787
0.342351 0.894072 0.328923
0.373785 0.890776 0.330785
0.460334 0.884825 0.321386
0.569940 0.878447 0.298863
0.673854 0.877287 0.293462
0.780758 0.880034 0.256931
0.900175 0.884306 0.169680
0.999939 0.893614 0.096376
0.420172 0.989227 0.406897
0.438117 0.988403 0.406897
0.483192 0.985657 0.405219
0.551110 0.981598 0.401801
0.629114 0.977417 0.411292
0.711879 0.974243 0.427741
0.797879 0.973144 0.416083
0.889281 0.969970 0.356268
0.985565 0.968780 0.251316
0.027131 0.024262 0.156405
0.148104 0.015717 0.151919
0.348211 0.014588 0.151308
0.551202 0.036225 0.144869
0.709957 0.056825 0.156161
0.845579 0.078798 0.163485
0.964569 0.110842 0.170047
1.000000 0.143221 0.168704
1.000000 0.167514 0.169894
0.000000 0.135927 0.139040
0.118593 0.127443 0.131075
0.320989 0.131868 0.121798
0.520562 0.150576 0.122896
0.682795 0.173861 0.131533
0.822538 0.193057 0.139712
0.945708 0.214054 0.150454
1.000000 0.232975 0.159854
1.000000 0.243870 0.166751
0.044923 0.300999 0.136416
0.130892 0.288243 0.143252
0.273533 0.285039 0.120058
0.497047 0.311284 0.119326
0.665522 0.323461 0.128542
0.807126 0.330724 0.134615
0.929320 0.340124 0.145510
1.000000 0.350622 0.157290
1.000000 0.355077 0.167544
0.125734 0.451087 0.168460
0.177005 0.444984 0.173312
0.265202 0.435126 0.170138
0.440925 0.436347 0.130556
0.633906 0.465278 0.123079
0.788083 0.487129 0.135348
0.914153 0.489509 0.155581
1.000000 0.491035 0.175906
1.000000 0.489754 0.189822
0.189120 0.576959 0.214145
0.223850 0.573083 0.218540
0.287694 0.564874 0.219364
0.417182 0.556603 0.196017
0.577447 0.562951 0.150484
0.745205 0.591394 0.132479
0.889158 0.617914 0.156680
0.999969 0.627680 0.193118
1.000000 0.627893 0.224186
0.240238 0.685420 0.256168
0.265049 0.682795 0.259709
0.308629 0.676875 0.261814
0.419562 0.667536 0.241825
0.551171 0.664637 0.221469
0.687770 0.674769 0.168521
0.842741 0.699397 0.145205
0.974548 0.723964 0.185092
0.999969 0.735439 0.242618
0.284031 0.789578 0.292149
0.301030 0.788022 0.295903
0.338628 0.783841 0.300389
0.429358 0.775540 0.285222
0.553002 0.769589 0.270268
0.666529 0.772610 0.251102
0.793179 0.779446 0.186038
0.937621 0.799374 0.155581
0.999939 0.812650 0.219669
0.331365 0.896361 0.339635
0.342870 0.895140 0.342077
0.375799 0.891691 0.345098
0.462348 0.885405 0.337255
0.571008 0.878691 0.321233
0.674403 0.877409 0.321080
0.780911 0.880461 0.290593
0.899138 0.884184 0.214664
0.999969 0.892424 0.166476
0.420478 0.989319 0.421454
0.438666 0.988434 0.421637
0.484047 0.985687 0.420539
0.551598 0.981598 0.418189
0.629084 0.977356 0.427985
0.712367 0.973999 0.444282
0.798123 0.972930 0.434272
0.889006 0.970092 0.379156
0.984741 0.968750 0.283574
0.038300 0.045655 0.346075
0.159213 0.034882 0.340368
0.340246 0.032898 0.342199
0.544213 0.046357 0.329656
0.701137 0.072755 0.307652
0.837522 0.085603 0.298680
0.959258 0.099519 0.294133
1.000000 0.120577 0.287205
1.000000 0.145998 0.282170
0.023713 0.160739 0.327459
0.134127 0.150942 0.318975
0.299718 0.133639 0.313359
0.510979 0.143893 0.298558
0.673640 0.166506 0.282719
0.810941 0.183749 0.277989
0.934722 0.201236 0.279362
1.000000 0.222232 0.282780
1.000000 0.237461 0.286534
0.021057 0.309178 0.316136
0.127840 0.300053 0.305455
0.280095 0.293187 0.297520
0.469825 0.295079 0.279271
0.639185 0.309453 0.275853
0.783322 0.322332 0.277592
0.912108 0.336095 0.280858
1.000000 0.350927 0.288029
1.000000 0.357488 0.292302
0.079347 0.471321 0.289067
0.159487 0.461372 0.286534
0.282078 0.442359 0.299779
0.436683 0.439338 0.279942
0.622431 0.465919 0.279545
0.771084 0.479988 0.283452
0.896544 0.483223 0.290806
1.000000 0.487160 0.297520
1.000000 0.489052 0.305272
0.176425 0.588739 0.295506
0.218753 0.583307 0.297124
0.293370 0.572229 0.299901
0.422919 0.560052 0.302495
0.574365 0.566461 0.281559
0.737575 0.595483 0.277440
0.878508 0.618830 0.296666
0.992859 0.627771 0.321233
1.000000 0.629267 0.340429
0.236667 0.693019 0.311254
0.263279 0.689876 0.312566
0.312963 0.682918 0.316106
0.425574 0.672145 0.313939
0.553491 0.665675 0.318090
0.685237 0.675929 0.284642
0.839231 0.702937 0.276341
0.969451 0.727810 0.312535
0.999969 0.740322 0.361028
0.281346 0.793118 0.340490
0.298863 0.791287 0.341039
0.341711 0.786801 0.342077
0.436988 0.777523 0.335119
0.556634 0.770016 0.342168
0.667842 0.771725 0.335790
0.791653 0.781186 0.290227
0.934508 0.801663 0.277409
0.999969 0.817533 0.335363
0.328710 0.898558 0.378332
0.341619 0.897093 0.379309
0.380774 0.893156 0.379828
0.467689 0.886320 0.373266
0.573297 0.879118 0.372412
0.675196 0.876768 0.382910
0.781033 0.880491 0.361395
0.897185 0.884154 0.302464
0.999939 0.893523 0.277897
0.421759 0.989349 0.463630
0.440955 0.988556 0.463691
0.486641 0.986023 0.461311
0.553124 0.981964 0.459388
0.629236 0.977722 0.468574
0.713588 0.973907 0.483680
0.799069 0.972717 0.476326
0.889067 0.970306 0.431281
0.983612 0.969482 0.353674
0.065644 0.081697 0.522210
0.173373 0.071778 0.515496
0.325963 0.070375 0.510918
0.537102 0.063478 0.527062
0.699886 0.075441 0.509209
0.836728 0.091768 0.488777
0.956786 0.111666 0.470893
1.000000 0.129213 0.450111
1.000000 0.141848 0.442145
0.063081 0.201602 0.511040
0.162600 0.190738 0.501884
0.296422 0.169741 0.492164
0.508049 0.153170 0.505638
0.677485 0.165805 0.484138
0.814908 0.181521 0.463416
0.935698 0.198856 0.447120
1.000000 0.213474 0.433906
1.000000 0.219821 0.427161
0.059937 0.331823 0.497566
0.160006 0.323827 0.487770
0.288853 0.316594 0.476661
0.465583 0.297795 0.474311
0.641199 0.306188 0.453468
0.777768 0.317937 0.440375
0.900237 0.331182 0.431830
1.000000 0.342046 0.428626
1.000000 0.347204 0.427832
0.056092 0.473762 0.479866
0.152743 0.466255 0.473518
0.286778 0.457679 0.467018
0.441932 0.450813 0.457557
0.598108 0.450019 0.439765
0.739010 0.457069 0.433356
0.869535 0.466499 0.434424
0.989715 0.478218 0.435645
1.000000 0.483436 0.439612
0.099184 0.613703 0.454597
0.180270 0.606256 0.448341
0.294957 0.592218 0.444282
0.445289 0.571283 0.459144
0.573632 0.573266 0.437385
0.727626 0.601099 0.445960
0.860044 0.617426 0.458686
0.974029 0.622187 0.468940
1.000000 0.624018 0.473915
0.210788 0.708766 0.442115
0.248295 0.704463 0.440131
0.321599 0.694118 0.438239
0.444587 0.679194 0.439918
0.560052 0.669306 0.448463
0.684962 0.680018 0.424231
0.833097 0.707790 0.432502
0.959533 0.733577 0.469276
1.000000 0.744656 0.500328
0.267308 0.801114 0.446021
0.288853 0.798245 0.443824
0.343450 0.791684 0.438361
0.450019 0.781918 0.434577
0.563470 0.771450 0.445655
0.668513 0.770504 0.446479
0.790433 0.781399 0.414893
0.929808 0.804837 0.419287
0.999969 0.823392 0.475135
0.316167 0.902098 0.462898
0.333196 0.900420 0.461341
0.381781 0.895842 0.456031
0.473762 0.888609 0.448157
0.575738 0.880339 0.455055
0.677333 0.875608 0.467781
0.779721 0.879118 0.455085
0.895201 0.884672 0.414618
0.998993 0.894682 0.408698
0.416907 0.989471 0.529107
0.436378 0.988647 0.529259
0.484443 0.986542 0.527672
0.551873 0.982666 0.525505
0.628138 0.978637 0.531426
0.713863 0.973968 0.541558
0.799100 0.972320 0.537560
0.887907 0.970367 0.502770
0.982147 0.970062 0.443030
0.094240 0.120150 0.683284
0.195895 0.108949 0.673274
0.321874 0.102022 0.664576
0.514855 0.101778 0.674678
0.695888 0.093690 0.682643
0.835538 0.096254 0.673793
0.956237 0.111147 0.657649
1.000000 0.129366 0.637171
1.000000 0.150423 0.624201
0.092805 0.238071 0.669093
0.189425 0.226291 0.659022
0.300023 0.203006 0.648890
0.484901 0.188632 0.655970
0.668116 0.177890 0.663264
0.811612 0.181216 0.654871
0.933959 0.194736 0.634302
1.000000 0.211551 0.617121
1.000000 0.223545 0.607050
0.094270 0.360082 0.651728
0.190585 0.354131 0.643366
0.304845 0.343420 0.633448
0.455329 0.317937 0.629145
0.636957 0.306950 0.635462
0.779324 0.312688 0.622736
0.903380 0.321172 0.604852
1.000000 0.332708 0.590661
1.000000 0.338293 0.584253
0.086732 0.481880 0.636683
0.181552 0.476722 0.630213
0.302892 0.470802 0.620844
0.440009 0.463752 0.609308
0.597681 0.451850 0.607324
0.745022 0.452613 0.593927
0.866178 0.458625 0.584283
0.981445 0.466560 0.577600
1.000000 0.468482 0.574182
0.081880 0.610101 0.620630
0.173709 0.603876 0.613001
0.294652 0.595453 0.605646
0.443275 0.588434 0.600824
0.580529 0.583917 0.592889
0.709316 0.582849 0.582818
0.833890 0.589166 0.581903
0.957397 0.597253 0.583642
1.000000 0.601465 0.582391
0.125490 0.727016 0.592584
0.200565 0.721126 0.587854
0.306401 0.712490 0.580011
0.445441 0.699214 0.575158
0.577539 0.682246 0.583154
0.688014 0.686183 0.566491
0.827481 0.716732 0.590448
0.947539 0.737606 0.612573
1.000000 0.741634 0.620294
0.243961 0.815030 0.570611
0.277256 0.811643 0.568811
0.349584 0.804227 0.564691
0.457069 0.793240 0.561883
0.572808 0.780148 0.563073
0.674861 0.773495 0.565942
0.790158 0.784329 0.545220
0.925933 0.811307 0.566796
0.999969 0.832822 0.611505
0.302220 0.908141 0.568841
0.325139 0.906065 0.567712
0.381781 0.901244 0.564569
0.472908 0.894438 0.561212
0.577874 0.884672 0.560937
0.678370 0.876860 0.565759
0.779477 0.878019 0.559503
0.893889 0.884977 0.531395
0.995361 0.896208 0.544640
0.409308 0.990753 0.605371
0.429236 0.990265 0.605737
0.474678 0.988830 0.605798
0.544549 0.985931 0.604944
0.626276 0.980865 0.607813
0.713222 0.975463 0.613123
0.798978 0.971893 0.614069
0.887449 0.969940 0.590051
0.980682 0.970306 0.545373
0.121096 0.161837 0.820096
0.216068 0.144533 0.808499
0.324254 0.132723 0.798581
0.497200 0.131441 0.804654
0.677089 0.127810 0.812741
0.825345 0.121645 0.814420
0.953643 0.118776 0.813230
1.000000 0.130587 0.799008
1.000000 0.147860 0.787259
0.117311 0.269566 0.804379
0.213840 0.258793 0.795407
0.313420 0.236210 0.784360
0.472053 0.217685 0.784817
0.652277 0.209079 0.794461
0.801419 0.200351 0.797238
0.931151 0.196872 0.794888
1.000000 0.210239 0.781247
1.000000 0.221134 0.769650
0.123262 0.387213 0.787289
0.217716 0.380926 0.779263
0.323003 0.370642 0.770596
0.445441 0.341680 0.760769
0.624903 0.327825 0.769833
0.772885 0.321324 0.773220
0.900542 0.321996 0.766018
1.000000 0.331121 0.753292
1.000000 0.337499 0.745174
0.121553 0.497780 0.768215
0.213748 0.493416 0.761501
0.326452 0.490455 0.754910
0.449287 0.480049 0.745266
0.594141 0.463081 0.741909
0.742092 0.454231 0.745571
0.870756 0.455787 0.736843
0.986175 0.461280 0.724514
1.000000 0.463844 0.719112
0.124575 0.609430 0.750423
0.209140 0.604211 0.744442
0.319951 0.599573 0.737697
0.451423 0.595087 0.729274
0.580621 0.591455 0.722774
0.714412 0.584131 0.720851
0.844083 0.583062 0.711696
0.958831 0.586786 0.706844
1.000000 0.587701 0.703243
0.133486 0.722194 0.732784
0.208804 0.716915 0.727779
0.315953 0.711269 0.720455
0.444739 0.705135 0.713466
0.577295 0.702266 0.710323
0.701900 0.699367 0.706386
0.818143 0.699702 0.701076
0.934569 0.707637 0.705501
1.000000 0.712520 0.708186
0.167086 0.832151 0.708675
0.223087 0.828428 0.704738
0.316991 0.822599 0.698238
0.438575 0.815793 0.690547
0.569818 0.806424 0.684657
0.691554 0.787716 0.686763
0.795621 0.790982 0.675624
0.924071 0.824338 0.712276
0.993744 0.841672 0.738399
0.252811 0.922820 0.683986
0.285130 0.920195 0.681758
0.356817 0.915068 0.678035
0.461097 0.908049 0.673884
0.574701 0.898039 0.671504
0.682399 0.885161 0.670527
0.781704 0.879240 0.671015
0.893339 0.887510 0.653559
0.990265 0.902708 0.684382
0.367834 0.995331 0.689418
0.393225 0.994903 0.689143
0.448737 0.993713 0.688930
0.528161 0.991241 0.690730
0.616602 0.985870 0.693538
0.710384 0.978576 0.696315
0.800931 0.972869 0.699733
0.887114 0.970611 0.687465
0.978393 0.971710 0.655299
0.154086 0.204715 0.939940
0.242496 0.189975 0.930175
0.340063 0.176730 0.921080
0.486702 0.167880 0.919707
0.662928 0.163668 0.927581
0.806577 0.157717 0.931212
0.938293 0.147829 0.932982
1.000000 0.140291 0.931762
1.000000 0.148226 0.924865
0.154788 0.306279 0.925628
0.242893 0.297093 0.918486
0.334112 0.275395 0.907622
0.460121 0.250523 0.899046
0.642695 0.241642 0.911528
0.787747 0.233097 0.914641
0.919158 0.222477 0.916960
1.000000 0.218509 0.916045
1.000000 0.222263 0.909575
0.163577 0.417578 0.908995
0.246281 0.410742 0.902373
0.345739 0.400031 0.894499
0.450507 0.370062 0.883360
0.618860 0.351812 0.888365
0.763119 0.344579 0.892790
0.893095 0.337469 0.893309
1.000000 0.335485 0.891814
1.000000 0.338750 0.884581
0.172580 0.520500 0.889982
0.247715 0.516808 0.884764
0.351263 0.512230 0.878050
0.466957 0.502708 0.870237
0.593042 0.481086 0.863127
0.737942 0.470497 0.867704
0.865599 0.464942 0.868467
0.983764 0.464454 0.863981
1.000000 0.464607 0.857145
0.186099 0.622248 0.870390
0.249424 0.618616 0.866056
0.351324 0.615503 0.860349
0.472724 0.612238 0.852934
0.593835 0.606775 0.846220
0.719387 0.595178 0.845090
0.844785 0.588037 0.845090
0.963317 0.586938 0.839261
1.000000 0.585534 0.833036
0.197726 0.724208 0.852232
0.252354 0.720851 0.848844
0.347051 0.716701 0.843565
0.465614 0.712978 0.837064
0.589349 0.711360 0.831785
0.705531 0.708553 0.826566
0.825589 0.701198 0.824308
0.944884 0.699031 0.817716
1.000000 0.699336 0.815091
0.192813 0.828519 0.835630
0.245304 0.825254 0.831693
0.338018 0.820096 0.826658
0.455268 0.816800 0.821103
0.577539 0.813626 0.816434
0.694026 0.810666 0.812009
0.809049 0.806058 0.809201
0.920775 0.808103 0.808194
0.999878 0.813901 0.813504
0.185763 0.934356 0.814847
0.235843 0.931395 0.812009
0.323827 0.926421 0.806149
0.441016 0.922026 0.801022
0.562402 0.917082 0.795285
0.679561 0.907866 0.787320
0.792599 0.889189 0.785763
0.896056 0.891234 0.777401
0.984985 0.912200 0.817624
0.284245 1.000000 0.794827
0.317052 1.000000 0.792782
0.389014 0.999756 0.790066
0.487953 0.997406 0.787594
0.593988 0.992676 0.785824
0.702113 0.984955 0.788846
0.803372 0.976257 0.790982
0.888426 0.970733 0.790494
0.974914 0.972351 0.769406
0.198093 0.260838 1.000000
0.276036 0.249760 1.000000
0.366003 0.234134 1.000000
0.481514 0.217105 1.000000
0.654932 0.211063 0.999969
0.792142 0.208835 0.999969
0.916655 0.202152 0.999969
1.000000 0.190585 0.999969
1.000000 0.185153 0.999969
0.200961 0.349218 1.000000
0.278752 0.341039 1.000000
0.367926 0.323827 0.999969
0.469947 0.293797 1.000000
0.637110 0.281010 1.000000
0.777951 0.273228 1.000000
0.904021 0.266148 0.999969
1.000000 0.256992 0.999969
1.000000 0.251438 0.999969
0.210910 0.448463 1.000000
0.283207 0.442817 1.000000
0.379370 0.434272 1.000000
0.476265 0.411292 0.995453
0.611383 0.386419 0.991608
0.758663 0.377295 0.999695
0.883635 0.371588 1.000000
1.000000 0.365484 0.999969
1.000000 0.359503 0.997681
0.224582 0.546105 1.000000
0.288609 0.542809 0.996460
0.386999 0.538018 0.990692
0.496437 0.531548 0.984375
0.603296 0.511681 0.976349
0.739986 0.497536 0.978912
0.865049 0.492287 0.980957
0.980133 0.486427 0.979950
1.000000 0.480415 0.976776
0.240574 0.641382 0.982300
0.295415 0.638911 0.979675
0.390021 0.637201 0.975097
0.502647 0.635370 0.969757
0.614527 0.630701 0.964263
0.722377 0.616175 0.958160
0.847227 0.606073 0.961242
0.961151 0.600153 0.961486
1.000000 0.594537 0.957549
0.247623 0.735622 0.965179
0.295048 0.733364 0.962463
0.383825 0.731472 0.958923
0.494911 0.730343 0.954437
0.609796 0.728939 0.949645
0.718074 0.724392 0.944030
0.829435 0.712734 0.941985
0.943053 0.705196 0.941924
1.000000 0.700557 0.937987
0.241154 0.830381 0.948730
0.286320 0.828672 0.946990
0.372381 0.825467 0.943023
0.482460 0.822995 0.938262
0.597223 0.821347 0.934173
0.706996 0.818723 0.929564
0.813931 0.814389 0.924163
0.925200 0.806394 0.923095
1.000000 0.803403 0.916747
0.222660 0.929107 0.932403
0.268254 0.926970 0.929717
0.355993 0.923308 0.926726
0.466621 0.919951 0.922698
0.579492 0.916320 0.918517
0.689937 0.912322 0.913909
0.800107 0.909361 0.908415
0.907286 0.904295 0.905089
0.988769 0.904692 0.905913
0.220798 1.000000 0.920348
0.264988 1.000000 0.918090
0.348150 0.998291 0.914427
0.457618 0.995056 0.910918
0.571160 0.991577 0.907012
0.685389 0.987762 0.902068
0.802457 0.983612 0.897887
0.905577 0.973053 0.901457
0.972900 0.973144 0.897368
0.232670 0.298558 1.000000
0.295903 0.290257 1.000000
0.381750 0.274998 1.000000
0.483497 0.254002 1.000000
0.645045 0.249149 1.000000
0.779995 0.246830 0.999969
0.901762 0.243809 0.999969
1.000000 0.237400 0.999969
1.000000 0.231449 1.000000
0.236698 0.367864 1.000000
0.299657 0.361425 0.999969
0.386786 0.348363 1.000000
0.481331 0.322148 1.000000
0.630365 0.308202 1.000000
0.769833 0.302037 1.000000
0.892302 0.298039 1.000000
1.000000 0.291417 0.999969
1.000000 0.286412 0.999969
0.249302 0.459998 1.000000
0.308507 0.456214 1.000000
0.398322 0.449592 1.000000
0.492622 0.431250 1.000000
0.610803 0.408148 0.999969
0.756374 0.400122 0.999969
0.877531 0.396246 0.999969
0.991547 0.391485 1.000000
1.000000 0.386481 0.999969
0.267308 0.553857 1.000000
0.320226 0.552239 1.000000
0.409216 0.549035 1.000000
0.513481 0.545800 1.000000
0.614313 0.531243 1.000000
0.738125 0.515373 0.999969
0.860136 0.507866 1.000000
0.972015 0.503532 0.999969
1.000000 0.498848 0.999969
0.290318 0.647486 1.000000
0.335027 0.646967 1.000000
0.418463 0.646021 1.000000
0.521538 0.645197 1.000000
0.625605 0.641413 1.000000
0.725368 0.628382 0.999969
0.844053 0.617945 0.999969
0.954162 0.612757 0.999969
1.000000 0.607355 0.999969
0.298344 0.736934 1.000000
0.338293 0.736263 1.000000
0.418097 0.735622 1.000000
0.518822 0.735225 1.000000
0.623957 0.734585 1.000000
0.724392 0.730434 1.000000
0.827024 0.719478 1.000000
0.936370 0.712520 1.000000
1.000000 0.707546 1.000000
0.302342 0.827146 1.000000
0.339208 0.826047 1.000000
0.414496 0.824765 1.000000
0.513603 0.823301 1.000000
0.617853 0.822385 1.000000
0.721187 0.822416 1.000000
0.820005 0.819883 1.000000
0.922515 0.811124 1.000000
1.000000 0.809140 0.999969
0.244816 0.928923 1.000000
0.288090 0.927123 1.000000
0.371496 0.924895 1.000000
0.478218 0.921050 1.000000
0.588281 0.917937 1.000000
0.698146 0.914763 0.998993
0.810483 0.913024 0.995178
0.914672 0.912810 0.990173
0.986114 0.912932 0.985443
0.245518 0.999969 1.000000
0.287724 0.999176 0.999420
0.369207 0.996246 0.996582
0.474434 0.992920 0.992798
0.587243 0.989105 0.988464
0.704616 0.984955 0.983917
0.823209 0.980987 0.978393
0.925719 0.977264 0.974456
0.976684 0.973999 0.972534
