Camera18_LUT_V0/luts/panasonic-verdant-scenery.cube
TITLE "Generated by Resolve"
LUT_3D_SIZE 33
0.0420996 0.0225681 0.0209201
0.0420996 0.0225681 0.0209201
0.0420996 0.0225681 0.0209201
0.0689555 0.0235142 0.0218204
0.105638 0.025864 0.0229801
0.139025 0.0284123 0.0233158
0.17435 0.0334325 0.0239109
0.218875 0.043595 0.0240024
0.275029 0.0541695 0.0239719
0.34934 0.0622873 0.0253147
0.423011 0.0686503 0.0267796
0.488701 0.0778821 0.0302739
0.550469 0.0872511 0.0346075
0.607019 0.0944228 0.0392309
0.65977 0.101701 0.0435035
0.712108 0.107851 0.0475319
0.762585 0.113832 0.0513313
0.810269 0.120714 0.0544594
0.854612 0.127474 0.0576638
0.895155 0.133928 0.0602426
0.908003 0.135943 0.0608072
0.908003 0.135943 0.0608072
0.908003 0.135943 0.0608072
0.908003 0.135943 0.0608072
0.908003 0.135943 0.0608072
0.908003 0.135943 0.0608072
0.908003 0.135943 0.0608072
0.908003 0.135943 0.0608072
0.908003 0.135943 0.0608072
0.908003 0.135943 0.0608072
0.908003 0.135943 0.0608072
0.908003 0.135943 0.0608072
0.908003 0.135943 0.0608072
0.0420996 0.0225681 0.0209201
0.0420996 0.0225681 0.0209201
0.0420996 0.0225681 0.0209201
0.0559701 0.0228885 0.0212253
0.0917983 0.0249485 0.022858
0.126833 0.0274357 0.0231785
0.161761 0.0313725 0.0236362
0.204791 0.0405737 0.0239872
0.262715 0.0522164 0.0240177
0.336294 0.0614633 0.0253605
0.415 0.0675669 0.0263523
0.483146 0.0771038 0.0299687
0.546304 0.0868238 0.0343786
0.603937 0.0940414 0.0390478
0.657298 0.10132 0.0432746
0.71014 0.107591 0.0473793
0.760861 0.113558 0.0511482
0.808988 0.120531 0.0544289
0.853254 0.127275 0.0575265
0.89398 0.133761 0.0601816
0.908003 0.135943 0.0608072
0.908003 0.135943 0.0608072
0.908003 0.135943 0.0608072
0.908003 0.135943 0.0608072
0.908003 0.135943 0.0608072
0.908003 0.135943 0.0608072
0.908003 0.135943 0.0608072
0.908003 0.135943 0.0608072
0.908003 0.135943 0.0608072
0.908003 0.135943 0.0608072
0.908003 0.135943 0.0608072
0.908003 0.135943 0.0608072
0.908003 0.135943 0.0608072
0.0420996 0.0225681 0.0209201
0.0420996 0.0225681 0.0209201
0.0420996 0.0225681 0.0209201
0.0422065 0.0225528 0.0208896
0.0781872 0.0241245 0.0224155
0.114244 0.0264591 0.0230716
0.148318 0.0294652 0.0234836
0.191089 0.0373999 0.0240787
0.249699 0.0500191 0.024033
0.322942 0.0602426 0.0251011
0.406973 0.066743 0.0260014
0.477073 0.0761425 0.029572
0.542062 0.086244 0.0340429
0.600855 0.0935683 0.0387732
0.654704 0.101076 0.0431067
0.708003 0.107378 0.0472419
0.759045 0.113283 0.0509957
0.807462 0.120317 0.0543679
0.851987 0.127184 0.0574655
0.892805 0.133547 0.0601205
0.908003 0.135943 0.0608072
0.908003 0.135943 0.0608072
0.908003 0.135943 0.0608072
0.908003 0.135943 0.0608072
0.908003 0.135943 0.0608072
0.908003 0.135943 0.0608072
0.908003 0.135943 0.0608072
0.908003 0.135943 0.0608072
0.908003 0.135943 0.0608072
0.908003 0.135943 0.0608072
0.908003 0.135943 0.0608072
0.908003 0.135943 0.0608072
0.908003 0.135943 0.0608072
0.0420996 0.0225681 0.0209201
0.0420996 0.0225681 0.0209201
0.0420996 0.0225681 0.0209201
0.0420996 0.0225681 0.0209201
0.0644694 0.0233616 0.0216678
0.100923 0.0256046 0.0230106
0.1346 0.0280461 0.0232395
0.177447 0.0341802 0.0239414
0.236088 0.0471504 0.0240635
0.309804 0.0588998 0.0247807
0.397726 0.0657969 0.0256962
0.470314 0.0751812 0.0291905
0.537545 0.0856641 0.0337072
0.597421 0.0931106 0.0384833
0.652186 0.100816 0.0429694
0.705821 0.107164 0.0471046
0.757137 0.113054 0.0508278
0.805936 0.120058 0.0543069
0.850752 0.127016 0.0573892
0.89163 0.133364 0.06009
0.908003 0.135943 0.0608072
0.908003 0.135943 0.0608072
0.908003 0.135943 0.0608072
0.908003 0.135943 0.0608072
0.908003 0.135943 0.0608072
0.908003 0.135943 0.0608072
0.908003 0.135943 0.0608072
0.908003 0.135943 0.0608072
0.908003 0.135943 0.0608072
0.908003 0.135943 0.0608072
0.908003 0.135943 0.0608072
0.908003 0.135943 0.0608072
0.908003 0.135943 0.0608072
0.0450446 0.0424353 0.0213474
0.0445106 0.0398413 0.0212253
0.0441596 0.0372931 0.02121
0.0438239 0.0345159 0.0211643
0.0520638 0.031632 0.0209354
0.0863508 0.030396 0.0221256
0.121157 0.0300298 0.0225681
0.16408 0.031754 0.023682
0.221836 0.0441596 0.0240024
0.296025 0.0574197 0.0246586
0.387625 0.0648661 0.0254063
0.463416 0.0741741 0.0287785
0.53254 0.0848707 0.0332952
0.593988 0.092607 0.0381628
0.64947 0.100465 0.0427253
0.703792 0.10692 0.0469673
0.755367 0.112779 0.05066
0.80441 0.119844 0.0542458
0.849393 0.126772 0.0572366
0.890623 0.133211 0.0600748
0.908003 0.135943 0.0608072
0.908003 0.135943 0.0608072
0.908003 0.135943 0.0608072
0.908003 0.135943 0.0608072
0.908003 0.135943 0.0608072
0.908003 0.135943 0.0608072
0.908003 0.135943 0.0608072
0.908003 0.135943 0.0608072
0.908003 0.135943 0.0608072
0.908003 0.135943 0.0608072
0.908003 0.135943 0.0608072
0.908003 0.135943 0.0608072
0.908003 0.135943 0.0608072
0.0485542 0.0652171 0.0218509
0.0479896 0.0615549 0.0217746
0.0473945 0.057969 0.0216526
0.0469978 0.0553902 0.0216373
0.0466468 0.0526894 0.0216526
0.0747539 0.0503853 0.0212558
0.109117 0.0505226 0.0219425
0.147738 0.0518502 0.0218357
0.203998 0.0590677 0.0225071
0.278981 0.0664683 0.022446
0.374807 0.0674144 0.0242618
0.456367 0.0731823 0.0283818
0.527459 0.0840314 0.032929
0.590295 0.092134 0.0378576
0.646662 0.100069 0.0424964
0.701717 0.106813 0.0469368
0.753445 0.112505 0.0504921
0.80293 0.119585 0.0541543
0.848005 0.126574 0.0571145
0.889479 0.133135 0.0600748
0.908003 0.135943 0.0608072
0.908003 0.135943 0.0608072
0.908003 0.135943 0.0608072
0.908003 0.135943 0.0608072
0.908003 0.135943 0.0608072
0.908003 0.135943 0.0608072
0.908003 0.135943 0.0608072
0.908003 0.135943 0.0608072
0.908003 0.135943 0.0608072
0.908003 0.135943 0.0608072
0.908003 0.135943 0.0608072
0.908003 0.135943 0.0608072
0.908003 0.135943 0.0608072
0.0536202 0.0946517 0.0238041
0.0529641 0.0910048 0.0235294
0.052369 0.0874495 0.0233005
0.0517281 0.0837262 0.0230564
0.0511482 0.0801099 0.0228428
0.0659953 0.0760815 0.0217136
0.0984665 0.0743114 0.0215152
0.138613 0.0759442 0.0219577
0.190723 0.0807202 0.0221714
0.26331 0.0870222 0.0221103
0.356344 0.0888685 0.0215305
0.44448 0.0885328 0.0256962
0.520958 0.0854658 0.0320439
0.586725 0.0916304 0.0375677
0.643946 0.0997177 0.0422522
0.69955 0.106538 0.0467536
0.751522 0.11223 0.0503243
0.801373 0.119371 0.054078
0.846601 0.12636 0.0569924
0.888273 0.132952 0.0600137
0.908003 0.135943 0.0608072
0.908003 0.135943 0.0608072
0.908003 0.135943 0.0608072
0.908003 0.135943 0.0608072
0.908003 0.135943 0.0608072
0.908003 0.135943 0.0608072
0.908003 0.135943 0.0608072
0.908003 0.135943 0.0608072
0.908003 0.135943 0.0608072
0.908003 0.135943 0.0608072
0.908003 0.135943 0.0608072
0.908003 0.135943 0.0608072
0.908003 0.135943 0.0608072
0.0593729 0.126528 0.0286564
0.0588235 0.123156 0.0276799
0.0581369 0.119661 0.0265812
0.0574502 0.115908 0.0255894
0.0568856 0.112688 0.0253147
0.0564889 0.109407 0.0250401
0.0882277 0.107042 0.0233158
0.127352 0.107134 0.0232242
0.178119 0.111437 0.0239261
0.252399 0.116838 0.0255589
0.346883 0.118303 0.0211643
0.434607 0.118013 0.0245365
0.508339 0.114641 0.028397
0.577386 0.105028 0.034226
0.640467 0.0992752 0.0419623
0.696696 0.106233 0.0465248
0.749325 0.11191 0.0501106
0.799466 0.119066 0.0539864
0.844999 0.126085 0.0568093
0.886824 0.132692 0.059968
0.908003 0.135943 0.0608072
0.908003 0.135943 0.0608072
0.908003 0.135943 0.0608072
0.908003 0.135943 0.0608072
0.908003 0.135943 0.0608072
0.908003 0.135943 0.0608072
0.908003 0.135943 0.0608072
0.908003 0.135943 0.0608072
0.908003 0.135943 0.0608072
0.908003 0.135943 0.0608072
0.908003 0.135943 0.0608072
0.908003 0.135943 0.0608072
0.908003 0.135943 0.0608072
0.0667582 0.169039 0.0431067
0.0663615 0.165972 0.0420844
0.0657816 0.162539 0.0408331
0.0651255 0.159106 0.0395056
0.0646677 0.155734 0.0383764
0.0639963 0.152209 0.0370184
0.0764782 0.149126 0.0355535
0.114687 0.147341 0.0327916
0.164446 0.147738 0.0305638
0.235691 0.153002 0.0299382
0.334676 0.156146 0.0243534
0.425269 0.157244 0.0242618
0.500893 0.155016 0.0278172
0.571435 0.146395 0.0316625
0.630259 0.130404 0.037232
0.691722 0.109255 0.045243
0.746273 0.111574 0.049897
0.797055 0.118654 0.0538643
0.842725 0.125734 0.0565957
0.884947 0.132372 0.0598459
0.908003 0.135943 0.0608072
0.908003 0.135943 0.0608072
0.908003 0.135943 0.0608072
0.908003 0.135943 0.0608072
0.908003 0.135943 0.0608072
0.908003 0.135943 0.0608072
0.908003 0.135943 0.0608072
0.908003 0.135943 0.0608072
0.908003 0.135943 0.0608072
0.908003 0.135943 0.0608072
0.908003 0.135943 0.0608072
0.908003 0.135943 0.0608072
0.908003 0.135943 0.0608072
0.0738384 0.232792 0.0666819
0.0735027 0.228626 0.0651408
0.0730297 0.224247 0.063386
0.0725567 0.219486 0.0615091
0.0721447 0.214847 0.0597543
0.0717174 0.210468 0.0580453
0.0713817 0.206058 0.0564584
0.0965744 0.202564 0.0540932
0.147005 0.204196 0.0508125
0.212985 0.202441 0.0415045
0.311864 0.20293 0.0317693
0.410681 0.202991 0.025864
0.488731 0.199466 0.0278782
0.563272 0.19411 0.0312047
0.626322 0.183017 0.0357671
0.681331 0.16257 0.0397498
0.737255 0.135439 0.0452125
0.79379 0.118151 0.0536965
0.839841 0.125261 0.0563058
0.882338 0.13193 0.0597238
0.908003 0.135943 0.0608072
0.908003 0.135943 0.0608072
0.908003 0.135943 0.0608072
0.908003 0.135943 0.0608072
0.908003 0.135943 0.0608072
0.908003 0.135943 0.0608072
0.908003 0.135943 0.0608072
0.908003 0.135943 0.0608072
0.908003 0.135943 0.0608072
0.908003 0.135943 0.0608072
0.908003 0.135943 0.0608072
0.908003 0.135943 0.0608072
0.908003 0.135943 0.0608072
0.0861982 0.303136 0.0952316
0.0855268 0.300374 0.0940719
0.0848249 0.297627 0.0928817
0.0841993 0.29482 0.0917525
0.0836194 0.291981 0.0906386
0.0828717 0.28893 0.0892653
0.0821393 0.285786 0.0879072
0.081239 0.281865 0.086244
0.121263 0.27628 0.0808118
0.184771 0.277699 0.0757
0.277378 0.270542 0.0555428
0.386587 0.263951 0.0337987
0.47454 0.255131 0.0307774
0.551247 0.245319 0.0325628
0.619257 0.236164 0.0353552
0.67805 0.220951 0.0394141
0.729793 0.201144 0.0422065
0.781994 0.173831 0.0466621
0.831479 0.142214 0.0522469
0.878981 0.131334 0.0595407
0.908003 0.135943 0.0608072
0.908003 0.135943 0.0608072
0.908003 0.135943 0.0608072
0.908003 0.135943 0.0608072
0.908003 0.135943 0.0608072
0.908003 0.135943 0.0608072
0.908003 0.135943 0.0608072
0.908003 0.135943 0.0608072
0.908003 0.135943 0.0608072
0.908003 0.135943 0.0608072
0.908003 0.135943 0.0608072
0.908003 0.135943 0.0608072
0.908003 0.135943 0.0608072
0.100649 0.3682 0.121096
0.100252 0.366262 0.120363
0.100023 0.364569 0.119829
0.0995499 0.362371 0.118959
0.0990311 0.360281 0.118059
0.0985885 0.358129 0.117235
0.0981155 0.355901 0.116381
0.0975509 0.353246 0.115343
0.0968948 0.350027 0.114137
0.15256 0.341878 0.105837
0.225956 0.34342 0.0958267
0.345724 0.33579 0.0647746
0.448585 0.322347 0.0390021
0.535225 0.312901 0.0382391
0.613443 0.301076 0.0404364
0.672068 0.283818 0.0412146
0.727794 0.26215 0.04271
0.778607 0.244144 0.0449836
0.82388 0.221027 0.0476539
0.866453 0.196857 0.0516518
0.902525 0.161257 0.0560159
0.908003 0.135943 0.0608072
0.908003 0.135943 0.0608072
0.908003 0.135943 0.0608072
0.908003 0.135943 0.0608072
0.908003 0.135943 0.0608072
0.908003 0.135943 0.0608072
0.908003 0.135943 0.0608072
0.908003 0.135943 0.0608072
0.908003 0.135943 0.0608072
0.908003 0.135943 0.0608072
0.908003 0.135943 0.0608072
0.908003 0.135943 0.0608072
0.111543 0.426337 0.141894
0.111269 0.424872 0.14139
0.110994 0.423407 0.140887
0.11078 0.422049 0.140459
0.110491 0.420584 0.139925
0.110216 0.419013 0.139391
0.109911 0.417411 0.138842
0.109575 0.415534 0.138186
0.10901 0.412985 0.137194
0.118029 0.40856 0.134829
0.186038 0.40589 0.127443
0.274128 0.407752 0.110094
0.41326 0.398993 0.0706798
0.511116 0.385916 0.0519265
0.592218 0.373159 0.049073
0.660929 0.356374 0.0473335
0.723278 0.337179 0.0481117
0.776135 0.314015 0.0482032
0.823819 0.293034 0.0486
0.863615 0.271427 0.0497292
0.899535 0.253941 0.0516213
0.900084 0.229587 0.0524147
0.90013 0.201312 0.0536507
0.901534 0.170001 0.0551003
0.905745 0.143511 0.0588388
0.908003 0.135943 0.0608072
0.908003 0.135943 0.0608072
0.908003 0.135943 0.0608072
0.908003 0.135943 0.0608072
0.908003 0.135943 0.0608072
0.908003 0.135943 0.0608072
0.908003 0.135943 0.0608072
0.908003 0.135943 0.0608072
0.120684 0.479408 0.158358
0.120516 0.47837 0.158038
0.120333 0.477287 0.157733
0.12015 0.476173 0.157382
0.119982 0.475105 0.157061
0.119768 0.474006 0.156741
0.119539 0.472969 0.156344
0.119387 0.471733 0.156054
0.119173 0.470039 0.155612
0.118791 0.467674 0.154925
0.143801 0.464012 0.151568
0.220584 0.463813 0.142763
0.329107 0.464683 0.118242
0.469841 0.454032 0.0758068
0.563317 0.441413 0.0634623
0.642191 0.430716 0.0605631
0.713054 0.41886 0.0588998
0.768872 0.396536 0.0567483
0.819455 0.372244 0.0545052
0.863203 0.349981 0.0539406
0.899184 0.329259 0.053315
0.904616 0.310628 0.0523995
0.902724 0.291386 0.0513924
0.901213 0.274586 0.0511025
0.900923 0.260777 0.0514229
0.900664 0.248203 0.0518502
0.900191 0.237171 0.0520943
0.900069 0.227665 0.0525216
0.900023 0.219532 0.0529335
0.899931 0.21294 0.053193
0.89984 0.207446 0.0533608
0.900053 0.203204 0.0535897
0.900191 0.199725 0.0536965
0.128817 0.530282 0.171344
0.12871 0.529503 0.171176
0.128573 0.528649 0.170977
0.128435 0.527779 0.170764
0.128237 0.526955 0.170489
0.128222 0.526223 0.170413
0.128099 0.525353 0.17023
0.127932 0.524269 0.169986
0.127703 0.522835 0.169635
0.127352 0.520989 0.169146
0.12694 0.518441 0.168475
0.174868 0.515816 0.163699
0.259098 0.515938 0.149264
0.396323 0.517037 0.114229
0.525612 0.505745 0.0833753
0.612604 0.494972 0.0769665
0.688594 0.486351 0.0752117
0.75642 0.475608 0.0729686
0.811734 0.456489 0.0683604
0.858732 0.435416 0.0641184
0.897383 0.415503 0.0614176
0.910277 0.396506 0.0591135
0.909331 0.380529 0.0576944
0.90866 0.366079 0.0565499
0.907927 0.352834 0.0553597
0.907347 0.341726 0.0544747
0.906828 0.332708 0.0537881
0.906081 0.325856 0.0532082
0.905638 0.320546 0.0529946
0.905257 0.316411 0.0527657
0.904891 0.313191 0.0525368
0.904616 0.310597 0.0523995
0.904433 0.308629 0.0522927
0.134936 0.577386 0.181231
0.134844 0.576715 0.181094
0.134768 0.576059 0.180972
0.134661 0.575372 0.180804
0.134554 0.574746 0.180621
0.134554 0.574197 0.180606
0.134493 0.573541 0.180484
0.134386 0.572702 0.180301
0.134249 0.571572 0.180072
0.134066 0.570092 0.179767
0.133761 0.5682 0.179278
0.133562 0.56582 0.178912
0.208133 0.562142 0.171145
0.30576 0.566934 0.150103
0.468452 0.569451 0.106676
0.580835 0.557534 0.0945754
0.65977 0.549249 0.0932784
0.733562 0.542351 0.0928969
0.796185 0.530861 0.0898909
0.847852 0.51606 0.0859693
0.890654 0.500359 0.082887
0.914702 0.484733 0.0788281
0.914397 0.471489 0.0750439
0.914015 0.459312 0.0713817
0.913771 0.448661 0.0683146
0.913298 0.43975 0.0663005
0.912917 0.432486 0.0648051
0.912474 0.426474 0.0634928
0.912261 0.422019 0.0626993
0.912032 0.418235 0.0619974
0.911803 0.415366 0.0616007
0.911528 0.413138 0.0612345
0.911376 0.411368 0.0609903
0.140063 0.62295 0.19028
0.140002 0.622431 0.190173
0.13994 0.621897 0.190082
0.139895 0.621363 0.189975
0.139849 0.620935 0.189914
0.139818 0.620447 0.189837
0.139757 0.619898 0.189715
0.139681 0.619211 0.189578
0.139605 0.618326 0.189425
0.139467 0.617121 0.189166
0.139254 0.61561 0.188815
0.139025 0.613626 0.188418
0.138872 0.61117 0.188083
0.244999 0.610361 0.178668
0.364446 0.615915 0.149508
0.526772 0.615534 0.111696
0.627955 0.607416 0.105882
0.705608 0.600519 0.107393
0.776379 0.59585 0.111284
0.834333 0.58526 0.108782
0.881025 0.574731 0.10631
0.915694 0.563806 0.102953
0.917037 0.553841 0.099733
0.916701 0.544732 0.0970016
0.916197 0.536507 0.0944076
0.915999 0.529854 0.0924239
0.915908 0.524468 0.090837
0.91577 0.519875 0.0894331
0.915572 0.516289 0.0882429
0.915618 0.513649 0.0875868
0.915557 0.511452 0.0869001
0.915419 0.509865 0.0863203
0.915373 0.508568 0.0859083
0.144457 0.6654 0.197757
0.144396 0.664927 0.197696
0.144335 0.664439 0.197604
0.144289 0.663966 0.197543
0.144244 0.6636 0.197498
0.144213 0.663188 0.197452
0.144167 0.662684 0.19736
0.144076 0.662074 0.197269
0.143999 0.66128 0.197131
0.143862 0.660227 0.196979
0.143709 0.658869 0.196765
0.143435 0.65713 0.196353
0.143313 0.655009 0.196124
0.161334 0.650828 0.193561
0.290074 0.65832 0.179126
0.445838 0.661204 0.135973
0.585489 0.66627 0.120928
0.675029 0.658076 0.118166
0.748501 0.650645 0.120882
0.811124 0.643946 0.124102
0.866194 0.639124 0.126452
0.906432 0.631418 0.125887
0.91989 0.622736 0.123766
0.9196 0.615976 0.121431
0.919158 0.609934 0.119234
0.918944 0.605081 0.117617
0.918715 0.6009 0.116136
0.918593 0.597848 0.11516
0.918456 0.595239 0.114229
0.918364 0.593118 0.113436
0.918196 0.591531 0.112734
0.918151 0.590295 0.112291
0.91812 0.589349 0.11191
0.149325 0.707576 0.204761
0.149264 0.707164 0.204639
0.149218 0.706737 0.204532
0.149172 0.706294 0.204456
0.149142 0.705837 0.204349
0.149081 0.705394 0.204242
0.14905 0.704967 0.204166
0.149004 0.704402 0.204044
0.148928 0.703685 0.203891
0.148836 0.702739 0.203693
0.148623 0.701534 0.203387
0.148562 0.700069 0.203265
0.148348 0.698039 0.202945
0.147982 0.695476 0.202441
0.222553 0.692744 0.198077
0.347662 0.703731 0.173266
0.521294 0.70663 0.12781
0.634531 0.710292 0.130846
0.7205 0.703914 0.129198
0.790768 0.700496 0.13402
0.847532 0.697078 0.139422
0.893523 0.6916 0.143496
0.92398 0.686702 0.144656
0.923812 0.680964 0.143023
0.923537 0.675868 0.141512
0.923186 0.671305 0.140124
0.922805 0.667643 0.138796
0.922713 0.664851 0.138018
0.922454 0.662394 0.137163
0.922133 0.660548 0.13637
0.921981 0.659083 0.135866
0.921859 0.657984 0.135485
0.921782 0.657145 0.13518
0.153033 0.74757 0.212802
0.153002 0.747189 0.212757
0.152941 0.746838 0.212665
0.152865 0.746471 0.212558
0.15285 0.74612 0.212528
0.15288 0.7458 0.212558
0.152895 0.745495 0.212558
0.152865 0.745007 0.212497
0.152804 0.744381 0.21239
0.152728 0.743526 0.212238
0.152636 0.742458 0.21207
0.152499 0.741054 0.211826
0.152285 0.739269 0.21146
0.152224 0.737163 0.211276
0.151888 0.734279 0.210651
0.281559 0.736843 0.200214
0.434028 0.745937 0.162249
0.583673 0.750164 0.134401
0.686702 0.751858 0.140856
0.764569 0.747295 0.140002
0.828031 0.744991 0.146334
0.877272 0.742412 0.151339
0.914977 0.738933 0.155688
0.92575 0.734615 0.156435
0.925628 0.73051 0.155642
0.925368 0.726909 0.15465
0.925261 0.723964 0.153979
0.925246 0.721874 0.153582
0.925155 0.720043 0.153124
0.925093 0.718608 0.152758
0.925032 0.717525 0.152529
0.925002 0.716701 0.152346
0.924987 0.716075 0.152163
0.156161 0.782361 0.216693
0.156115 0.782025 0.216663
0.1561 0.781674 0.216648
0.156115 0.781415 0.216693
0.15613 0.781109 0.216709
0.156085 0.780743 0.216678
0.156054 0.780362 0.216648
0.156008 0.779934 0.216617
0.155932 0.779355 0.216571
0.15584 0.778592 0.216495
0.155673 0.777615 0.216327
0.15552 0.776303 0.216205
0.155383 0.77467 0.216022
0.15523 0.772732 0.215808
0.155001 0.770123 0.215503
0.205646 0.765835 0.211917
0.355657 0.77818 0.18616
0.527504 0.781674 0.145846
0.647318 0.790082 0.1449
0.736461 0.791577 0.150423
0.806577 0.788098 0.152743
0.8589 0.786572 0.159258
0.900832 0.78436 0.1635
0.927459 0.781186 0.166186
0.927291 0.777417 0.165316
0.927337 0.774426 0.164828
0.92723 0.771984 0.164279
0.927184 0.769924 0.163821
0.927169 0.768353 0.163531
0.927123 0.767102 0.163241
0.927169 0.766247 0.16318
0.927123 0.765621 0.163012
0.927047 0.765072 0.162875
0.161975 0.814389 0.216541
0.161898 0.814038 0.216556
0.161852 0.813733 0.216571
0.161791 0.813413 0.216556
0.16173 0.813062 0.216556
0.161669 0.812726 0.216587
0.161608 0.81239 0.216571
0.161501 0.811994 0.216556
0.161395 0.811551 0.216526
0.161379 0.810971 0.216648
0.161196 0.81001 0.216648
0.160983 0.808804 0.216648
0.160632 0.807095 0.216709
0.160067 0.804944 0.216693
0.159625 0.802411 0.216953
0.158831 0.799161 0.216983
0.298589 0.802594 0.207507
0.454139 0.813382 0.173541
0.606897 0.81883 0.145296
0.704479 0.825315 0.155184
0.781842 0.826185 0.15996
0.840146 0.823743 0.163348
0.885451 0.82237 0.169116
0.918471 0.820233 0.173236
0.928603 0.817197 0.173938
0.928374 0.814359 0.173251
0.928298 0.812024 0.172778
0.928252 0.810193 0.172396
0.928237 0.808835 0.172198
0.928237 0.807889 0.172015
0.928206 0.807034 0.171832
0.928206 0.806409 0.17174
0.928176 0.805905 0.171664
0.170214 0.839429 0.215137
0.170123 0.839139 0.215152
0.170077 0.838911 0.215213
0.170016 0.838666 0.21529
0.16997 0.838422 0.21532
0.169848 0.838117 0.215366
0.169741 0.837827 0.215381
0.169589 0.837476 0.215366
0.169375 0.837034 0.215335
0.169146 0.836393 0.215381
0.168856 0.835584 0.215457
0.168475 0.834501 0.215534
0.167956 0.833097 0.215595
0.167437 0.831556 0.215747
0.166659 0.829389 0.215885
0.165667 0.82678 0.215946
0.238956 0.823713 0.212467
0.401312 0.83856 0.18793
0.566415 0.842893 0.155276
0.676417 0.851896 0.156603
0.759106 0.855665 0.164843
0.822614 0.854322 0.169512
0.869673 0.85301 0.172976
0.906661 0.85214 0.177813
0.930129 0.85008 0.180697
0.929915 0.847395 0.180087
0.929808 0.845289 0.179629
0.929656 0.843671 0.179232
0.929641 0.84242 0.178988
0.929732 0.841581 0.179019
0.929702 0.840803 0.178866
0.929686 0.840238 0.178744
0.929641 0.839765 0.178622
0.174304 0.850645 0.214084
0.174304 0.850645 0.214084
0.174304 0.850645 0.214084
0.174304 0.850645 0.214084
0.174304 0.850645 0.214084
0.174304 0.850645 0.214084
0.174304 0.850645 0.214084
0.174304 0.850645 0.214084
0.174304 0.850645 0.214084
0.174304 0.850645 0.214084
0.174304 0.850645 0.214084
0.174304 0.850645 0.214084
0.174304 0.850645 0.214084
0.174304 0.850645 0.214084
0.174304 0.850629 0.214084
0.173465 0.848066 0.214466
0.172412 0.845304 0.214694
0.358785 0.853223 0.197345
0.532937 0.861204 0.167681
0.651484 0.870329 0.156054
0.737591 0.877348 0.167666
0.805615 0.877317 0.172793
0.85539 0.875822 0.176669
0.894194 0.876158 0.180835
0.921828 0.875532 0.184451
0.931289 0.873854 0.185397
0.931197 0.872068 0.185
0.931167 0.870665 0.184802
0.931136 0.86952 0.184573
0.93106 0.86862 0.184375
0.930968 0.867933 0.184146
0.930953 0.867399 0.184039
0.931029 0.867094 0.184115
0.174304 0.850645 0.214084
0.174304 0.850645 0.214084
0.174304 0.850645 0.214084
0.174304 0.850645 0.214084
0.174304 0.850645 0.214084
0.174304 0.850645 0.214084
0.174304 0.850645 0.214084
0.174304 0.850645 0.214084
0.174304 0.850645 0.214084
0.174304 0.850645 0.214084
0.174304 0.850645 0.214084
0.174304 0.850645 0.214084
0.174304 0.850645 0.214084
0.174304 0.850645 0.214084
0.174304 0.850645 0.214084
0.174304 0.850645 0.214084
0.174304 0.850645 0.214084
0.317861 0.856443 0.204517
0.496193 0.871839 0.176684
0.629984 0.882734 0.156542
0.72076 0.893019 0.16849
0.790875 0.89485 0.174807
0.843748 0.892668 0.177829
0.883391 0.892958 0.182712
0.913039 0.893263 0.186633
0.931762 0.892195 0.188602
0.931701 0.890623 0.188312
0.93164 0.889372 0.188098
0.931609 0.888548 0.18793
0.931655 0.887846 0.187839
0.931624 0.887282 0.187762
0.931609 0.886854 0.187655
0.931594 0.886519 0.187625
0.174304 0.850645 0.214084
0.174304 0.850645 0.214084
0.174304 0.850645 0.214084
0.174304 0.850645 0.214084
0.174304 0.850645 0.214084
0.174304 0.850645 0.214084
0.174304 0.850645 0.214084
0.174304 0.850645 0.214084
0.174304 0.850645 0.214084
0.174304 0.850645 0.214084
0.174304 0.850645 0.214084
0.174304 0.850645 0.214084
0.174304 0.850645 0.214084
0.174304 0.850645 0.214084
0.174304 0.850645 0.214084
0.174304 0.850645 0.214084
0.174304 0.850645 0.214084
0.279759 0.853544 0.208331
0.453117 0.870863 0.184405
0.60798 0.88011 0.156313
0.703365 0.89218 0.165743
0.777417 0.899016 0.174578
0.832319 0.900191 0.17821
0.874128 0.901762 0.182071
0.905272 0.905303 0.187839
0.926085 0.906172 0.190387
0.932509 0.904845 0.191043
0.932403 0.903639 0.190845
0.932265 0.902739 0.19057
0.932189 0.902022 0.190402
0.932235 0.901549 0.190402
0.93228 0.901228 0.190417
0.932265 0.900908 0.190372
0.174304 0.850645 0.214084
0.174304 0.850645 0.214084
0.174304 0.850645 0.214084
0.174304 0.850645 0.214084
0.174304 0.850645 0.214084
0.174304 0.850645 0.214084
0.174304 0.850645 0.214084
0.174304 0.850645 0.214084
0.174304 0.850645 0.214084
0.174304 0.850645 0.214084
0.174304 0.850645 0.214084
0.174304 0.850645 0.214084
0.174304 0.850645 0.214084
