Camera18_LUT_V0/luts/panasonic-aesthetic-portrait.cube
TITLE "Generated by Resolve"
LUT_3D_SIZE 9
0.0167239 0.0369726 0.0116121
0.0380407 0.0374609 0.0102998
0.129732 0.035172 0.00727855
0.426444 0.0544747 3.0518e-05
0.70219 0.0765545 0
0.858915 0.0858167 0
0.858915 0.0858167 0
0.858915 0.0858167 0
0.858915 0.0858167 0
0.0153201 0.0419928 0.0112764
0.0181888 0.0388952 0.0115816
0.0976883 0.0359503 0.00805676
0.398795 0.0525978 0.000488289
0.693782 0.0768444 0
0.858915 0.0858167 0
0.858915 0.0858167 0
0.858915 0.0858167 0
0.858915 0.0858167 0
0.0164187 0.0875105 0.0138857
0.0158236 0.0826886 0.0132753
0.0662547 0.0806592 0.0125734
0.378149 0.084184 0.00993362
0.683894 0.0772106 0
0.858915 0.0858167 0
0.858915 0.0858167 0
0.858915 0.0858167 0
0.858915 0.0858167 0
0.0110323 0.258259 0.0537118
0.0111238 0.251713 0.0519875
0.0112612 0.243687 0.049897
0.250599 0.229938 0.0205997
0.682078 0.202121 0.0074464
0.868315 0.146166 0
0.860594 0.0887465 0
0.858915 0.0858167 0
0.858915 0.0858167 0
0.0158389 0.552804 0.109392
0.01561 0.549722 0.108873
0.0153506 0.546044 0.108263
0.0146181 0.535882 0.106554
0.578592 0.53164 0.0225986
0.875196 0.470039 0.00708019
0.907332 0.413687 0.00581369
0.904921 0.387991 0.00561532
0.90341 0.378973 0.00553903
0.080705 0.744167 0.102373
0.0797131 0.74258 0.102632
0.0784314 0.740597 0.102968
0.0751354 0.735302 0.103822
0.310201 0.744686 0.0758679
0.816281 0.753872 0.0123751
0.947402 0.734829 0.00927749
0.944976 0.723217 0.00929274
0.944411 0.718944 0.00929274
0.168124 0.819409 0.0742504
0.168124 0.819409 0.0742504
0.168124 0.819409 0.0742504
0.168124 0.819409 0.0742504
0.168124 0.819409 0.0742504
0.723461 0.864103 0.0209812
0.938888 0.867826 0.0240024
0.959487 0.862928 0.026276
0.959503 0.860883 0.0259251
0.168124 0.819409 0.0742504
0.168124 0.819409 0.0742504
0.168124 0.819409 0.0742504
0.168124 0.819409 0.0742504
0.168124 0.819409 0.0742504
0.667796 0.860334 0.0251011
0.907179 0.875669 0.0198215
0.959319 0.878126 0.0264134
0.959319 0.878126 0.0264134
0.168124 0.819409 0.0742504
0.168124 0.819409 0.0742504
0.168124 0.819409 0.0742504
0.168124 0.819409 0.0742504
0.168124 0.819409 0.0742504
0.644343 0.858015 0.0271305
0.894881 0.875151 0.0188449
0.959319 0.878126 0.0264134
0.959319 0.878126 0.0264134
0.0171511 0.0370031 0.0151827
0.0344549 0.0370031 0.0128328
0.125078 0.0353857 0.00923171
0.42266 0.0538949 0.000793469
0.700832 0.0766003 0
0.858915 0.0858167 0
0.858915 0.0858167 0
0.858915 0.0858167 0
0.858915 0.0858167 0
0.0162203 0.0393988 0.0119173
0.0167239 0.0369726 0.0116121
0.0924849 0.0360723 0.00819409
0.394186 0.05243 0.000549325
0.69247 0.0768902 0
0.858915 0.0858167 0
0.858915 0.0858167 0
0.858915 0.0858167 0
0.858915 0.0858167 0
0.0159457 0.0836652 0.0133974
0.0153506 0.078706 0.0127718
0.0620432 0.0765545 0.0132448
0.37174 0.0788281 0.0091249
0.682673 0.0772564 0
0.858915 0.0858167 0
0.858915 0.0858167 0
0.858915 0.0858167 0
0.858915 0.0858167 0
0.0111086 0.253101 0.052369
0.0112154 0.246433 0.0505989
0.0113375 0.238071 0.0484779
0.244236 0.224262 0.0198062
0.680461 0.197253 0.00740063
0.867445 0.143099 0
0.858915 0.0858167 0
0.858915 0.0858167 0
0.858915 0.0858167 0
0.0156558 0.550347 0.10898
0.0154421 0.547311 0.108476
0.0151675 0.543572 0.107851
0.014435 0.533394 0.106142
0.575799 0.529 0.0225834
0.873625 0.466285 0.00680552
0.907012 0.409644 0.00578317
0.90425 0.384039 0.0055848
0.902739 0.375006 0.00550851
0.0798962 0.742885 0.102586
0.0789044 0.741299 0.102846
0.0776226 0.739315 0.103166
0.0742809 0.733989 0.104036
0.305028 0.743252 0.0770123
0.814649 0.752117 0.0123751
0.947021 0.733013 0.00927749
0.944656 0.721325 0.00929274
0.944213 0.717052 0.00929274
0.168124 0.819409 0.0742504
0.168124 0.819409 0.0742504
0.168124 0.819409 0.0742504
0.168124 0.819409 0.0742504
0.168124 0.819409 0.0742504
0.721981 0.863386 0.0209812
0.937926 0.866972 0.0238804
0.959487 0.862013 0.0261234
0.959503 0.859983 0.0257725
0.168124 0.819409 0.0742504
0.168124 0.819409 0.0742504
0.168124 0.819409 0.0742504
0.168124 0.819409 0.0742504
0.168124 0.819409 0.0742504
0.665782 0.860136 0.0252689
0.906157 0.875669 0.0196994
0.959319 0.878126 0.0264134
0.959319 0.878126 0.0264134
0.168124 0.819409 0.0742504
0.168124 0.819409 0.0742504
0.168124 0.819409 0.0742504
0.168124 0.819409 0.0742504
0.168124 0.819409 0.0742504
0.642283 0.857801 0.0272984
0.893721 0.875013 0.0188449
0.959319 0.878126 0.0264134
0.959319 0.878126 0.0264134
0.0319982 0.0388952 0.0686656
0.0371405 0.0357977 0.066743
0.118029 0.0364233 0.0570382
0.416831 0.061326 0.038941
0.701045 0.080293 0.025391
0.860304 0.0867475 0.00965896
0.859709 0.0866102 0.00250248
0.859632 0.0865339 0
0.859602 0.0864881 0
0.0305791 0.0383917 0.0625315
0.0302281 0.0383612 0.0616159
0.0862593 0.0361181 0.0529183
0.390692 0.0586557 0.0353857
0.692531 0.0787823 0.0211795
0.859892 0.0866712 0.00550851
0.859602 0.0865034 0
0.859495 0.0863966 0
0.859464 0.0863661 0
0.0255894 0.0835584 0.0523842
0.0245518 0.0781872 0.0515908
0.0567483 0.0747845 0.0535592
0.371145 0.0753185 0.0354772
0.682155 0.0779126 0.0160525
0.859663 0.0865492 0.00015259
0.859434 0.0863355 0
0.859312 0.0861982 0
0.859251 0.0861524 0
0.0155795 0.245975 0.067277
0.0153506 0.239322 0.064271
0.0151064 0.230121 0.0611734
0.236881 0.222293 0.0343786
0.679545 0.193637 0.0161746
0.867033 0.139879 0.00196841
0.858915 0.0858167 0
0.858915 0.0858167 0
0.858915 0.0858167 0
0.0154574 0.547402 0.108492
0.0152285 0.54432 0.107973
0.0149538 0.540566 0.107347
0.0142061 0.530297 0.105623
0.572381 0.525673 0.0224918
0.871717 0.461631 0.00679026
0.9066 0.404578 0.00575265
0.903441 0.379202 0.00553903
0.9019 0.370062 0.00546273
0.0789044 0.741329 0.102846
0.0779126 0.739727 0.103105
0.0766308 0.737743 0.103426
0.0732891 0.732418 0.104295
0.29865 0.741512 0.0783398
0.812726 0.74995 0.0123903
0.946548 0.730739 0.00927749
0.944427 0.719036 0.00929274
0.943984 0.714748 0.00929274
0.168124 0.819409 0.0742504
0.168124 0.819409 0.0742504
0.168124 0.819409 0.0742504
0.168124 0.819409 0.0742504
0.168124 0.819409 0.0742504
0.720211 0.862501 0.0209964
0.936751 0.865934 0.023743
0.959503 0.860929 0.0259403
0.959518 0.858885 0.0255894
0.168124 0.819409 0.0742504
0.168124 0.819409 0.0742504
0.168124 0.819409 0.0742504
0.168124 0.819409 0.0742504
0.168124 0.819409 0.0742504
0.663249 0.859892 0.0254978
0.904906 0.875669 0.0195315
0.959319 0.878126 0.0264134
0.959319 0.878126 0.0264134
0.168124 0.819409 0.0742504
0.168124 0.819409 0.0742504
0.168124 0.819409 0.0742504
0.168124 0.819409 0.0742504
0.168124 0.819409 0.0742504
0.639658 0.857542 0.0275273
0.892302 0.874846 0.0188449
0.959319 0.878126 0.0264134
0.959319 0.878126 0.0264134
0.037644 0.0470893 0.248005
0.0409857 0.0472267 0.247333
0.103487 0.0504463 0.246021
0.353262 0.0576944 0.199344
0.67924 0.0806592 0.151049
0.856458 0.0913252 0.123384
0.857298 0.0916304 0.112612
0.857694 0.091783 0.107286
0.857847 0.0918441 0.105303
0.0386206 0.0462501 0.240711
0.0387732 0.046128 0.239567
0.0783703 0.049012 0.241169
0.324712 0.05626 0.198108
0.671168 0.0799878 0.145052
0.856962 0.0915084 0.116991
0.857786 0.0918288 0.106081
0.858198 0.0919814 0.100633
0.858351 0.0920272 0.0986496
0.0424659 0.082887 0.240345
0.0431678 0.0766766 0.241108
0.0595865 0.0716869 0.246403
0.298482 0.0605783 0.204517
0.661036 0.0791333 0.13875
0.857572 0.0917372 0.109026
0.858396 0.0920424 0.0980087
0.858824 0.0920577 0.0945296
0.858976 0.0920577 0.0932631
0.0337224 0.255833 0.215228
0.0336767 0.248005 0.212894
0.0336309 0.2383 0.209964
0.211978 0.234592 0.222995
0.662516 0.190249 0.162264
0.863813 0.128878 0.112154
0.860151 0.0920729 0.0836805
0.860594 0.0920729 0.0800183
0.860746 0.0920729 0.0786755
0.0293584 0.55314 0.192264
0.0289006 0.550027 0.191394
0.0283207 0.546197 0.190356
0.0271458 0.535348 0.187808
0.577478 0.546334 0.125673
0.875059 0.48368 0.107683
0.913436 0.427512 0.0965133
0.909087 0.396643 0.0880293
0.907454 0.38497 0.0848707
0.0935683 0.742443 0.138613
0.0921035 0.740795 0.138308
0.0903182 0.738781 0.137942
0.0856641 0.733028 0.136904
0.287037 0.736904 0.110826
0.807919 0.751675 0.0362249
0.95137 0.729366 0.0264897
0.948333 0.716396 0.0222019
0.947234 0.71165 0.0206912
0.168124 0.819409 0.0742504
0.168124 0.819409 0.0742504
0.168124 0.819409 0.0742504
0.168124 0.819409 0.0742504
0.168124 0.819409 0.0742504
0.715267 0.860121 0.0210269
0.933593 0.862898 0.0231479
0.959518 0.857954 0.0254368
0.959548 0.855894 0.0250858
0.168124 0.819409 0.0742504
0.168124 0.819409 0.0742504
0.168124 0.819409 0.0742504
0.168124 0.819409 0.0742504
0.168124 0.819409 0.0742504
0.656535 0.85922 0.0260777
0.901488 0.875669 0.0191043
0.959319 0.878126 0.0264134
0.959319 0.878126 0.0264134
0.168124 0.819409 0.0742504
0.168124 0.819409 0.0742504
0.168124 0.819409 0.0742504
0.168124 0.819409 0.0742504
0.168124 0.819409 0.0742504
0.632654 0.856931 0.0281224
0.88838 0.874403 0.0188449
0.959319 0.878126 0.0264134
0.959319 0.878126 0.0264134
0.0666667 0.0853285 0.527489
0.0664836 0.0852369 0.527031
0.10338 0.0872206 0.52871
0.303868 0.0860151 0.509163
0.652094 0.0887312 0.467399
0.862303 0.101762 0.447913
0.862333 0.101442 0.441764
0.862333 0.101289 0.438773
0.862348 0.101228 0.437675
0.065568 0.0847944 0.524788
0.0654154 0.0847334 0.524392
0.0827802 0.0858625 0.524834
0.281346 0.0861982 0.509087
0.642649 0.0887465 0.4663
0.862318 0.101564 0.444236
0.862348 0.101259 0.438148
0.862379 0.101045 0.435065
0.862379 0.100969 0.433951
0.0652323 0.0859846 0.522622
0.0640421 0.084062 0.521065
0.063859 0.0839857 0.520562
0.250813 0.0846571 0.509483
0.630732 0.0885634 0.464759
0.862333 0.101335 0.439765
0.862379 0.100938 0.43357
0.862394 0.100694 0.430503
0.862394 0.100618 0.429389
0.0658579 0.241749 0.545785
0.0663005 0.23473 0.543603
0.0667124 0.225849 0.540902
0.1944 0.21149 0.543557
0.611917 0.146822 0.480278
0.850568 0.0989395 0.429648
0.862455 0.0999924 0.421195
0.86247 0.0997482 0.418112
0.86247 0.0996719 0.416999
0.0567483 0.567834 0.536431
0.0561074 0.564523 0.536019
0.055314 0.560449 0.5355
0.0531777 0.549355 0.534401
0.533318 0.538308 0.538064
0.859266 0.466224 0.515236
0.91342 0.403311 0.497688
0.908904 0.370108 0.48777
0.907012 0.357641 0.484001
0.136629 0.767895 0.419013
0.135042 0.766186 0.418753
0.13312 0.764111 0.41854
0.127825 0.75845 0.417319
0.28426 0.759655 0.426062
0.792523 0.764355 0.44004
0.943008 0.73901 0.452827
0.941695 0.727825 0.447898
0.941207 0.72372 0.446006
0.230793 0.851255 0.345937
0.230549 0.851133 0.345144
0.230228 0.85098 0.344106
0.229465 0.850599 0.341543
0.227588 0.849653 0.335256
0.717586 0.878035 0.363531
0.922484 0.875578 0.386908
0.956069 0.87039 0.390234
0.956069 0.868101 0.387686
0.222995 0.847547 0.32163
0.22269 0.847425 0.320882
0.222293 0.847257 0.319921
0.221302 0.84686 0.317433
0.218845 0.845869 0.311376
0.66215 0.882704 0.323232
0.891859 0.894896 0.346197
0.955825 0.897459 0.360433
0.95581 0.897459 0.358709
0.219547 0.846159 0.31313
0.219257 0.846036 0.312383
0.218845 0.845869 0.311406
0.217807 0.845457 0.308827
0.215305 0.84445 0.302663
0.638834 0.880751 0.309163
0.879805 0.893309 0.333211
0.955642 0.897414 0.349248
0.955764 0.897414 0.347402
0.0879072 0.137758 0.7252
0.0877852 0.137606 0.72488
0.0906996 0.13817 0.725261
0.278035 0.134722 0.707744
0.620859 0.125017 0.679606
0.869734 0.134066 0.674815
0.869352 0.132677 0.671427
0.869139 0.131975 0.669749
0.869078 0.131731 0.669169
0.0873121 0.13695 0.72343
0.0871901 0.136797 0.723125
0.0870832 0.136645 0.722774
0.254322 0.13489 0.708583
0.60856 0.124758 0.678187
0.869474 0.133211 0.67277
0.869093 0.131807 0.669383
0.868894 0.131151 0.66775
0.868818 0.130877 0.667124
0.0865644 0.135958 0.721263
0.0864576 0.135805 0.720943
0.0863355 0.135653 0.720607
0.225788 0.134646 0.709819
0.593347 0.124437 0.676509
0.862959 0.131487 0.670405
0.868803 0.1308 0.666911
0.868589 0.130098 0.665232
0.868559 0.1299 0.664683
0.0936751 0.201923 0.718853
0.0935988 0.19678 0.717922
0.0934768 0.190295 0.716762
0.16434 0.186481 0.720485
0.564858 0.13933 0.682826
0.843198 0.125032 0.66247
0.868513 0.128527 0.660655
0.868498 0.127993 0.659144
0.868482 0.127825 0.65861
0.100053 0.547005 0.782269
0.0994583 0.542596 0.781415
0.0987106 0.537118 0.780331
0.0966659 0.522835 0.77705
0.495995 0.498589 0.761852
0.834287 0.418189 0.732754
0.903777 0.348608 0.709194
0.901137 0.316457 0.699367
0.899916 0.303944 0.69604
0.18407 0.78439 0.754849
0.182757 0.782681 0.755016
0.181064 0.78056 0.755199
0.176761 0.774487 0.755535
0.267369 0.769528 0.762554
0.768444 0.748791 0.755993
0.936278 0.721859 0.754192
0.936217 0.709239 0.752697
0.936187 0.704646 0.752148
0.286427 0.88687 0.700633
0.286229 0.886793 0.700236
0.285985 0.886702 0.699733
0.285481 0.885191 0.698558
0.278935 0.876478 0.696727
0.705531 0.887098 0.720195
0.909377 0.878935 0.735073
0.950072 0.872099 0.737148
0.94992 0.869551 0.73695
0.280522 0.884535 0.688212
0.280324 0.884443 0.6878
0.280079 0.884352 0.687297
0.279438 0.884092 0.685939
0.277897 0.883482 0.682704
0.656794 0.907179 0.703166
0.877836 0.911238 0.719661
0.951247 0.911254 0.725353
0.951888 0.910994 0.724743
0.27834 0.883665 0.68365
0.278141 0.883574 0.683238
0.277897 0.883482 0.682719
0.277256 0.883223 0.681361
0.275715 0.882612 0.678111
0.63592 0.906432 0.697856
0.865568 0.910796 0.713863
0.944121 0.910857 0.721126
0.951888 0.910811 0.720546
0.136522 0.230411 0.851804
0.136538 0.230411 0.851667
0.136538 0.230411 0.851514
0.289006 0.214847 0.835554
0.62034 0.207279 0.814389
0.871595 0.21384 0.813138
0.874495 0.211887 0.810758
0.874479 0.211002 0.809644
0.874479 0.210651 0.809216
0.136553 0.230426 0.851011
0.136553 0.230442 0.850874
0.136568 0.230442 0.850721
0.266758 0.217243 0.837186
0.609476 0.20618 0.813077
0.865904 0.212757 0.811276
0.874479 0.210834 0.8094
0.87451 0.209949 0.808286
0.87451 0.209598 0.807858
0.136584 0.230472 0.850019
0.136584 0.230472 0.849897
0.136599 0.230472 0.849729
0.233371 0.218097 0.839445
0.596048 0.205264 0.81149
0.858839 0.211658 0.809033
0.874495 0.209476 0.807706
0.874495 0.208606 0.806592
0.874495 0.208316 0.806195
0.137789 0.259464 0.846891
0.138552 0.25716 0.846662
0.138293 0.252964 0.847517
0.163149 0.23888 0.850385
0.555062 0.201266 0.807202
0.837842 0.206348 0.801419
0.874281 0.205905 0.802991
0.874159 0.20502 0.801709
0.874098 0.20473 0.801266
0.154162 0.545693 0.888548
0.153368 0.54226 0.887755
0.152407 0.537987 0.886748
0.150698 0.524407 0.883955
0.505943 0.507301 0.870222
0.823224 0.434302 0.848829
0.904585 0.365118 0.829816
0.902602 0.334356 0.819928
0.902052 0.326848 0.818784
0.216648 0.772961 0.885801
0.214939 0.770901 0.885634
0.212772 0.768322 0.88542
0.207065 0.761395 0.884871
0.26186 0.753857 0.887678
0.757824 0.734462 0.879591
0.933425 0.711543 0.87512
0.931975 0.699565 0.873808
0.931441 0.695171 0.873365
0.312215 0.891875 0.857557
0.312352 0.89102 0.857359
0.31162 0.889632 0.857282
0.308644 0.885527 0.857221
0.301167 0.875547 0.857176
0.691859 0.877302 0.8692
0.894423 0.863554 0.875334
0.94725 0.855619 0.877104
0.946807 0.852171 0.8766
0.317143 0.896529 0.848951
0.317296 0.896544 0.848692
0.317494 0.89659 0.848356
0.317998 0.896696 0.847486
0.319249 0.896941 0.845304
0.641917 0.909651 0.857908
0.863508 0.911971 0.861814
0.940276 0.90544 0.865782
0.947021 0.903761 0.86537
0.318883 0.896864 0.845945
0.319081 0.89691 0.845655
0.319249 0.896941 0.845319
0.319448 0.896941 0.844434
0.319982 0.896941 0.842252
0.622126 0.909361 0.854261
0.848997 0.911849 0.858549
0.930587 0.911482 0.86215
0.947005 0.911498 0.861784
0.136461 0.23035 0.853666
0.136461 0.23035 0.853666
0.136461 0.23035 0.853666
0.271321 0.216785 0.840116
0.611887 0.208682 0.819379
0.866896 0.220462 0.821576
0.874479 0.220615 0.821881
0.874479 0.220615 0.821881
0.874479 0.220615 0.821881
0.136461 0.23035 0.853666
0.136461 0.23035 0.853666
0.136461 0.23035 0.853666
0.243977 0.217426 0.842695
0.601358 0.208927 0.819623
0.861097 0.220081 0.821088
0.874479 0.220615 0.821881
0.874479 0.220615 0.821881
0.874479 0.220615 0.821881
0.136461 0.23035 0.853666
0.136461 0.23035 0.853666
0.136461 0.23035 0.853666
0.216175 0.22031 0.84622
0.587839 0.208774 0.819928
0.853971 0.219623 0.820493
0.874479 0.220615 0.821881
0.874479 0.220615 0.821881
0.874479 0.220615 0.821881
0.13843 0.246006 0.855619
0.139086 0.242267 0.856291
0.138598 0.236927 0.855802
0.149126 0.230655 0.854536
0.546914 0.207538 0.820768
0.832151 0.218036 0.818708
0.874479 0.220615 0.821881
0.874479 0.220615 0.821881
0.874479 0.220615 0.821881
0.155032 0.532738 0.899641
0.154711 0.528649 0.89897
0.15433 0.523613 0.898146
0.153246 0.509743 0.895872
0.489036 0.490074 0.882948
0.814862 0.411948 0.85977
0.904585 0.344686 0.843702
0.903593 0.326314 0.84271
0.903166 0.320134 0.842283
0.239826 0.767666 0.920058
0.238193 0.765652 0.920089
0.236286 0.763226 0.920134
0.231647 0.756558 0.919539
0.256275 0.74667 0.919524
0.75256 0.728588 0.910033
0.930877 0.706645 0.909331
0.930755 0.694865 0.907835
0.930709 0.691035 0.907286
0.351629 0.891096 0.907744
0.350484 0.889815 0.907835
0.349157 0.888273 0.907942
0.345403 0.884047 0.908248
0.336339 0.873167 0.909636
0.693324 0.873274 0.917174
0.890333 0.859052 0.919295
0.948333 0.85005 0.919921
0.947921 0.846632 0.91928
0.35465 0.899367 0.902815
0.35465 0.899367 0.902693
0.35436 0.899336 0.902464
0.353368 0.899229 0.901823
0.350988 0.899001 0.900282
0.650294 0.912016 0.911986
0.864179 0.908766 0.913893
0.941176 0.904295 0.916976
0.952148 0.902617 0.916732
0.35169 0.899077 0.900725
0.351385 0.899046 0.900542
0.350988 0.899001 0.900298
0.349996 0.898909 0.899641
0.347631 0.89868 0.8981
0.629755 0.911727 0.91017
0.851682 0.913634 0.910887
0.931365 0.914031 0.91545
0.952148 0.914046 0.915206
0.136461 0.23035 0.853666
0.136461 0.23035 0.853666
0.136461 0.23035 0.853666
0.264057 0.217182 0.840833
0.608835 0.208743 0.819455
0.865217 0.220371 0.821439
0.874479 0.220615 0.821881
0.874479 0.220615 0.821881
0.874479 0.220615 0.821881
0.136461 0.23035 0.853666
0.136461 0.23035 0.853666
0.136461 0.23035 0.853666
0.235904 0.217639 0.843488
0.598291 0.208988 0.819699
0.859434 0.219989 0.820951
0.874479 0.220615 0.821881
0.874479 0.220615 0.821881
0.874479 0.220615 0.821881
0.136461 0.23035 0.853666
0.136461 0.23035 0.853666
0.136461 0.23035 0.853666
0.209644 0.221195 0.847105
0.584344 0.208515 0.820005
0.852293 0.219471 0.82034
0.874479 0.220615 0.821881
0.874479 0.220615 0.821881
0.874479 0.220615 0.821881
0.139208 0.240528 0.856397
0.138384 0.235904 0.855589
0.136599 0.230793 0.853803
0.144457 0.231083 0.854398
0.543221 0.207614 0.820844
0.830213 0.217929 0.81857
0.874479 0.220615 0.821881
0.874479 0.220615 0.821881
0.874479 0.220615 0.821881
0.154574 0.526802 0.89868
0.154238 0.522622 0.897978
0.153857 0.517571 0.897169
0.152193 0.503502 0.894286
0.482292 0.483558 0.881895
0.811749 0.402792 0.857557
0.904311 0.339422 0.843427
0.903258 0.321416 0.842374
0.902815 0.315038 0.841932
0.237507 0.764767 0.920119
0.235874 0.762753 0.92015
0.234195 0.760296 0.919905
0.229618 0.753597 0.919249
0.243076 0.742092 0.919509
0.749905 0.725689 0.909636
0.929381 0.703243 0.908919
0.930724 0.691798 0.907393
0.930678 0.687953 0.906844
0.350011 0.88925 0.90811
0.348867 0.887968 0.908339
0.347478 0.886412 0.908614
0.343725 0.88217 0.909361
0.3346 0.870939 0.912123
0.689982 0.870909 0.920653
0.888167 0.856382 0.924178
0.947997 0.847272 0.925155
0.947585 0.843854 0.924743
0.354635 0.899351 0.906981
0.354635 0.899351 0.906981
0.354635 0.899351 0.906981
0.354635 0.899351 0.906981
0.354635 0.899351 0.906981
0.646784 0.911971 0.9196
0.862181 0.907439 0.922698
0.93962 0.902953 0.926726
0.952148 0.901274 0.926726
0.354635 0.899351 0.906981
0.354635 0.899351 0.906981
0.354635 0.899351 0.906981
0.354635 0.899351 0.906981
0.354635 0.899351 0.906981
0.626474 0.91165 0.91928
0.849897 0.913359 0.921462
0.929793 0.914031 0.926711
0.952163 0.914046 0.926726
