Camera18_LUT_V0/luts/panasonic-verdant-scenery.cube
TITLE "Generated by Resolve"
LUT_3D_SIZE 5
0.0420996 0.0225681 0.0209201
0.275029 0.0541695 0.0239719
0.762585 0.113832 0.0513313
0.908003 0.135943 0.0608072
0.908003 0.135943 0.0608072
0.0667582 0.169039 0.0431067
0.164446 0.147738 0.0305638
0.746273 0.111574 0.049897
0.908003 0.135943 0.0608072
0.908003 0.135943 0.0608072
0.140063 0.62295 0.19028
0.139605 0.618326 0.189425
0.627955 0.607416 0.105882
0.916197 0.536507 0.0944076
0.915373 0.508568 0.0859083
0.174304 0.850645 0.214084
0.174304 0.850645 0.214084
0.174304 0.850645 0.214084
0.913039 0.893263 0.186633
0.931594 0.886519 0.187625
0.174304 0.850645 0.214084
0.174304 0.850645 0.214084
0.174304 0.850645 0.214084
0.875425 0.901946 0.182345
0.932418 0.906401 0.191104
0.0489815 0.0289464 0.126772
0.261814 0.0558328 0.148394
0.770825 0.114961 0.145052
0.917144 0.132998 0.114
0.916411 0.132479 0.0996262
0.0680705 0.150835 0.127398
0.141421 0.12723 0.120684
0.752819 0.110552 0.119295
0.913451 0.133471 0.0881666
0.910643 0.134463 0.0761883
0.139712 0.619303 0.189624
0.139101 0.61442 0.188571
0.624323 0.602258 0.104707
0.915999 0.529564 0.0923018
0.91519 0.500832 0.0836347
0.174304 0.850645 0.214084
0.174304 0.850645 0.214084
0.174304 0.850645 0.214084
0.911131 0.891295 0.185962
0.931533 0.884474 0.187213
0.174304 0.850645 0.214084
0.174304 0.850645 0.214084
0.174304 0.850645 0.214084
0.87332 0.901671 0.181933
0.932418 0.906401 0.191104
0.0818647 0.158984 0.568902
0.176654 0.16173 0.576852
0.744945 0.155062 0.602228
0.913344 0.165011 0.587442
0.913359 0.164004 0.584146
0.0823682 0.162402 0.56257
0.082887 0.156451 0.562448
0.728054 0.152941 0.596979
0.913375 0.163027 0.580621
0.913375 0.162173 0.57731
0.169039 0.618173 0.608698
0.168292 0.613046 0.607919
0.607706 0.617899 0.624994
0.919005 0.511742 0.560464
0.919676 0.47982 0.552697
0.190738 0.852445 0.516655
0.190723 0.852369 0.515145
0.190845 0.852003 0.507774
0.905623 0.90457 0.511406
0.933883 0.897383 0.50811
0.189136 0.850446 0.488914
0.188876 0.850324 0.487404
0.187655 0.849607 0.479774
0.86717 0.924315 0.470298
0.935286 0.927459 0.474617
0.14667 0.297307 0.826261
0.146654 0.297307 0.826017
0.72047 0.284627 0.855497
0.918822 0.298466 0.861524
0.918853 0.298466 0.860838
0.146609 0.297261 0.824842
0.146609 0.297261 0.824598
0.702617 0.285466 0.853712
0.918868 0.298482 0.860121
0.918868 0.298482 0.859373
0.200305 0.617105 0.842924
0.198932 0.611429 0.841978
0.56286 0.611246 0.875837
0.922072 0.51928 0.859464
0.920058 0.491096 0.855085
0.266972 0.878752 0.854383
0.265782 0.87631 0.853788
0.259846 0.864088 0.85069
0.895537 0.917494 0.910399
0.942031 0.909087 0.908919
0.267536 0.882475 0.848264
0.267506 0.882445 0.847974
0.267277 0.882246 0.84622
0.86186 0.960479 0.906691
0.943771 0.963912 0.907347
0.1467 0.297337 0.827985
0.1467 0.297337 0.827985
0.712077 0.285298 0.858457
0.918853 0.298512 0.867018
0.918853 0.298512 0.867018
0.1467 0.297337 0.827985
0.1467 0.297337 0.827985
0.692897 0.285344 0.857908
0.918853 0.298512 0.867018
0.918853 0.298512 0.867018
0.196811 0.602457 0.851392
0.195377 0.596597 0.850645
0.543008 0.592721 0.88484
0.920562 0.498024 0.871214
0.919127 0.469017 0.868894
0.27451 0.874708 0.881163
0.273594 0.87248 0.881025
0.268864 0.860792 0.880247
0.889525 0.912322 0.941955
0.941085 0.903319 0.941176
0.278889 0.884764 0.882002
0.278889 0.884764 0.882002
0.278889 0.884764 0.882002
0.857847 0.961501 0.945724
0.944427 0.965133 0.948104
