Camera18_LUT_V0/luts/panasonic-aesthetic-portrait.cube
TITLE "Generated by Resolve"
LUT_3D_SIZE 33
0.0167239 0.0369726 0.0116121
0.0167239 0.0369726 0.0116121
0.0167239 0.0369726 0.0116121
0.0241703 0.0367132 0.0113527
0.0380407 0.0374609 0.0102998
0.0555123 0.0373693 0.00947585
0.0717479 0.0366979 0.00881971
0.0958114 0.035996 0.00810254
0.129732 0.035172 0.00727855
0.188968 0.0371405 0.00633249
0.257404 0.0435798 0.00523384
0.339712 0.0502785 0.00144961
0.426444 0.0544747 3.0518e-05
0.510063 0.0657816 0.000961318
0.583505 0.0717479 0
0.645167 0.0761883 0
0.70219 0.0765545 0
0.754116 0.0803693 0
0.801358 0.0826581 0
0.846204 0.0843214 0
0.858915 0.0858167 0
0.858915 0.0858167 0
0.858915 0.0858167 0
0.858915 0.0858167 0
0.858915 0.0858167 0
0.858915 0.0858167 0
0.858915 0.0858167 0
0.858915 0.0858167 0
0.858915 0.0858167 0
0.858915 0.0858167 0
0.858915 0.0858167 0
0.858915 0.0858167 0
0.858915 0.0858167 0
0.0167239 0.0369726 0.0116121
0.0167239 0.0369726 0.0116121
0.0167239 0.0369726 0.0116121
0.0199283 0.0370184 0.0116579
0.032517 0.0366827 0.0106508
0.0488441 0.037644 0.00976577
0.065919 0.0369421 0.0090486
0.0877852 0.0361944 0.00831617
0.122057 0.0353552 0.00746166
0.178592 0.0365606 0.00648508
0.248005 0.0427405 0.00537118
0.33228 0.0499886 0.00157168
0.420371 0.0534829 0.000137331
0.505882 0.0652018 0.00106813
0.580377 0.0715343 0
0.642649 0.0760052 0
0.70013 0.0766308 0
0.752667 0.0802014 0
0.799832 0.0827192 0
0.845151 0.0841993 0
0.858915 0.0858167 0
0.858915 0.0858167 0
0.858915 0.0858167 0
0.858915 0.0858167 0
0.858915 0.0858167 0
0.858915 0.0858167 0
0.858915 0.0858167 0
0.858915 0.0858167 0
0.858915 0.0858167 0
0.858915 0.0858167 0
0.858915 0.0858167 0
0.858915 0.0858167 0
0.858915 0.0858167 0
0.0167239 0.0369726 0.0116121
0.0167239 0.0369726 0.0116121
0.0167239 0.0369726 0.0116121
0.0167697 0.0369726 0.0116121
0.0273289 0.0363928 0.0110323
0.0416876 0.0379644 0.010071
0.0597391 0.0371862 0.009308
0.0792859 0.0364233 0.00852979
0.114046 0.0355383 0.00766003
0.167636 0.0361486 0.00665293
0.238392 0.041886 0.00550851
0.324361 0.0494698 0.00192264
0.413291 0.0531472 0.000244144
0.501656 0.064622 0.00115969
0.577203 0.0713359 0
0.64007 0.0758221 0
0.698054 0.0766918 0
0.751202 0.0800488 0
0.798276 0.0827802 0
0.844083 0.0840772 0
0.858915 0.0858167 0
0.858915 0.0858167 0
0.858915 0.0858167 0
0.858915 0.0858167 0
0.858915 0.0858167 0
0.858915 0.0858167 0
0.858915 0.0858167 0
0.858915 0.0858167 0
0.858915 0.0858167 0
0.858915 0.0858167 0
0.858915 0.0858167 0
0.858915 0.0858167 0
0.858915 0.0858167 0
0.0167239 0.0369726 0.0116121
0.0167239 0.0369726 0.0116121
0.0167239 0.0369726 0.0116121
0.0167239 0.0369726 0.0116121
0.0226749 0.0368658 0.0115053
0.0360723 0.0371862 0.0104219
0.0531624 0.0374609 0.00958267
0.0729686 0.0366522 0.00875868
0.105714 0.0357366 0.00784314
0.156161 0.0357214 0.00682078
0.228733 0.0410315 0.0056611
0.315694 0.0487068 0.00248722
0.406134 0.0528725 0.000366217
0.496468 0.0640574 0.000961318
0.574014 0.0711223 0
0.637476 0.075639 0
0.695933 0.0767681 0
0.749737 0.0798962 0
0.796735 0.0828412 0
0.843 0.0839399 0
0.858915 0.0858167 0
0.858915 0.0858167 0
0.858915 0.0858167 0
0.858915 0.0858167 0
0.858915 0.0858167 0
0.858915 0.0858167 0
0.858915 0.0858167 0
0.858915 0.0858167 0
0.858915 0.0858167 0
0.858915 0.0858167 0
0.858915 0.0858167 0
0.858915 0.0858167 0
0.858915 0.0858167 0
0.0153201 0.0419928 0.0112764
0.01561 0.0411383 0.0113375
0.0158846 0.0403296 0.0114137
0.0161593 0.0395514 0.0114748
0.0181888 0.0388952 0.0115816
0.0308537 0.0380255 0.0110628
0.0463874 0.0387121 0.0100404
0.0669718 0.0368963 0.00900282
0.0976883 0.0359503 0.00805676
0.144305 0.0352636 0.00700389
0.219593 0.0401312 0.00581369
0.306844 0.0479438 0.00308232
0.398795 0.0525978 0.000488289
0.491051 0.0634775 0.000717174
0.570687 0.0709087 0
0.634821 0.0754406 0
0.693782 0.0768444 0
0.74815 0.0797436 0
0.795132 0.0829023 0
0.841901 0.0838178 0
0.858915 0.0858167 0
0.858915 0.0858167 0
0.858915 0.0858167 0
0.858915 0.0858167 0
0.858915 0.0858167 0
0.858915 0.0858167 0
0.858915 0.0858167 0
0.858915 0.0858167 0
0.858915 0.0858167 0
0.858915 0.0858167 0
0.858915 0.0858167 0
0.858915 0.0858167 0
0.858915 0.0858167 0
0.0133059 0.0501869 0.0107881
0.0133669 0.0488899 0.0108492
0.0135195 0.0476692 0.0109102
0.0138399 0.0466316 0.0109712
0.0141604 0.045594 0.0110323
0.0252995 0.0461738 0.0114595
0.0407263 0.0474098 0.0124819
0.0630961 0.0444343 0.0106661
0.0933242 0.0420233 0.00979629
0.13817 0.0389715 0.00849927
0.211704 0.0405585 0.00634775
0.297795 0.0471504 0.00367742
0.391287 0.0523079 0.000595102
0.485527 0.0628672 0.00047303
0.567346 0.0706951 0
0.632136 0.0752422 0
0.69163 0.0769207 0
0.746395 0.0795911 0
0.79353 0.0829633 0
0.840787 0.0836805 0
0.858915 0.0858167 0
0.858915 0.0858167 0
0.858915 0.0858167 0
0.858915 0.0858167 0
0.858915 0.0858167 0
0.858915 0.0858167 0
0.858915 0.0858167 0
0.858915 0.0858167 0
0.858915 0.0858167 0
0.858915 0.0858167 0
0.858915 0.0858167 0
0.858915 0.0858167 0
0.858915 0.0858167 0
0.0128176 0.0607462 0.0102846
0.0128786 0.0594797 0.0103456
0.0129397 0.0581826 0.0104067
0.0130007 0.0568246 0.0104677
0.0130617 0.0554513 0.0105287
0.0184329 0.0552377 0.0113985
0.035172 0.0569772 0.0134279
0.057023 0.0540932 0.0119783
0.0863661 0.0508736 0.0106355
0.132815 0.0491951 0.00981155
0.209079 0.0495766 0.00857557
0.297093 0.0527962 0.00579843
0.384863 0.0528115 0.000961318
0.479988 0.0622568 0.000213626
0.563149 0.0704814 0
0.629465 0.0750591 0
0.689494 0.076997 0
0.744656 0.0794232 0
0.791959 0.0830243 0
0.839612 0.0835737 0
0.858915 0.0858167 0
0.858915 0.0858167 0
0.858915 0.0858167 0
0.858915 0.0858167 0
0.858915 0.0858167 0
0.858915 0.0858167 0
0.858915 0.0858167 0
0.858915 0.0858167 0
0.858915 0.0858167 0
0.858915 0.0858167 0
0.858915 0.0858167 0
0.858915 0.0858167 0
0.858915 0.0858167 0
0.0144961 0.0721599 0.0119173
0.014313 0.0710307 0.0117494
0.0141451 0.0698863 0.0115816
0.013962 0.0687114 0.0113985
0.0137789 0.0675059 0.0112306
0.0136721 0.0662852 0.0110628
0.0270848 0.0682383 0.0132753
0.0496071 0.0687572 0.0153353
0.0765545 0.0647746 0.0134737
0.124437 0.0627451 0.0113222
0.199115 0.0641337 0.00972
0.289555 0.0654002 0.00840772
0.386343 0.0645151 0.00457771
0.47985 0.0670939 0.00227359
0.557931 0.0702068 0
0.626215 0.074815 0
0.686961 0.0770886 0
0.74255 0.0792401 0
0.790005 0.0831006 0
0.837827 0.08365 0
0.858915 0.0858167 0
0.858915 0.0858167 0
0.858915 0.0858167 0
0.858915 0.0858167 0
0.858915 0.0858167 0
0.858915 0.0858167 0
0.858915 0.0858167 0
0.858915 0.0858167 0
0.858915 0.0858167 0
0.858915 0.0858167 0
0.858915 0.0858167 0
0.858915 0.0858167 0
0.858915 0.0858167 0
0.0164187 0.0875105 0.0138857
0.0162814 0.0863355 0.0137331
0.0161288 0.0851453 0.0135805
0.0159915 0.0839399 0.0134432
0.0158236 0.0826886 0.0132753
0.015671 0.0814374 0.0131228
0.0190738 0.0810254 0.013611
0.0380407 0.0833906 0.0157321
0.0662547 0.0806592 0.0125734
0.110704 0.0803845 0.0108949
0.183108 0.0813306 0.0103761
0.278569 0.0834211 0.00959792
0.378149 0.084184 0.00993362
0.479774 0.0826734 0.00505074
0.561288 0.0819715 0.00161746
0.622858 0.0757458 0
0.683894 0.0772106 0
0.739727 0.078996 0
0.787442 0.0832074 0
0.835447 0.0837415 0
0.858915 0.0858167 0
0.858915 0.0858167 0
0.858915 0.0858167 0
0.858915 0.0858167 0
0.858915 0.0858167 0
0.858915 0.0858167 0
0.858915 0.0858167 0
0.858915 0.0858167 0
0.858915 0.0858167 0
0.858915 0.0858167 0
0.858915 0.0858167 0
0.858915 0.0858167 0
0.858915 0.0858167 0
0.0161593 0.108278 0.0161135
0.0162051 0.107088 0.0159915
0.0162356 0.105867 0.0158694
0.0162814 0.104631 0.0157321
0.0163119 0.10338 0.01561
0.0163577 0.102098 0.0154726
0.0164034 0.100816 0.0153353
0.0254063 0.101396 0.0163424
0.0519112 0.103182 0.0173342
0.0923781 0.101686 0.0123293
0.157763 0.10164 0.0107271
0.259602 0.103319 0.0101625
0.37055 0.107347 0.00936904
0.475715 0.106828 0.00819409
0.561852 0.104723 0.00645457
0.626902 0.0971695 0.00129702
0.685267 0.086305 0
0.736019 0.0786603 0
0.784054 0.0833295 0
0.832288 0.0838636 0
0.858915 0.0858167 0
0.858915 0.0858167 0
0.858915 0.0858167 0
0.858915 0.0858167 0
0.858915 0.0858167 0
0.858915 0.0858167 0
0.858915 0.0858167 0
0.858915 0.0858167 0
0.858915 0.0858167 0
0.858915 0.0858167 0
0.858915 0.0858167 0
0.858915 0.0858167 0
0.858915 0.0858167 0
0.0128786 0.142901 0.0216373
0.0129091 0.140795 0.0209201
0.0129397 0.138781 0.020264
0.0129702 0.13666 0.0195621
0.0130159 0.134417 0.0187991
0.0130465 0.13228 0.0180972
0.0132296 0.130877 0.0179751
0.0134585 0.129137 0.0178378
0.0309453 0.13196 0.0219883
0.0675975 0.13196 0.0222477
0.128664 0.131426 0.0153658
0.223896 0.131792 0.0112001
0.346212 0.133959 0.00993362
0.46096 0.135592 0.0091249
0.558419 0.13341 0.00794995
0.628611 0.126497 0.00631724
0.686442 0.114611 0.00402838
0.73901 0.102296 0
0.784176 0.0899825 0
0.828168 0.0840314 0
0.858915 0.0858167 0
0.858915 0.0858167 0
0.858915 0.0858167 0
0.858915 0.0858167 0
0.858915 0.0858167 0
0.858915 0.0858167 0
0.858915 0.0858167 0
0.858915 0.0858167 0
0.858915 0.0858167 0
0.858915 0.0858167 0
0.858915 0.0858167 0
0.858915 0.0858167 0
0.858915 0.0858167 0
0.0120089 0.195132 0.0376745
0.0120394 0.193423 0.0371862
0.0120699 0.191699 0.0366979
0.0121004 0.189975 0.0362097
0.0121309 0.188251 0.0357214
0.0121614 0.186511 0.0352331
0.012192 0.18468 0.0347143
0.0122225 0.182559 0.0341192
0.0122683 0.17966 0.0332952
0.0420691 0.177356 0.0354925
0.0959793 0.178698 0.0301213
0.183291 0.175738 0.0174105
0.301122 0.173907 0.0126955
0.42945 0.172274 0.00965896
0.542809 0.171038 0.00885023
0.623575 0.162188 0.00769055
0.68687 0.14966 0.00616464
0.738338 0.139712 0.00416571
0.785046 0.126452 0.00155642
0.831983 0.111742 0
0.863752 0.0964218 0
0.858915 0.0858167 0
0.858915 0.0858167 0
0.858915 0.0858167 0
0.858915 0.0858167 0
0.858915 0.0858167 0
0.858915 0.0858167 0
0.858915 0.0858167 0
0.858915 0.0858167 0
0.858915 0.0858167 0
0.858915 0.0858167 0
0.858915 0.0858167 0
0.858915 0.0858167 0
0.0110323 0.258259 0.0537118
0.0110475 0.256687 0.0532998
0.0110781 0.2551 0.0528878
0.0111086 0.253407 0.0524453
0.0111238 0.251713 0.0519875
0.0111543 0.250111 0.0515755
0.0111849 0.248417 0.051133
0.0112154 0.246403 0.0506142
0.0112612 0.243687 0.049897
0.013962 0.241856 0.0500496
0.0585489 0.242039 0.0492714
0.132265 0.236591 0.0382544
0.250599 0.229938 0.0205997
0.387091 0.22678 0.0117342
0.508629 0.221546 0.00936904
0.611551 0.214405 0.00856031
0.682078 0.202121 0.0074464
0.738521 0.184833 0.00602731
0.784558 0.169924 0.00430304
0.830732 0.155322 0.00227359
0.868315 0.146166 0
0.870039 0.135851 0.000686656
0.86775 0.116793 0
0.864942 0.100404 0
0.860594 0.0887465 0
0.858915 0.0858167 0
0.858915 0.0858167 0
0.858915 0.0858167 0
0.858915 0.0858167 0
0.858915 0.0858167 0
0.858915 0.0858167 0
0.858915 0.0858167 0
0.858915 0.0858167 0
0.00993362 0.331563 0.071519
0.00994888 0.329839 0.0711528
0.0099794 0.328099 0.0707713
0.00999466 0.326375 0.0704051
0.0100252 0.324498 0.0699779
0.0100404 0.322759 0.0696117
0.010071 0.320882 0.0691997
0.0101015 0.318791 0.0687572
0.010132 0.31603 0.0681163
0.010193 0.312657 0.0673075
0.0198978 0.312047 0.0686046
0.0836805 0.317586 0.0662852
0.189349 0.306874 0.0439612
0.333547 0.299809 0.0235752
0.470802 0.292988 0.0133211
0.588708 0.285237 0.00906386
0.673747 0.2701 0.00827039
0.735668 0.251698 0.00721752
0.784588 0.231632 0.00595102
0.829969 0.21442 0.00451667
0.869841 0.193286 0.00544747
0.875731 0.177523 0.00369268
0.873228 0.167224 0.0015259
0.870771 0.157427 0.000885023
0.869718 0.149706 0.000213626
0.869261 0.143389 0
0.86981 0.138918 0.000366217
0.870039 0.134874 0.000656138
0.869352 0.12903 0
0.868757 0.124331 0
0.868269 0.120623 0
0.867887 0.117876 0
0.867643 0.115908 0
0.0121767 0.414054 0.0876173
0.0121157 0.412787 0.0873732
0.0120394 0.41149 0.087129
0.0119783 0.410208 0.0868849
0.011902 0.408911 0.0866255
0.011841 0.407614 0.0863813
0.0117647 0.40621 0.0861067
0.0116732 0.404639 0.0858015
0.0115663 0.402487 0.0853895
0.011429 0.39968 0.0848707
0.0112306 0.395727 0.0841535
0.0352026 0.396918 0.0878767
0.123033 0.395254 0.0769818
0.262257 0.386709 0.0508888
0.415747 0.378073 0.0242924
0.552529 0.372137 0.011841
0.65185 0.354025 0.00872816
0.726055 0.335561 0.00798047
0.784024 0.314305 0.00703441
0.834104 0.292729 0.00595102
0.870222 0.273167 0.00637827
0.88304 0.255177 0.00660716
0.881331 0.238712 0.00631724
0.879744 0.22536 0.00602731
0.878309 0.214328 0.00575265
0.877531 0.204456 0.00550851
0.877317 0.195758 0.00529488
0.877134 0.188708 0.00511177
0.876982 0.183093 0.00495918
0.876463 0.180652 0.00444038
0.876051 0.178882 0.00401312
0.875715 0.177523 0.00369268
0.875471 0.176486 0.00344854
0.0124819 0.488121 0.10161
0.0124971 0.487068 0.101457
0.0125277 0.486 0.10132
0.0125429 0.484916 0.101183
0.0125582 0.483848 0.101045
0.0125734 0.482673 0.100877
0.0125887 0.48159 0.10074
0.0126192 0.480262 0.100557
0.0126497 0.478508 0.100328
0.0126955 0.476127 0.100008
0.0127413 0.473152 0.0996262
0.0128176 0.469154 0.0990921
0.0605783 0.474845 0.0991684
0.18056 0.472175 0.0803845
0.344991 0.466804 0.0480201
0.498375 0.457282 0.0244755
0.618418 0.444724 0.012253
0.708782 0.426856 0.0102693
0.776364 0.407874 0.00840772
0.831098 0.390112 0.00689708
0.873854 0.367315 0.0059968
0.898878 0.350927 0.00527962
0.896361 0.333928 0.00512703
0.893767 0.319219 0.00497444
0.890898 0.307805 0.00485237
0.888441 0.298054 0.0047303
0.886687 0.290242 0.00474556
0.886076 0.284321 0.00517281
0.885588 0.279667 0.00550851
0.885206 0.27602 0.00576791
0.884932 0.273274 0.00595102
0.884703 0.271122 0.00610361
0.884535 0.26952 0.00622568
0.0158389 0.552804 0.109392
0.0157778 0.55201 0.109255
0.0157321 0.551263 0.109133
0.015671 0.55053 0.10901
0.01561 0.549722 0.108873
0.0155642 0.548974 0.108751
0.0155032 0.548226 0.108629
0.0154421 0.547295 0.108476
0.0153506 0.546044 0.108263
0.0152285 0.544396 0.107988
0.0150759 0.542229 0.107622
0.0148623 0.539437 0.107149
0.0146181 0.535882 0.106554
0.102892 0.542962 0.103822
0.262577 0.540154 0.0716869
0.432975 0.537011 0.0395514
0.578592 0.53164 0.0225986
0.685542 0.520439 0.0120241
0.762402 0.508278 0.010605
0.824948 0.488136 0.0100099
0.875196 0.470039 0.00708019
0.910719 0.451362 0.00607309
0.90988 0.43682 0.00596628
0.908171 0.424125 0.00588998
0.907332 0.413687 0.00581369
0.90663 0.404974 0.00575265
0.90605 0.397864 0.00569161
0.905592 0.392111 0.00564584
0.904921 0.387991 0.00561532
0.904387 0.384771 0.0055848
0.90396 0.3823 0.00556954
0.903655 0.380438 0.00555428
0.90341 0.378973 0.00553903
0.0261082 0.613947 0.116289
0.0259861 0.613443 0.116304
0.025864 0.61294 0.11632
0.0257572 0.612451 0.116335
0.0256352 0.611948 0.11635
0.0254978 0.611429 0.116365
0.0253758 0.610925 0.116381
0.0252384 0.610315 0.116396
0.0250401 0.609491 0.116411
0.0247959 0.608148 0.116304
0.0244755 0.606363 0.116167
0.0240482 0.604089 0.115984
0.0234989 0.601114 0.11574
0.029572 0.600153 0.117159
0.174853 0.603449 0.0961471
0.352529 0.601465 0.0620737
0.521523 0.602792 0.0342107
0.648127 0.594781 0.0192721
0.7393 0.586984 0.0106813
0.811658 0.574502 0.0102846
0.869352 0.561471 0.00979629
0.912413 0.546105 0.00671397
0.924666 0.535042 0.00645457
0.923583 0.525826 0.00642405
0.92221 0.517479 0.00637827
0.921035 0.51043 0.00634775
0.920119 0.504799 0.00631724
0.919356 0.500221 0.00630198
0.918776 0.496666 0.00628672
0.918334 0.493706 0.00627146
0.917983 0.491432 0.0062562
0.917723 0.489693 0.0062562
0.91751 0.488365 0.00624094
0.038056 0.661128 0.1149
0.0378882 0.660685 0.114916
0.0377203 0.660243 0.114916
0.0375525 0.659785 0.114931
0.0373846 0.659327 0.114946
0.0372015 0.658839 0.114961
0.0370336 0.658381 0.114977
0.0368353 0.657847 0.114992
0.0365606 0.657099 0.115023
0.0361791 0.656092 0.115053
0.0357061 0.65481 0.115099
0.035111 0.653162 0.115145
0.0343175 0.651011 0.115206
0.0335851 0.648066 0.115297
0.0854963 0.651377 0.116075
0.269795 0.656565 0.0827344
0.452903 0.656001 0.0465095
0.601907 0.658183 0.0263066
0.711666 0.656214 0.0140993
0.789227 0.648692 0.0103151
0.855741 0.642847 0.00999466
0.904921 0.630762 0.0108339
0.934524 0.61912 0.0117647
0.933791 0.611109 0.0110475
0.933181 0.604242 0.0104219
0.932662 0.598581 0.00991836
0.932235 0.593912 0.00949111
0.931899 0.590219 0.00915541
0.931395 0.587106 0.00889601
0.930999 0.584649 0.00869764
0.930694 0.582788 0.00854505
0.93048 0.581399 0.00842298
0.930312 0.580377 0.00834669
0.0558938 0.704112 0.11104
0.0556649 0.703685 0.11104
0.0554818 0.703288 0.111055
0.0552529 0.702846 0.11107
0.0550393 0.702419 0.111086
0.0548104 0.701976 0.111101
0.0546273 0.701564 0.111116
0.0543679 0.701045 0.111131
0.0539864 0.700328 0.111147
0.0535439 0.699428 0.111177
0.0529488 0.698238 0.111223
0.0521553 0.696681 0.111269
0.051194 0.694713 0.11133
0.0499123 0.692195 0.111406
0.0483558 0.689082 0.111498
0.181552 0.699336 0.0975662
0.378012 0.7019 0.0615091
0.552331 0.708705 0.0339513
0.678614 0.709484 0.0174258
0.76466 0.705165 0.0129244
0.837186 0.69926 0.0104219
0.892744 0.694453 0.00972
0.931868 0.687541 0.00941482
0.94052 0.681422 0.009308
0.939986 0.67628 0.00929274
0.939544 0.67187 0.00944533
0.939193 0.66807 0.00979629
0.938903 0.665034 0.0100862
0.938674 0.662638 0.0103151
0.938491 0.660761 0.0104982
0.938369 0.659388 0.0106355
0.938262 0.658335 0.0107271
0.938186 0.657511 0.0108186
0.080705 0.744167 0.102373
0.0804608 0.743786 0.102434
0.0801709 0.743358 0.10251
0.079942 0.742977 0.102571
0.0797131 0.74258 0.102632
0.0794232 0.742153 0.102708
0.0791943 0.741756 0.10277
0.0788586 0.741253 0.102861
0.0784314 0.740597 0.102968
0.0779126 0.739757 0.103105
0.0772106 0.738628 0.103288
0.0762646 0.737148 0.103517
0.0751354 0.735302 0.103822
0.0736095 0.732937 0.104204
0.0717784 0.730007 0.104677
0.100114 0.731807 0.108507
0.310201 0.744686 0.0758679
0.496162 0.751522 0.0410315
0.635187 0.755505 0.024979
0.735592 0.754391 0.0161593
0.816281 0.753872 0.0123751
0.876478 0.751156 0.0101167
0.921675 0.745205 0.00946059
0.948394 0.739574 0.00926223
0.947402 0.734829 0.00927749
0.946593 0.730922 0.00927749
0.945922 0.727703 0.00927749
0.945403 0.7252 0.00929274
0.944976 0.723217 0.00929274
0.944701 0.721691 0.00929274
0.944564 0.720485 0.00929274
0.944472 0.7196 0.00929274
0.944411 0.718944 0.00929274
0.120943 0.780133 0.0899977
0.120562 0.779782 0.0901198
0.120073 0.779416 0.0902876
0.119493 0.779004 0.0904707
0.119005 0.778622 0.0906386
0.118532 0.778241 0.0907912
0.118044 0.777859 0.090959
0.117464 0.777401 0.0911574
0.116686 0.776791 0.0914015
0.115633 0.775967 0.0917678
0.114168 0.774868 0.0922408
0.112428 0.773495 0.0928206
0.110109 0.771725 0.0935988
0.10721 0.769482 0.0945602
0.103731 0.766735 0.0957198
0.0998093 0.763394 0.0969406
0.242573 0.774624 0.0848402
0.441886 0.783948 0.0503395
0.598413 0.792584 0.0307774
0.707729 0.794965 0.0207523
0.788296 0.795987 0.0132601
0.856657 0.794247 0.0120546
0.906752 0.793545 0.0120089
0.944411 0.788952 0.0139162
0.953902 0.78497 0.0134127
0.953521 0.781659 0.0130465
0.953231 0.778988 0.0127413
0.952987 0.776867 0.0124971
0.952789 0.775189 0.012314
0.952651 0.773907 0.0121614
0.952544 0.772946 0.0120546
0.952453 0.772183 0.0119783
0.952392 0.771603 0.011902
0.156832 0.807904 0.0776074
0.156435 0.807584 0.0777142
0.156054 0.807279 0.0778363
0.155673 0.806958 0.0779431
0.155291 0.806622 0.0780499
0.154894 0.806302 0.0781567
0.154513 0.805982 0.0782635
0.154131 0.805615 0.0783856
0.153521 0.805097 0.0785534
0.152667 0.80441 0.0787976
0.151659 0.803525 0.0790875
0.150286 0.802365 0.0794842
0.148501 0.800885 0.0799878
0.146075 0.799039 0.0808881
0.143038 0.796765 0.0820172
0.1393 0.793988 0.0834058
0.19382 0.799985 0.0870375
0.398749 0.810803 0.057496
0.561959 0.819867 0.0344244
0.679957 0.824857 0.0242313
0.763745 0.828702 0.0173037
0.834653 0.830686 0.0143893
0.890822 0.828183 0.0138705
0.931762 0.825696 0.017792
0.957153 0.822324 0.0204166
0.957153 0.819211 0.0200656
0.957168 0.816663 0.019791
0.957183 0.814633 0.0195621
0.957183 0.813077 0.019379
0.957183 0.811872 0.0192569
0.957107 0.811032 0.0190585
0.957015 0.810391 0.0188754
0.956954 0.809918 0.0187686
0.168124 0.819409 0.0742504
0.168124 0.819409 0.0742504
0.168124 0.819409 0.0742504
0.168124 0.819409 0.0742504
0.168124 0.819409 0.0742504
0.168124 0.819409 0.0742504
0.168124 0.819409 0.0742504
0.168124 0.819409 0.0742504
0.168124 0.819409 0.0742504
0.168124 0.819409 0.0742504
0.168124 0.819409 0.0742504
0.168124 0.819409 0.0742504
0.168124 0.819409 0.0742504
0.168124 0.819409 0.0742504
0.168124 0.819394 0.0742504
0.168154 0.817517 0.0743725
0.164446 0.814389 0.0754253
0.351812 0.828809 0.0623331
0.530434 0.839963 0.0367285
0.653361 0.846326 0.0266117
0.743252 0.850126 0.0206149
0.814603 0.850431 0.0178378
0.875044 0.85069 0.0174563
0.918807 0.850492 0.0194858
0.95021 0.850675 0.0232547
0.959289 0.848402 0.0238651
0.959014 0.84651 0.0235752
0.958801 0.845045 0.0233616
0.958618 0.84387 0.0231937
0.958495 0.842969 0.0230564
0.958389 0.842298 0.0229648
0.958312 0.841764 0.0228733
0.958251 0.841382 0.0228275
0.168124 0.819409 0.0742504
0.168124 0.819409 0.0742504
0.168124 0.819409 0.0742504
0.168124 0.819409 0.0742504
0.168124 0.819409 0.0742504
0.168124 0.819409 0.0742504
0.168124 0.819409 0.0742504
0.168124 0.819409 0.0742504
0.168124 0.819409 0.0742504
0.168124 0.819409 0.0742504
0.168124 0.819409 0.0742504
0.168124 0.819409 0.0742504
0.168124 0.819409 0.0742504
0.168124 0.819409 0.0742504
0.168124 0.819409 0.0742504
0.168124 0.819409 0.0742504
0.168124 0.819409 0.0742504
0.293797 0.8318 0.0685893
0.492073 0.848035 0.0417487
0.625498 0.85687 0.0287327
0.723461 0.864103 0.0209812
0.79585 0.865751 0.0197604
0.858763 0.86688 0.0189212
0.905226 0.867277 0.0196994
0.938888 0.867826 0.0240024
0.959457 0.86627 0.0265354
0.959472 0.865003 0.0265507
0.959472 0.863874 0.0264439
0.959487 0.862928 0.026276
0.959487 0.862181 0.0261387
0.959487 0.861616 0.0260471
0.959503 0.861204 0.0259861
0.959503 0.860883 0.0259251
0.168124 0.819409 0.0742504
0.168124 0.819409 0.0742504
0.168124 0.819409 0.0742504
0.168124 0.819409 0.0742504
0.168124 0.819409 0.0742504
0.168124 0.819409 0.0742504
0.168124 0.819409 0.0742504
0.168124 0.819409 0.0742504
0.168124 0.819409 0.0742504
0.168124 0.819409 0.0742504
0.168124 0.819409 0.0742504
0.168124 0.819409 0.0742504
0.168124 0.819409 0.0742504
0.168124 0.819409 0.0742504
0.168124 0.819409 0.0742504
0.168124 0.819409 0.0742504
0.168124 0.819409 0.0742504
0.252094 0.828031 0.0766613
0.453559 0.844938 0.0471351
0.601434 0.856275 0.0307622
0.706493 0.864363 0.0215152
0.781094 0.867857 0.0211948
0.84419 0.872007 0.0188144
0.893217 0.874952 0.0188449
0.928115 0.876753 0.0224765
0.95317 0.878111 0.0258793
0.959335 0.876875 0.0264286
0.95935 0.875898 0.0264439
0.95935 0.875135 0.0264439
0.959365 0.87454 0.0264591
0.959365 0.874098 0.0264591
0.959365 0.873762 0.0264591
0.959381 0.873503 0.0264591
0.168124 0.819409 0.0742504
0.168124 0.819409 0.0742504
0.168124 0.819409 0.0742504
0.168124 0.819409 0.0742504
0.168124 0.819409 0.0742504
0.168124 0.819409 0.0742504
0.168124 0.819409 0.0742504
0.168124 0.819409 0.0742504
0.168124 0.819409 0.0742504
0.168124 0.819409 0.0742504
0.168124 0.819409 0.0742504
0.168124 0.819409 0.0742504
0.168124 0.819409 0.0742504
0.168124 0.819409 0.0742504
0.168124 0.819409 0.0742504
0.168124 0.819409 0.0742504
0.168124 0.819409 0.0742504
0.211139 0.824491 0.0793469
0.4224 0.8421 0.0516823
0.579873 0.854276 0.0324254
0.691493 0.862715 0.0229953
0.767849 0.867811 0.021149
0.832029 0.870756 0.0187991
0.883009 0.873777 0.0188449
0.919524 0.875669 0.0213779
0.945907 0.878157 0.0248417
0.959319 0.878126 0.0264134
0.959319 0.878126 0.0264134
0.959319 0.878126 0.0264134
0.959319 0.878126 0.0264134
0.959319 0.878126 0.0264134
0.959319 0.878126 0.0264134
0.959319 0.878126 0.0264134
0.168124 0.819409 0.0742504
0.168124 0.819409 0.0742504
0.168124 0.819409 0.0742504
0.168124 0.819409 0.0742504
0.168124 0.819409 0.0742504
0.168124 0.819409 0.0742504
0.168124 0.819409 0.0742504
0.168124 0.819409 0.0742504
0.168124 0.819409 0.0742504
