Camera18_LUT_V0/luts/panasonic-warm-skin-tone.cube
# Created by Adobe Lightroom plugin Export LUT (1.24.0)
# www.johnrellis.com/lightroom/exportlut.htm
# Photo: P1014654.jpg
# Color profile: C:\Program Files (x86)\Common Files\Adobe\Color\Profiles\Recommended\sRGB Color Space Profile.icm
LUT_3D_SIZE 5
DOMAIN_MIN 0.0 0.0 0.0
DOMAIN_MAX 1.0 1.0 1.0
0.006470 0.000153 0.000305
0.358587 0.002838 0.000000
0.709010 0.054383 0.022126
0.967193 0.116274 0.054902
1.000000 0.168368 0.086244
0.047883 0.287724 0.049165
0.273686 0.277317 0.000214
0.675471 0.327062 0.004761
0.936919 0.341283 0.041291
1.000000 0.353521 0.091188
0.186984 0.573388 0.180423
0.284611 0.561883 0.177890
0.577478 0.559869 0.068299
0.891936 0.617700 0.071199
0.999969 0.628382 0.159884
0.283146 0.788174 0.274418
0.336431 0.782773 0.279454
0.551415 0.769802 0.236698
0.794766 0.779416 0.130373
0.999969 0.811887 0.159121
0.420172 0.989227 0.406897
0.483192 0.985657 0.405219
0.629114 0.977417 0.411292
0.797879 0.973144 0.416083
0.985565 0.968780 0.251316
0.038300 0.045655 0.346075
0.340246 0.032898 0.342199
0.701137 0.072755 0.307652
0.959258 0.099519 0.294133
1.000000 0.145998 0.282170
0.021057 0.309178 0.316136
0.280095 0.293187 0.297520
0.639185 0.309453 0.275853
0.912108 0.336095 0.280858
1.000000 0.357488 0.292302
0.176425 0.588739 0.295506
0.293370 0.572229 0.299901
0.574365 0.566461 0.281559
0.878508 0.618830 0.296666
1.000000 0.629267 0.340429
0.281346 0.793118 0.340490
0.341711 0.786801 0.342077
0.556634 0.770016 0.342168
0.791653 0.781186 0.290227
0.999969 0.817533 0.335363
0.421759 0.989349 0.463630
0.486641 0.986023 0.461311
0.629236 0.977722 0.468574
0.799069 0.972717 0.476326
0.983612 0.969482 0.353674
0.094240 0.120150 0.683284
0.321874 0.102022 0.664576
0.695888 0.093690 0.682643
0.956237 0.111147 0.657649
1.000000 0.150423 0.624201
0.094270 0.360082 0.651728
0.304845 0.343420 0.633448
0.636957 0.306950 0.635462
0.903380 0.321172 0.604852
1.000000 0.338293 0.584253
0.081880 0.610101 0.620630
0.294652 0.595453 0.605646
0.580529 0.583917 0.592889
0.833890 0.589166 0.581903
1.000000 0.601465 0.582391
0.243961 0.815030 0.570611
0.349584 0.804227 0.564691
0.572808 0.780148 0.563073
0.790158 0.784329 0.545220
0.999969 0.832822 0.611505
0.409308 0.990753 0.605371
0.474678 0.988830 0.605798
0.626276 0.980865 0.607813
0.798978 0.971893 0.614069
0.980682 0.970306 0.545373
0.154086 0.204715 0.939940
0.340063 0.176730 0.921080
0.662928 0.163668 0.927581
0.938293 0.147829 0.932982
1.000000 0.148226 0.924865
0.163577 0.417578 0.908995
0.345739 0.400031 0.894499
0.618860 0.351812 0.888365
0.893095 0.337469 0.893309
1.000000 0.338750 0.884581
0.186099 0.622248 0.870390
0.351324 0.615503 0.860349
0.593835 0.606775 0.846220
0.844785 0.588037 0.845090
1.000000 0.585534 0.833036
0.192813 0.828519 0.835630
0.338018 0.820096 0.826658
0.577539 0.813626 0.816434
0.809049 0.806058 0.809201
0.999878 0.813901 0.813504
0.284245 1.000000 0.794827
0.389014 0.999756 0.790066
0.593988 0.992676 0.785824
0.803372 0.976257 0.790982
0.974914 0.972351 0.769406
0.232670 0.298558 1.000000
0.381750 0.274998 1.000000
0.645045 0.249149 1.000000
0.901762 0.243809 0.999969
1.000000 0.231449 1.000000
0.249302 0.459998 1.000000
0.398322 0.449592 1.000000
0.610803 0.408148 0.999969
0.877531 0.396246 0.999969
1.000000 0.386481 0.999969
0.290318 0.647486 1.000000
0.418463 0.646021 1.000000
0.625605 0.641413 1.000000
0.844053 0.617945 0.999969
1.000000 0.607355 0.999969
0.302342 0.827146 1.000000
0.414496 0.824765 1.000000
0.617853 0.822385 1.000000
0.820005 0.819883 1.000000
1.000000 0.809140 0.999969
0.245518 0.999969 1.000000
0.369207 0.996246 0.996582
0.587243 0.989105 0.988464
0.823209 0.980987 0.978393
0.976684 0.973999 0.972534
