Camera18_LUT_V0/luts/panasonic-verdant-scenery.cube
TITLE "Generated by Resolve"
LUT_3D_SIZE 9
0.0420996 0.0225681 0.0209201
0.105638 0.025864 0.0229801
0.275029 0.0541695 0.0239719
0.550469 0.0872511 0.0346075
0.762585 0.113832 0.0513313
0.908003 0.135943 0.0608072
0.908003 0.135943 0.0608072
0.908003 0.135943 0.0608072
0.908003 0.135943 0.0608072
0.0450446 0.0424353 0.0213474
0.0520638 0.031632 0.0209354
0.221836 0.0441596 0.0240024
0.53254 0.0848707 0.0332952
0.755367 0.112779 0.05066
0.908003 0.135943 0.0608072
0.908003 0.135943 0.0608072
0.908003 0.135943 0.0608072
0.908003 0.135943 0.0608072
0.0667582 0.169039 0.0431067
0.0646677 0.155734 0.0383764
0.164446 0.147738 0.0305638
0.500893 0.155016 0.0278172
0.746273 0.111574 0.049897
0.908003 0.135943 0.0608072
0.908003 0.135943 0.0608072
0.908003 0.135943 0.0608072
0.908003 0.135943 0.0608072
0.111543 0.426337 0.141894
0.110491 0.420584 0.139925
0.10901 0.412985 0.137194
0.41326 0.398993 0.0706798
0.723278 0.337179 0.0481117
0.899535 0.253941 0.0516213
0.905745 0.143511 0.0588388
0.908003 0.135943 0.0608072
0.908003 0.135943 0.0608072
0.140063 0.62295 0.19028
0.139849 0.620935 0.189914
0.139605 0.618326 0.189425
0.138872 0.61117 0.188083
0.627955 0.607416 0.105882
0.881025 0.574731 0.10631
0.916197 0.536507 0.0944076
0.915572 0.516289 0.0882429
0.915373 0.508568 0.0859083
0.156161 0.782361 0.216693
0.15613 0.781109 0.216709
0.155932 0.779355 0.216571
0.155383 0.77467 0.216022
0.355657 0.77818 0.18616
0.806577 0.788098 0.152743
0.927291 0.777417 0.165316
0.927169 0.768353 0.163531
0.927047 0.765072 0.162875
0.174304 0.850645 0.214084
0.174304 0.850645 0.214084
0.174304 0.850645 0.214084
0.174304 0.850645 0.214084
0.174304 0.850645 0.214084
0.72076 0.893019 0.16849
0.913039 0.893263 0.186633
0.931609 0.888548 0.18793
0.931594 0.886519 0.187625
0.174304 0.850645 0.214084
0.174304 0.850645 0.214084
0.174304 0.850645 0.214084
0.174304 0.850645 0.214084
0.174304 0.850645 0.214084
0.668223 0.88748 0.160296
0.886458 0.903181 0.184375
0.932418 0.906401 0.191104
0.932418 0.906401 0.191104
0.174304 0.850645 0.214084
0.174304 0.850645 0.214084
0.174304 0.850645 0.214084
0.174304 0.850645 0.214084
0.174304 0.850645 0.214084
0.646906 0.884703 0.157671
0.875425 0.901946 0.182345
0.932418 0.906401 0.191104
0.932418 0.906401 0.191104
0.0420539 0.0228428 0.0331273
0.0967575 0.0252689 0.0333867
0.266682 0.0528725 0.0341039
0.548226 0.0867628 0.0379797
0.761425 0.11368 0.0512245
0.908003 0.135943 0.0608072
0.908003 0.135943 0.0608072
0.908003 0.135943 0.0608072
0.908003 0.135943 0.0608072
0.0437171 0.0338903 0.0229648
0.0420996 0.0225681 0.0209201
0.212848 0.042359 0.0239109
0.529305 0.0843366 0.0330663
0.754177 0.112612 0.0505531
0.908003 0.135943 0.0608072
0.908003 0.135943 0.0608072
0.908003 0.135943 0.0608072
0.908003 0.135943 0.0608072
0.0650034 0.158358 0.0392157
0.0627909 0.144793 0.0345617
0.154452 0.13547 0.0273136
0.498039 0.144549 0.0276646
0.745159 0.111467 0.0498512
0.908003 0.135943 0.0608072
0.908003 0.135943 0.0608072
0.908003 0.135943 0.0608072
0.908003 0.135943 0.0608072
0.110735 0.421805 0.140383
0.109575 0.415595 0.138201
0.108232 0.408148 0.135653
0.408652 0.39379 0.0700999
0.721706 0.330358 0.0471656
0.898665 0.247852 0.0517739
0.908003 0.135943 0.0608072
0.908003 0.135943 0.0608072
0.908003 0.135943 0.0608072
0.139895 0.621256 0.18996
0.139681 0.619257 0.189578
0.139406 0.616556 0.189075
0.138613 0.609415 0.18764
0.62649 0.605066 0.105348
0.880125 0.572045 0.105379
0.916152 0.533578 0.0935683
0.915602 0.512993 0.0873732
0.915267 0.504982 0.0848402
0.156115 0.781338 0.216693
0.156008 0.77995 0.216617
0.155749 0.778225 0.216388
0.155398 0.773648 0.216022
0.352514 0.776608 0.186831
0.80531 0.786603 0.152331
0.92726 0.775937 0.164996
0.927108 0.766842 0.163195
0.92694 0.76347 0.162509
0.174304 0.850645 0.214084
0.174304 0.850645 0.214084
0.174304 0.850645 0.214084
0.174304 0.850645 0.214084
0.174304 0.850645 0.214084
0.718914 0.89192 0.168032
0.912184 0.892454 0.186328
0.931655 0.887694 0.187823
0.931563 0.885603 0.187411
0.174304 0.850645 0.214084
0.174304 0.850645 0.214084
0.174304 0.850645 0.214084
0.174304 0.850645 0.214084
0.174304 0.850645 0.214084
0.66659 0.887327 0.160143
0.885618 0.903044 0.184161
0.932418 0.906401 0.191104
0.932418 0.906401 0.191104
0.174304 0.850645 0.214084
0.174304 0.850645 0.214084
0.174304 0.850645 0.214084
0.174304 0.850645 0.214084
0.174304 0.850645 0.214084
0.644968 0.884474 0.157443
0.874495 0.901808 0.182177
0.932418 0.906401 0.191104
0.932418 0.906401 0.191104
0.0489815 0.0289464 0.126772
0.0855726 0.0305791 0.132128
0.261814 0.0558328 0.148394
0.553399 0.0909438 0.142367
0.770825 0.114961 0.145052
0.917159 0.134463 0.13579
0.917144 0.132998 0.114
0.917174 0.132265 0.102571
0.916411 0.132479 0.0996262
0.047715 0.0281529 0.116258
0.0474098 0.0277256 0.114336
0.20209 0.0438087 0.129839
0.533028 0.0873579 0.129793
0.762783 0.112947 0.133745
0.917128 0.133623 0.123461
0.916716 0.132403 0.100816
0.914534 0.133089 0.0924086
0.913741 0.133318 0.0893416
0.0680705 0.150835 0.127398
0.0654307 0.137041 0.121172
0.141421 0.12723 0.120684
0.502281 0.13022 0.105791
0.752819 0.110552 0.119295
0.917189 0.132494 0.106477
0.913451 0.133471 0.0881666
0.911208 0.134218 0.0793469
0.910643 0.134463 0.0761883
0.109758 0.41767 0.195346
0.108553 0.411231 0.191287
0.107103 0.403311 0.186374
0.402731 0.391882 0.125872
0.719524 0.321279 0.076524
0.897642 0.239551 0.0614023
0.908003 0.135943 0.0608072
0.908003 0.135943 0.0608072
0.908003 0.135943 0.0608072
0.139712 0.619303 0.189624
0.139467 0.617105 0.189166
0.139101 0.61442 0.188571
0.138384 0.607202 0.187228
0.624323 0.602258 0.104707
0.878874 0.568795 0.104051
0.915999 0.529564 0.0923018
0.915389 0.508766 0.0859998
0.91519 0.500832 0.0836347
0.156008 0.780011 0.216617
0.155825 0.778576 0.216495
0.155581 0.776822 0.216251
0.1552 0.772259 0.215747
0.348562 0.774685 0.187625
0.803754 0.784772 0.151843
0.927352 0.774319 0.164828
0.927047 0.765164 0.16289
0.926818 0.761501 0.162051
0.174304 0.850645 0.214084
0.174304 0.850645 0.214084
0.174304 0.850645 0.214084
0.174304 0.850645 0.214084
0.174304 0.850645 0.214084
0.716915 0.890761 0.167697
0.911131 0.891295 0.185962
0.931594 0.88658 0.187625
0.931533 0.884474 0.187213
0.174304 0.850645 0.214084
0.174304 0.850645 0.214084
0.174304 0.850645 0.214084
0.174304 0.850645 0.214084
0.174304 0.850645 0.214084
0.66453 0.887068 0.159899
0.884413 0.902922 0.183978
0.932418 0.906401 0.191104
0.932418 0.906401 0.191104
0.174304 0.850645 0.214084
0.174304 0.850645 0.214084
0.174304 0.850645 0.214084
0.174304 0.850645 0.214084
0.174304 0.850645 0.214084
0.642756 0.884153 0.157107
0.87332 0.901671 0.181933
0.932418 0.906401 0.191104
0.932418 0.906401 0.191104
0.0599832 0.0808881 0.338567
0.0738689 0.0815137 0.33959
0.208988 0.0939956 0.365209
0.538399 0.108263 0.388495
0.772885 0.119448 0.341955
0.924544 0.143755 0.313222
0.924422 0.143114 0.302846
0.924376 0.142809 0.297826
0.924331 0.142657 0.295888
0.0594797 0.07953 0.333242
0.0594034 0.0792859 0.332326
0.168536 0.088838 0.349966
0.518334 0.107149 0.385367
0.765927 0.118456 0.334569
0.924483 0.143389 0.307164
0.924346 0.142718 0.296666
0.924285 0.142367 0.291447
0.924254 0.14226 0.289509
0.0641337 0.173434 0.357137
0.0637675 0.160632 0.35317
0.117906 0.145815 0.352682
0.488487 0.120577 0.376181
0.756725 0.117418 0.326024
0.924376 0.142916 0.299596
0.924239 0.142184 0.288762
0.92401 0.141802 0.283406
0.923934 0.14168 0.281346
0.107912 0.413291 0.397635
0.106722 0.407599 0.396155
0.105318 0.400443 0.3944
0.377264 0.396414 0.405264
0.718456 0.314641 0.31603
0.90631 0.222766 0.272084
0.923491 0.140734 0.266163
0.923369 0.140459 0.260639
0.923323 0.140459 0.259052
0.146197 0.616526 0.350408
0.145968 0.614328 0.349462
0.145418 0.61146 0.347982
0.144335 0.603632 0.344533
0.62356 0.611795 0.301839
0.875364 0.571557 0.286137
0.91603 0.525612 0.260792
0.914961 0.503334 0.247242
0.914626 0.494881 0.242054
0.15288 0.773953 0.309773
0.152758 0.772488 0.308598
0.15256 0.770733 0.307195
0.152285 0.766033 0.303288
0.331746 0.765896 0.281224
0.800092 0.786511 0.233951
0.927581 0.774685 0.226001
0.927062 0.76408 0.213046
0.926711 0.760098 0.207919
0.174304 0.850645 0.214084
0.174304 0.850645 0.214084
0.174304 0.850645 0.214084
0.174304 0.850645 0.214084
0.174304 0.850645 0.214084
0.710781 0.887068 0.166079
0.908095 0.88809 0.184985
0.931426 0.883543 0.186938
0.931502 0.88159 0.18677
0.174304 0.850645 0.214084
0.174304 0.850645 0.214084
0.174304 0.850645 0.214084
0.174304 0.850645 0.214084
0.174304 0.850645 0.214084
0.658351 0.886229 0.159091
0.881132 0.902586 0.183413
0.932418 0.906401 0.191104
0.932418 0.906401 0.191104
0.174304 0.850645 0.214084
0.174304 0.850645 0.214084
0.174304 0.850645 0.214084
0.174304 0.850645 0.214084
0.174304 0.850645 0.214084
0.636316 0.883314 0.156405
0.869993 0.90132 0.181353
0.932418 0.906401 0.191104
0.932418 0.906401 0.191104
0.0818647 0.158984 0.568902
0.0819104 0.158816 0.568475
0.176654 0.16173 0.576852
0.488136 0.15169 0.602991
0.744945 0.155062 0.602228
0.913344 0.166552 0.59266
0.913344 0.165011 0.587442
0.913359 0.164324 0.585077
0.913359 0.164004 0.584146
0.0822461 0.158007 0.566461
0.0823072 0.157885 0.56611
0.135409 0.158099 0.569635
0.464759 0.151293 0.599756
0.737301 0.154025 0.599741
0.913359 0.165637 0.589548
0.913359 0.164111 0.584482
0.913359 0.163363 0.581918
0.913375 0.163088 0.580957
0.0823682 0.162402 0.56257
0.0828107 0.156649 0.562966
0.082887 0.156451 0.562448
0.426047 0.151843 0.596979
0.728054 0.152941 0.596979
0.913344 0.164523 0.585931
0.913375 0.163027 0.580621
0.913359 0.16231 0.578241
0.913375 0.162173 0.57731
0.122881 0.398428 0.59942
0.121416 0.392416 0.598062
0.119295 0.384634 0.596139
0.286168 0.368261 0.607477
0.695552 0.281117 0.587427
0.902495 0.162478 0.577569
0.913527 0.161242 0.570657
0.913603 0.160922 0.568124
0.913649 0.1608 0.567178
0.169039 0.618173 0.608698
0.168673 0.6159 0.608347
0.168292 0.613046 0.607919
0.167056 0.605463 0.606256
0.607706 0.617899 0.624994
0.871077 0.560449 0.578668
0.919005 0.511742 0.560464
0.919371 0.488548 0.554955
0.919676 0.47982 0.552697
0.175387 0.774884 0.564523
0.175326 0.773587 0.564492
0.175128 0.771893 0.56434
0.174472 0.767269 0.563714
0.313313 0.757046 0.557137
0.802029 0.80235 0.567056
0.927001 0.787915 0.560998
0.926375 0.77792 0.556527
0.926024 0.774243 0.554833
0.190738 0.852445 0.516655
0.190738 0.852415 0.515984
0.190723 0.852369 0.515145
0.190753 0.852262 0.512917
0.190845 0.852003 0.507774
0.709972 0.902754 0.50164
0.905623 0.90457 0.511406
0.934096 0.899825 0.509896
0.933883 0.897383 0.50811
0.18996 0.851102 0.496315
0.189914 0.851057 0.495628
0.189837 0.85098 0.494789
0.189654 0.850797 0.49276
0.188861 0.850309 0.487327
0.649989 0.907103 0.466835
0.878126 0.925246 0.481559
0.935561 0.928115 0.485557
0.935531 0.928038 0.48394
0.189136 0.850446 0.488914
0.189014 0.850401 0.488212
0.188876 0.850324 0.487404
0.18854 0.850126 0.485298
0.187655 0.849607 0.479774
0.624475 0.903395 0.455375
0.86717 0.924315 0.470298
0.935195 0.92755 0.476143
0.935286 0.927459 0.474617
0.126864 0.247318 0.741253
0.126726 0.24715 0.740963
0.137682 0.246098 0.741222
0.40882 0.240787 0.773999
0.723507 0.224445 0.767529
0.914122 0.23534 0.773312
0.913924 0.233494 0.77055
0.913817 0.232685 0.76936
0.913771 0.232349 0.768872
0.125994 0.246143 0.739574
0.125856 0.245975 0.73933
0.125673 0.245731 0.738994
0.373617 0.246479 0.765423
0.715206 0.223575 0.766171
0.914015 0.234257 0.771679
0.913787 0.232471 0.769055
0.91368 0.23154 0.767681
0.913649 0.23125 0.767208
0.124895 0.244694 0.737545
0.124773 0.244526 0.737301
0.124651 0.244343 0.737057
0.338308 0.247532 0.755856
0.704692 0.222431 0.764355
0.908812 0.232395 0.76968
0.913634 0.231128 0.767025
0.913527 0.230213 0.765652
0.913497 0.229847 0.765148
0.131411 0.383749 0.743206
0.130694 0.378424 0.742657
0.129656 0.371237 0.741711
0.234516 0.352972 0.752392
0.667185 0.249058 0.754299
0.893034 0.227176 0.764004
0.913207 0.227497 0.761624
0.913176 0.226688 0.760281
0.913176 0.226413 0.759808
0.186862 0.615488 0.768948
0.186465 0.613092 0.768566
0.185779 0.610056 0.767849
0.184237 0.601877 0.766384
0.575723 0.607721 0.791806
0.862196 0.543969 0.76878
0.92285 0.491279 0.75494
0.920989 0.466392 0.750057
0.920134 0.457252 0.748241
0.213718 0.782742 0.770367
0.213321 0.781323 0.769985
0.212955 0.779553 0.769589
0.212039 0.775051 0.768658
0.330526 0.770932 0.773434
0.790875 0.806226 0.805356
0.936278 0.789364 0.796078
0.936522 0.779004 0.793378
0.936507 0.775006 0.792309
0.227726 0.870344 0.754711
0.22768 0.870314 0.754498
0.227619 0.870268 0.754223
0.227008 0.868605 0.753689
0.224033 0.860136 0.751705
0.702022 0.906935 0.792416
0.899107 0.914961 0.796902
0.937896 0.9093 0.794842
0.937636 0.906661 0.793912
0.226169 0.869291 0.746319
0.226108 0.869261 0.746014
0.226047 0.869215 0.745678
0.225879 0.869093 0.744732
0.225483 0.868818 0.742443
0.644388 0.9178 0.776638
0.87361 0.949828 0.790066
0.937957 0.952621 0.789715
0.938643 0.9523 0.78912
0.225605 0.868894 0.743099
0.225544 0.868864 0.742809
0.225483 0.868818 0.742458
0.225345 0.868727 0.74168
0.224933 0.868437 0.739361
0.621927 0.913756 0.770825
0.862669 0.949142 0.785611
0.929854 0.951782 0.785824
0.938537 0.952255 0.78558
0.14667 0.297307 0.826261
0.14667 0.297307 0.826139
0.146654 0.297307 0.826017
0.396155 0.308675 0.855375
0.72047 0.284627 0.855497
0.916487 0.298405 0.862608
0.918822 0.298466 0.861524
0.918822 0.298466 0.861036
0.918853 0.298466 0.860838
0.146639 0.297292 0.825589
0.146639 0.297276 0.825513
0.146624 0.297276 0.825406
0.37203 0.309438 0.851164
0.712856 0.285222 0.854765
0.911788 0.297978 0.861677
0.918853 0.298466 0.860914
0.918853 0.298466 0.86038
0.918868 0.298482 0.860182
0.146609 0.297261 0.824842
0.146609 0.297261 0.824735
0.146609 0.297261 0.824598
0.340627 0.308965 0.846754
0.702617 0.285466 0.853712
0.905837 0.297322 0.860471
0.918868 0.298482 0.860121
0.918868 0.298482 0.859571
0.918868 0.298482 0.859373
0.152621 0.383139 0.82536
0.151217 0.37496 0.824521
0.149615 0.363897 0.823606
0.222263 0.331228 0.834699
0.671336 0.284611 0.850431
0.889342 0.295445 0.85658
0.918883 0.298497 0.858015
0.918898 0.298497 0.857466
0.918898 0.298497 0.857267
0.200305 0.617105 0.842924
0.199634 0.614572 0.842496
0.198932 0.611429 0.841978
0.196735 0.602258 0.84036
0.56286 0.611246 0.875837
0.850248 0.551095 0.86186
0.922072 0.51928 0.859464
0.920546 0.498863 0.856138
0.920058 0.491096 0.855085
0.237171 0.783642 0.853712
0.236637 0.782238 0.853376
0.236286 0.780636 0.853117
0.234577 0.775876 0.852003
0.3075 0.770962 0.856626
0.787732 0.809277 0.905303
0.938201 0.792935 0.900465
0.938186 0.782483 0.89781
0.938186 0.77882 0.896849
0.266972 0.878752 0.854383
0.266423 0.877653 0.854109
0.265782 0.87631 0.853788
0.264103 0.872816 0.852918
0.259846 0.864088 0.85069
0.707607 0.905241 0.898253
0.895537 0.917494 0.910399
0.942199 0.911742 0.909575
0.942031 0.909087 0.908919
0.26775 0.882658 0.850065
0.26775 0.882643 0.849897
0.267735 0.882628 0.849699
0.267659 0.882567 0.84918
0.267506 0.882445 0.847959
0.658091 0.928237 0.888426
0.873289 0.959976 0.909468
0.935699 0.956847 0.909514
0.943145 0.955001 0.908736
0.267536 0.882475 0.848264
0.267521 0.88246 0.848127
0.267506 0.882445 0.847974
0.267445 0.882399 0.847501
0.267277 0.882246 0.84622
0.633112 0.923644 0.882689
0.86186 0.960479 0.906691
0.928679 0.963592 0.907851
0.943771 0.963912 0.907347
0.1467 0.297337 0.827985
0.1467 0.297337 0.827985
0.1467 0.297337 0.827985
0.377081 0.309453 0.854856
0.71426 0.28513 0.858503
0.912795 0.298131 0.866804
0.918853 0.298512 0.867018
0.918853 0.298512 0.867018
0.918853 0.298512 0.867018
0.1467 0.297337 0.827985
0.1467 0.297337 0.827985
0.1467 0.297337 0.827985
0.351614 0.309392 0.851698
0.706325 0.285557 0.858396
0.908019 0.297627 0.866499
0.918853 0.298512 0.867018
0.918853 0.298512 0.867018
0.918853 0.298512 0.867018
0.1467 0.297337 0.827985
0.1467 0.297337 0.827985
0.1467 0.297337 0.827985
0.317754 0.308263 0.848386
0.695613 0.28542 0.858015
0.901961 0.296925 0.865843
0.918853 0.298512 0.867018
0.918853 0.298512 0.867018
0.918853 0.298512 0.867018
0.147738 0.344091 0.82797
0.146792 0.332265 0.82739
0.145998 0.317372 0.826917
0.186725 0.299565 0.83444
0.662409 0.284566 0.856947
0.885313 0.295109 0.864302
0.918853 0.298512 0.867018
0.918853 0.298512 0.867018
0.918853 0.298512 0.867018
0.197772 0.606424 0.851942
0.197009 0.603601 0.851484
0.196292 0.600504 0.851118
0.194247 0.591745 0.85008
0.548196 0.597757 0.885588
0.844755 0.537728 0.873213
0.920897 0.503883 0.871855
0.919646 0.483207 0.869841
0.919341 0.475608 0.869352
0.241184 0.779522 0.872038
0.240879 0.778134 0.871855
0.240497 0.776425 0.871611
0.239384 0.771878 0.871015
0.288472 0.763668 0.873442
0.780438 0.803052 0.925902
0.935409 0.787488 0.922896
0.93724 0.77763 0.920989
0.937331 0.773953 0.920272
0.275166 0.876249 0.881254
0.274708 0.875181 0.881056
0.274159 0.873899 0.880842
0.272862 0.870619 0.880308
0.26949 0.862394 0.878706
0.70425 0.901549 0.925994
0.891325 0.914092 0.938231
0.941344 0.907698 0.937148
0.941238 0.905333 0.936706
0.278935 0.884779 0.878614
0.278935 0.884779 0.878508
0.278935 0.884779 0.87837
0.278935 0.884779 0.878019
0.278935 0.884779 0.877165
0.654688 0.928878 0.917632
0.869718 0.957015 0.938582
0.932662 0.953399 0.939178
0.943755 0.951904 0.938842
0.278935 0.884779 0.877409
0.278935 0.884779 0.877302
0.278935 0.884779 0.877165
0.278935 0.884779 0.876814
0.278935 0.884779 0.876051
0.63154 0.924834 0.913252
0.859541 0.961685 0.937453
0.925902 0.964355 0.938872
0.944472 0.965179 0.939071
0.1467 0.297337 0.827985
0.1467 0.297337 0.827985
0.1467 0.297337 0.827985
0.369757 0.30956 0.853742
0.712077 0.285298 0.858457
0.911376 0.297993 0.866728
0.918853 0.298512 0.867018
0.918853 0.298512 0.867018
0.918853 0.298512 0.867018
0.1467 0.297337 0.827985
0.1467 0.297337 0.827985
0.1467 0.297337 0.827985
0.344045 0.309148 0.850904
0.703777 0.285588 0.858335
0.906569 0.297475 0.866361
0.918853 0.298512 0.867018
0.918853 0.298512 0.867018
0.918853 0.298512 0.867018
0.1467 0.297337 0.827985
0.1467 0.297337 0.827985
0.1467 0.297337 0.827985
0.309102 0.307836 0.847639
0.692897 0.285344 0.857908
0.900465 0.296712 0.86569
0.918853 0.298512 0.867018
0.918853 0.298512 0.867018
0.918853 0.298512 0.867018
0.146456 0.326833 0.827207
0.145876 0.314458 0.826871
0.146456 0.298878 0.827741
0.173266 0.298482 0.83183
0.659358 0.284535 0.856886
0.883894 0.294972 0.86424
0.918853 0.298512 0.867018
0.918853 0.298512 0.867018
0.918853 0.298512 0.867018
0.196811 0.602457 0.851392
0.196155 0.599878 0.851041
0.195377 0.596597 0.850645
0.193378 0.58793 0.849653
0.543008 0.592721 0.88484
0.842939 0.532799 0.872557
0.920562 0.498024 0.871214
0.91931 0.477119 0.869383
0.919127 0.469017 0.868894
0.240742 0.777508 0.871763
0.240436 0.776104 0.87158
0.239994 0.774426 0.871275
0.238697 0.769787 0.870634
0.276341 0.759823 0.871611
0.777996 0.800458 0.925399
0.934203 0.784482 0.922316
0.937346 0.774746 0.920455
0.937224 0.770947 0.919554
0.27451 0.874708 0.881163
0.274083 0.873671 0.881102
0.273594 0.87248 0.881025
0.272251 0.869093 0.880827
0.268864 0.860792 0.880247
0.700664 0.899153 0.928054
0.889525 0.912322 0.941955
0.941131 0.905684 0.94136
0.941085 0.903319 0.941176
0.278889 0.884764 0.882002
0.278889 0.884764 0.882002
0.278889 0.884764 0.882002
0.278889 0.884764 0.882002
0.278889 0.884764 0.882002
0.651133 0.928191 0.923171
0.867826 0.955261 0.945586
0.931212 0.951766 0.946639
0.943694 0.950301 0.946609
0.278889 0.884764 0.882002
0.278889 0.884764 0.882002
0.278889 0.884764 0.882002
0.278889 0.884764 0.882002
0.278889 0.884764 0.882002
0.627741 0.924178 0.920027
0.857847 0.961501 0.945724
0.924575 0.964263 0.947723
0.944427 0.965133 0.948104
