Camera18_LUT_V0/luts/ricoh-negative.cube
TITLE "Camera18 V0 - Ricoh Negative Film inspired"
LUT_3D_SIZE 5
DOMAIN_MIN 0.0 0.0 0.0
DOMAIN_MAX 1.0 1.0 1.0
# Original Camera 18 V0 approximation; input expected normalized display-referred RGB.
# Muted negative-film direction with cool/cyan shadows and warm highlights.
0.000000 0.020000 0.030000
0.212056 0.020705 0.028040
0.405763 0.032348 0.042806
0.603118 0.044648 0.058445
0.868061 0.061914 0.080516
0.029939 0.203597 0.024892
0.204573 0.205935 0.027208
0.442706 0.232833 0.041601
0.691204 0.252174 0.056359
0.940895 0.267578 0.071193
0.078372 0.463670 0.046859
0.287414 0.473466 0.050716
0.474700 0.461773 0.051167
0.733147 0.490221 0.066389
0.999162 0.512840 0.081601
0.130822 0.738686 0.069319
0.357446 0.751496 0.072431
0.582042 0.766152 0.078239
0.774292 0.742194 0.076242
1.000000 0.770496 0.092113
0.188405 1.000000 0.092812
0.425936 1.000000 0.095032
0.642320 1.000000 0.098419
0.850680 1.000000 0.100183
1.000000 0.974541 0.096468
0.007385 0.031185 0.244402
0.199000 0.020177 0.220604
0.401529 0.029436 0.228956
0.612560 0.041920 0.246203
0.876848 0.058772 0.280773
0.000000 0.203320 0.191746
0.209713 0.220144 0.221262
0.448162 0.245798 0.250848
0.697409 0.268608 0.277792
0.949454 0.288905 0.302292
0.016178 0.463530 0.208380
0.271540 0.471754 0.258374
0.477228 0.474416 0.267036
0.740209 0.503091 0.288695
1.000000 0.523279 0.307806
0.044471 0.736936 0.216665
0.338283 0.751488 0.295053
0.570422 0.765263 0.303849
0.778526 0.756868 0.308935
1.000000 0.783360 0.327329
0.075911 1.000000 0.224181
0.401483 1.000000 0.325911
0.625420 1.000000 0.323573
0.835908 1.000000 0.325391
1.000000 0.978444 0.322456
0.021975 0.049864 0.433961
0.200295 0.034702 0.418537
0.384740 0.031832 0.407936
0.624765 0.042158 0.447332
0.886009 0.057588 0.489785
0.008587 0.243095 0.426891
0.228962 0.246397 0.444064
0.439540 0.244932 0.455111
0.698200 0.266160 0.492604
0.952371 0.285963 0.520086
0.000000 0.465841 0.435010
0.230389 0.472669 0.456211
0.480561 0.487969 0.486272
0.745280 0.517410 0.520090
1.000000 0.542806 0.550026
0.018153 0.739723 0.444076
0.270455 0.751307 0.470796
0.551916 0.761827 0.527850
0.782475 0.771394 0.544066
1.000000 0.795259 0.564568
0.048554 1.000000 0.455938
0.311149 1.000000 0.483578
0.602255 1.000000 0.548167
0.819440 1.000000 0.546256
1.000000 0.982540 0.545633
0.035900 0.068852 0.622661
0.205159 0.048550 0.612592
0.386924 0.046615 0.601348
0.611456 0.047005 0.638845
0.895028 0.057932 0.705554
0.026176 0.271777 0.659476
0.250819 0.275511 0.679499
0.454100 0.265230 0.689447
0.682604 0.268572 0.702206
0.955799 0.286488 0.746034
0.010149 0.518309 0.708656
0.249834 0.510573 0.715384
0.499020 0.513526 0.729297
0.732464 0.513701 0.741218
1.000000 0.541701 0.785267
0.000389 0.743347 0.691894
0.250523 0.754165 0.717926
0.507725 0.763085 0.742629
0.786805 0.786411 0.782026
1.000000 0.801985 0.802162
0.021693 1.000000 0.702807
0.282034 1.000000 0.720742
0.533655 1.000000 0.727485
0.796952 0.996493 0.763552
1.000000 0.986818 0.766200
0.049644 0.087941 0.811140
0.211101 0.062300 0.804623
0.413052 0.063644 0.835801
0.635064 0.065441 0.873629
0.869479 0.064437 0.901852
0.044224 0.301084 0.900234
0.272064 0.304213 0.921167
0.469732 0.285463 0.929778
0.695936 0.288729 0.942464
0.930949 0.290247 0.954664
0.028829 0.541955 0.952505
0.273409 0.541155 0.968227
0.524815 0.546449 0.986429
0.748353 0.536369 0.996265
0.999153 0.542629 1.000000
0.013172 0.820881 1.000000
0.269659 0.813113 1.000000
0.532266 0.806482 1.000000
0.799830 0.807209 1.000000
1.000000 0.793677 1.000000
0.005269 1.000000 0.965331
0.262101 1.000000 0.973908
0.510377 1.000000 0.972432
0.751580 0.995117 0.972356
0.995939 0.989030 0.982121
