Camera18_LUT_V0/luts/ricoh-negative.cube
TITLE "Camera18 V0 - Ricoh Negative Film inspired"
LUT_3D_SIZE 9
DOMAIN_MIN 0.0 0.0 0.0
DOMAIN_MAX 1.0 1.0 1.0
# Original Camera 18 V0 approximation; input expected normalized display-referred RGB.
# Muted negative-film direction with cool/cyan shadows and warm highlights.
0.000000 0.020000 0.030000
0.113252 0.015411 0.021444
0.212056 0.020705 0.028040
0.309145 0.026458 0.035324
0.405763 0.032348 0.042806
0.502184 0.038306 0.050376
0.603118 0.044648 0.058445
0.737085 0.053405 0.069654
0.868061 0.061914 0.080516
0.011513 0.110153 0.018062
0.097252 0.105263 0.018377
0.198819 0.109771 0.023819
0.298384 0.113276 0.029299
0.406731 0.119712 0.035711
0.530043 0.129058 0.043358
0.655968 0.137601 0.051132
0.783717 0.145604 0.059008
0.908537 0.152546 0.066697
0.029939 0.203597 0.024892
0.120979 0.208893 0.026724
0.204573 0.205935 0.027208
0.322020 0.221212 0.034409
0.442706 0.232833 0.041601
0.565976 0.242956 0.048930
0.691204 0.252174 0.056359
0.817942 0.260780 0.063890
0.940895 0.267578 0.071193
0.053669 0.331925 0.035867
0.154269 0.337749 0.037413
0.253940 0.344391 0.040144
0.339367 0.333779 0.039310
0.462662 0.348246 0.046728
0.587235 0.359480 0.053959
0.713155 0.369440 0.061326
0.840182 0.378612 0.068780
0.964188 0.385691 0.076030
0.078372 0.463670 0.046859
0.184112 0.467912 0.048020
0.287414 0.473466 0.050716
0.391033 0.479111 0.052630
0.474700 0.461773 0.051167
0.601130 0.476033 0.058811
0.733147 0.490221 0.066389
0.868370 0.503604 0.074145
0.999162 0.512840 0.081601
0.103260 0.595565 0.057772
0.212329 0.598819 0.058757
0.320294 0.606803 0.061262
0.429296 0.615015 0.064402
0.539391 0.623235 0.065404
0.621110 0.599187 0.063573
0.757037 0.617426 0.071755
0.893718 0.631912 0.079485
1.000000 0.641416 0.086892
0.130822 0.738686 0.069319
0.245386 0.744511 0.070414
0.357446 0.751496 0.072431
0.469371 0.758924 0.075533
0.582042 0.766152 0.078239
0.695792 0.773466 0.078340
0.774292 0.742194 0.076242
0.913184 0.760128 0.084664
1.000000 0.770496 0.092113
0.159564 0.886167 0.081047
0.277581 0.891047 0.082144
0.392687 0.897016 0.083724
0.507058 0.903721 0.086627
0.621832 0.910349 0.089828
0.736815 0.917099 0.091753
0.850075 0.920178 0.090909
0.927673 0.885457 0.088977
1.000000 0.885365 0.095727
0.188405 1.000000 0.092812
0.309099 1.000000 0.093987
0.425936 1.000000 0.095032
0.535395 1.000000 0.096442
0.642320 1.000000 0.098419
0.747547 1.000000 0.100221
0.850680 1.000000 0.100183
0.953824 1.000000 0.098302
1.000000 0.974541 0.096468
0.000000 0.022399 0.147959
0.104676 0.014829 0.126863
0.208783 0.019026 0.126652
0.306461 0.024491 0.129771
0.403443 0.030413 0.135263
0.500107 0.036426 0.141647
0.607968 0.043281 0.151300
0.741125 0.051910 0.166357
0.872580 0.060401 0.179997
0.000000 0.109861 0.105497
0.096461 0.108717 0.110936
0.197319 0.113462 0.117410
0.296565 0.118661 0.124309
0.414331 0.130231 0.137921
0.538222 0.141754 0.151581
0.664601 0.152625 0.164622
0.792711 0.163049 0.177235
0.918835 0.172572 0.188914
0.003026 0.203708 0.094876
0.114481 0.208904 0.117498
0.207178 0.213022 0.123012
0.325013 0.227010 0.133444
0.445553 0.237519 0.142910
0.568628 0.246914 0.152099
0.693664 0.255653 0.161146
0.820224 0.263941 0.170103
0.943603 0.270677 0.178214
0.015275 0.331127 0.101422
0.145689 0.337771 0.136505
0.248711 0.344022 0.140550
0.341122 0.340362 0.142890
0.464717 0.354160 0.151981
0.589281 0.364647 0.160485
0.715094 0.373990 0.168882
0.841997 0.382685 0.177218
0.968790 0.390402 0.185284
0.028393 0.462607 0.105266
0.174133 0.468042 0.151678
0.281018 0.472480 0.154241
0.386053 0.478769 0.158542
0.476000 0.468114 0.158791
0.603426 0.482534 0.167678
0.736799 0.496858 0.177006
0.872002 0.509615 0.186240
1.000000 0.518295 0.194300
0.041698 0.594353 0.107316
0.201517 0.599529 0.165374
0.313416 0.606327 0.168033
0.423727 0.614960 0.172658
0.534922 0.623725 0.176500
0.623686 0.606762 0.175858
0.759884 0.624549 0.185496
0.896678 0.638572 0.194416
1.000000 0.647472 0.202202
0.056187 0.735539 0.109542
0.233669 0.745441 0.181176
0.349565 0.750951 0.183206
0.463014 0.758310 0.186914
0.576701 0.765954 0.191356
0.691006 0.773915 0.193641
0.776447 0.749550 0.192268
0.915573 0.767169 0.201765
1.000000 0.777005 0.209459
0.071601 0.882867 0.111329
0.265017 0.891917 0.195870
0.383967 0.896524 0.197585
0.500016 0.902814 0.200505
0.615578 0.909854 0.204659
0.731525 0.916850 0.208405
0.842210 0.917478 0.208018
0.924994 0.888320 0.206700
1.000000 0.887035 0.211690
0.087108 1.000000 0.112345
0.295836 1.000000 0.209909
0.415407 1.000000 0.210583
0.526515 1.000000 0.210215
0.634165 1.000000 0.211353
0.739760 1.000000 0.212861
0.843361 1.000000 0.213223
0.946409 1.000000 0.211340
1.000000 0.976467 0.209827
0.007385 0.031185 0.244402
0.103311 0.022205 0.230505
0.199000 0.020177 0.220604
0.304371 0.024018 0.225772
0.401529 0.029436 0.228956
0.498218 0.034900 0.233412
0.612560 0.041920 0.246203
0.744849 0.050330 0.264463
0.876848 0.058772 0.280773
0.000065 0.121404 0.212475
0.101471 0.116650 0.209430
0.191794 0.112126 0.207439
0.296333 0.117379 0.216481
0.415947 0.129050 0.234139
0.539725 0.140342 0.250723
0.666003 0.151092 0.266141
0.793999 0.161431 0.280680
0.921271 0.171120 0.293966
0.000000 0.203320 0.191746
0.096709 0.209736 0.204311
0.209713 0.220144 0.221262
0.327119 0.233454 0.236503
0.448162 0.245798 0.250848
0.571817 0.257455 0.264555
0.697409 0.268608 0.277792
0.824478 0.279383 0.290675
0.949454 0.288905 0.302292
0.003508 0.332395 0.202669
0.115515 0.337686 0.214702
0.240435 0.342513 0.240228
0.342754 0.346878 0.247541
0.466618 0.359650 0.258201
0.590948 0.369089 0.267712
0.716566 0.377754 0.277026
0.843317 0.386010 0.286256
0.973060 0.394532 0.295880
0.016178 0.463530 0.208380
0.133160 0.467576 0.221434
0.271540 0.471754 0.258374
0.379895 0.477570 0.263249
0.477228 0.474416 0.267036
0.606848 0.489646 0.277837
0.740209 0.503091 0.288695
0.875290 0.515109 0.299220
1.000000 0.523279 0.307806
0.029671 0.595095 0.211749
0.149374 0.598336 0.225765
0.303241 0.606703 0.276005
0.416969 0.613826 0.280449
0.529914 0.623506 0.287252
0.626157 0.614280 0.289050
0.762670 0.631586 0.300088
0.899523 0.645009 0.310116
1.000000 0.653232 0.318163
0.044471 0.736936 0.216665
0.168692 0.743332 0.232608
0.338283 0.751488 0.295053
0.455330 0.757057 0.298174
0.570422 0.765263 0.303849
0.685933 0.773928 0.308841
0.778526 0.756868 0.308935
0.917906 0.774116 0.319473
1.000000 0.783360 0.327329
0.060120 0.884081 0.221087
0.187237 0.889533 0.237402
0.371797 0.897139 0.312218
0.491530 0.901688 0.314623
0.608625 0.908676 0.319139
0.725659 0.916191 0.324513
0.834332 0.914649 0.324372
0.921149 0.890029 0.323353
1.000000 0.888700 0.326790
0.075911 1.000000 0.224181
0.205125 1.000000 0.240782
0.401483 1.000000 0.325911
0.516250 1.000000 0.323966
0.625420 1.000000 0.323573
0.731596 1.000000 0.324607
0.835908 1.000000 0.325391
0.938962 1.000000 0.323822
1.000000 0.978444 0.322456
0.014841 0.040453 0.339391
0.104585 0.029176 0.330305
0.198595 0.027706 0.320134
0.292044 0.025940 0.314274
0.399992 0.029195 0.323216
0.496871 0.034669 0.326885
0.618642 0.041868 0.345518
0.749448 0.049621 0.365648
0.881174 0.057534 0.383620
0.008104 0.129440 0.311340
0.107872 0.125920 0.307818
0.194155 0.118683 0.305475
0.291217 0.119066 0.308345
0.419355 0.129855 0.335335
0.542307 0.140173 0.353320
0.667721 0.149987 0.369544
0.795260 0.159859 0.385186
0.923610 0.169593 0.400023
0.000336 0.230009 0.315192
0.106742 0.229632 0.322437
0.217720 0.231624 0.329536
0.321360 0.231830 0.334938
0.448126 0.244490 0.354687
0.571509 0.255515 0.369089
0.697230 0.266643 0.383648
0.824402 0.277435 0.397736
0.950925 0.287410 0.410646
0.000000 0.334043 0.312996
0.106579 0.338990 0.324696
0.220745 0.343086 0.335793
0.344555 0.353610 0.353438
0.467347 0.365544 0.367367
0.591951 0.377008 0.380861
0.717988 0.388106 0.394015
0.848296 0.400235 0.408287
0.981358 0.412272 0.422606
0.004178 0.464517 0.318213
0.120828 0.468382 0.329064
0.239766 0.471721 0.340751
0.370285 0.474933 0.366600
0.478388 0.480682 0.375860
0.610068 0.496286 0.389183
0.743099 0.508475 0.401236
0.877944 0.519677 0.412918
1.000000 0.527600 0.422244
0.016749 0.595844 0.321249
0.136863 0.599217 0.332912
0.260320 0.605889 0.348357
0.407056 0.613030 0.389003
0.523357 0.622087 0.396565
0.628528 0.621746 0.403097
0.765408 0.638468 0.415526
0.902188 0.651052 0.426531
1.000000 0.658556 0.434731
0.031218 0.738295 0.327852
0.156387 0.744558 0.342129
0.283330 0.750212 0.358235
0.444430 0.756924 0.410685
0.562746 0.763305 0.415485
0.680202 0.773109 0.423375
0.780534 0.764148 0.426210
0.920221 0.781000 0.437792
1.000000 0.789491 0.445703
0.046751 0.885238 0.333911
0.175190 0.890613 0.348799
0.304497 0.895514 0.365394
0.479751 0.901896 0.429915
0.600231 0.906776 0.433287
0.718776 0.914976 0.439797
0.826350 0.911551 0.439801
0.917409 0.891799 0.439102
1.000000 0.890357 0.441070
0.062627 1.000000 0.338330
0.193413 1.000000 0.353790
0.324328 1.000000 0.370612
0.502707 1.000000 0.437987
0.615397 1.000000 0.435514
0.722926 1.000000 0.435455
0.828060 1.000000 0.436457
0.931463 1.000000 0.435667
1.000000 0.980468 0.434383
0.021975 0.049864 0.433961
0.106791 0.036073 0.428142
0.200295 0.034702 0.418537
0.291887 0.033607 0.411919
0.384740 0.031832 0.407936
0.496050 0.034490 0.420381
0.624765 0.042158 0.447332
0.754907 0.049859 0.469997
0.886009 0.057588 0.489785
0.015835 0.138247 0.409000
0.114353 0.135263 0.405305
0.197794 0.125511 0.403967
0.300665 0.129356 0.417428
0.409685 0.131939 0.429196
0.545620 0.140944 0.458739
0.670891 0.150595 0.476793
0.797888 0.159917 0.493259
0.926169 0.169001 0.508546
0.008587 0.243095 0.426891
0.117346 0.243895 0.435874
0.228962 0.246397 0.444064
0.328238 0.242010 0.448501
0.439540 0.244932 0.455111
0.573144 0.256019 0.478163
0.698200 0.266160 0.492604
0.824697 0.275997 0.506349
0.952371 0.285963 0.520086
0.000896 0.368712 0.453603
0.114811 0.365353 0.457783
0.231421 0.362499 0.461797
0.350195 0.362923 0.466397
0.459332 0.362164 0.470208
0.590872 0.375006 0.489237
0.716710 0.385575 0.502372
0.848490 0.398304 0.518545
0.983807 0.411219 0.535148
0.000000 0.465841 0.435010
0.112663 0.469507 0.445788
0.230389 0.472669 0.456211
0.349673 0.475413 0.466339
0.480561 0.487969 0.486272
0.611703 0.503008 0.503472
0.745280 0.517410 0.520090
0.880891 0.531284 0.536223
1.000000 0.542806 0.550026
0.004981 0.596659 0.436277
0.124772 0.600801 0.447389
0.247876 0.607198 0.460752
0.373836 0.612932 0.474913
0.512650 0.618643 0.504028
0.630806 0.629161 0.517950
0.768013 0.644900 0.531774
0.904362 0.656211 0.543445
1.000000 0.663176 0.551935
0.018153 0.739723 0.444076
0.143141 0.745801 0.457060
0.270455 0.751307 0.470796
0.399679 0.756316 0.486260
0.551916 0.761827 0.527850
0.672689 0.770879 0.536053
0.782475 0.771394 0.544066
0.922537 0.787754 0.556739
1.000000 0.795259 0.564568
0.032983 0.886419 0.450927
0.161562 0.891668 0.464260
0.291810 0.896482 0.478749
0.423096 0.900900 0.495128
0.588748 0.906244 0.548815
0.709189 0.910889 0.553056
0.817983 0.907901 0.553874
0.913771 0.893629 0.553981
1.000000 0.892005 0.554573
0.048554 1.000000 0.455938
0.179764 1.000000 0.469849
0.311149 1.000000 0.483578
0.437369 1.000000 0.493624
0.602255 1.000000 0.548167
0.713067 1.000000 0.545567
0.819440 1.000000 0.546256
0.923797 1.000000 0.546683
1.000000 0.982540 0.545633
0.028974 0.059339 0.528355
0.109513 0.042931 0.524893
0.202543 0.041644 0.515911
0.294001 0.040582 0.509419
0.384508 0.039659 0.504439
0.482807 0.038229 0.507403
0.630450 0.042418 0.550752
0.760021 0.050073 0.575608
0.890647 0.057768 0.597201
0.023323 0.147359 0.505874
0.122487 0.146574 0.508789
0.207008 0.135982 0.515881
0.310905 0.139426 0.530379
0.418311 0.142121 0.542077
0.531265 0.143621 0.553044
0.673902 0.151183 0.584988
0.800778 0.160408 0.602843
0.928930 0.169416 0.619314
0.017288 0.257241 0.541908
0.127753 0.258638 0.551991
0.239981 0.261016 0.560854
0.336140 0.252471 0.564769
0.445960 0.255045 0.571003
0.560197 0.257084 0.577775
0.700014 0.266807 0.603901
0.826493 0.276532 0.618565
0.954076 0.286022 0.632537
0.009438 0.379884 0.570727
0.124823 0.377489 0.575899
0.242603 0.376246 0.580901
0.360992 0.377381 0.585888
0.464966 0.371856 0.588392
0.580290 0.374277 0.593105
0.717619 0.385868 0.615358
0.850264 0.398178 0.632426
0.986348 0.410595 0.649687
0.001627 0.508314 0.588334
0.119658 0.503496 0.591116
0.239248 0.498741 0.593751
0.360601 0.494834 0.596521
0.485891 0.496915 0.603036
0.601993 0.498148 0.609305
0.744287 0.515278 0.633394
0.879705 0.528581 0.649817
1.000000 0.541620 0.666087
0.000000 0.597797 0.557043
0.117622 0.602883 0.569376
0.239904 0.609013 0.582903
0.364591 0.614492 0.595974
0.491365 0.619407 0.608650
0.633528 0.637047 0.634079
0.768658 0.651098 0.650357
0.905407 0.664734 0.666255
1.000000 0.675681 0.679490
0.006561 0.741271 0.565173
0.131119 0.747160 0.577928
0.257868 0.752491 0.590575
0.386654 0.757337 0.603382
0.517419 0.761766 0.617133
0.660577 0.766266 0.646365
0.784351 0.778606 0.662474
0.924760 0.794069 0.676293
1.000000 0.798021 0.681893
0.019907 0.887669 0.572371
0.148157 0.892779 0.584786
0.278167 0.897467 0.597565
0.409806 0.901783 0.611177
0.542760 0.905769 0.626608
0.696259 0.907080 0.666474
0.808282 0.903341 0.665702
0.910230 0.895517 0.668028
1.000000 0.893577 0.667357
0.034654 1.000000 0.577449
0.165721 1.000000 0.590114
0.296454 1.000000 0.600009
0.423519 1.000000 0.606188
0.548102 1.000000 0.614436
0.700290 1.000000 0.656636
0.809616 1.000000 0.654653
0.915642 0.999016 0.656397
1.000000 0.984657 0.656231
0.035900 0.068852 0.622661
0.112550 0.049766 0.620981
0.205159 0.048550 0.612592
0.296459 0.047521 0.606300
0.386924 0.046615 0.601348
0.495547 0.047592 0.620760
0.611456 0.047005 0.638845
0.764764 0.050343 0.682461
0.895028 0.057932 0.705554
0.030797 0.157410 0.605224
0.133315 0.161172 0.625987
0.215705 0.146324 0.630653
0.320544 0.149431 0.645793
0.428529 0.151894 0.658187
0.538918 0.153866 0.668485
0.654814 0.154562 0.678798
0.803526 0.160870 0.713136
0.931567 0.169809 0.730684
0.026176 0.271777 0.659476
0.137967 0.273406 0.670220
0.250819 0.275511 0.679499
0.343814 0.262849 0.682584
0.454100 0.265230 0.689447
0.565993 0.267243 0.695349
0.682604 0.268572 0.702206
0.828230 0.277065 0.731292
0.955799 0.286488 0.746034
0.018538 0.392422 0.689641
0.135042 0.390870 0.695579
0.253458 0.390566 0.701247
0.371671 0.391766 0.706549
0.472114 0.382174 0.708740
0.585364 0.384053 0.712417
0.702654 0.385863 0.717448
0.853202 0.399419 0.749126
0.989329 0.411680 0.767647
0.010149 0.518309 0.708656
0.129212 0.514173 0.712072
0.249834 0.510573 0.715384
0.373410 0.510174 0.721380
0.499020 0.513526 0.729297
0.609083 0.509069 0.733601
0.732464 0.513701 0.741218
0.881496 0.529352 0.768936
1.000000 0.541701 0.785267
0.002712 0.653722 0.727624
0.125127 0.650744 0.732834
0.249614 0.647470 0.737712
0.376167 0.644212 0.742416
0.505100 0.641878 0.747335
0.636399 0.643753 0.753556
0.756761 0.644373 0.759019
0.903536 0.661887 0.783137
1.000000 0.674452 0.798384
0.000389 0.743347 0.691894
0.124459 0.749024 0.705098
0.250523 0.754165 0.717926
0.378345 0.758833 0.730423
0.507725 0.763085 0.742629
0.638494 0.766967 0.754576
0.786805 0.786411 0.782026
0.924647 0.799821 0.797701
1.000000 0.801985 0.802162
0.008501 0.889023 0.697913
0.136315 0.893988 0.710172
0.265814 0.898547 0.722359
0.396828 0.902739 0.734536
0.529311 0.906606 0.746960
0.661267 0.907416 0.758101
0.794747 0.897304 0.775392
0.906783 0.897459 0.781277
1.000000 0.894885 0.779537
0.021693 1.000000 0.702807
0.152409 1.000000 0.714819
0.282034 1.000000 0.720742
0.408767 1.000000 0.723527
0.533655 1.000000 0.727485
0.656683 1.000000 0.733495
0.796952 0.996493 0.763552
0.906012 0.994399 0.763870
1.000000 0.986818 0.766200
0.042785 0.078387 0.716916
0.115795 0.056587 0.716633
0.208035 0.055433 0.708786
0.299171 0.054436 0.702721
0.400117 0.054997 0.716733
0.509784 0.056072 0.737684
0.621940 0.056824 0.754637
0.740381 0.055730 0.770330
0.898927 0.058387 0.815112
0.039327 0.172470 0.725434
0.143931 0.175598 0.745598
0.223986 0.156564 0.747724
0.329692 0.159385 0.763227
0.438230 0.161646 0.776080
0.548968 0.163473 0.786876
0.661448 0.164958 0.796044
0.779686 0.165016 0.805842
0.933994 0.170250 0.842687
0.035167 0.286429 0.779051
0.148040 0.288094 0.790161
0.261505 0.289904 0.799686
0.351290 0.273157 0.801732
0.462014 0.275367 0.809088
0.574229 0.277245 0.815465
0.687683 0.278850 0.821027
0.806293 0.279585 0.827940
0.957455 0.286934 0.859929
0.027855 0.405735 0.810043
0.145223 0.404801 0.816550
0.264049 0.404998 0.822676
0.382246 0.406087 0.828228
0.479146 0.392447 0.829938
0.592660 0.394216 0.834010
0.709619 0.397041 0.840459
0.834309 0.400463 0.850748
0.992223 0.412747 0.886289
0.019342 0.529670 0.830095
0.139242 0.526280 0.834047
0.261279 0.524992 0.840047
0.386471 0.526742 0.848775
0.511989 0.530033 0.857149
0.618172 0.521027 0.860895
0.739032 0.524644 0.867178
0.864975 0.528479 0.875218
1.000000 0.542745 0.906456
0.011358 0.665274 0.854113
0.135030 0.662686 0.860189
0.260805 0.660140 0.865980
0.388684 0.658128 0.871670
0.518707 0.657685 0.877581
0.649150 0.660129 0.883864
0.762884 0.654766 0.887028
0.889844 0.659008 0.893583
1.000000 0.675215 0.921259
0.004594 0.810192 0.877781
0.131049 0.805976 0.881866
0.259051 0.801569 0.885719
0.388490 0.797056 0.889407
0.519459 0.792743 0.893077
0.652380 0.789570 0.897132
0.787352 0.790976 0.902733
0.910742 0.791309 0.907809
1.000000 0.798382 0.919600
0.002789 0.890883 0.828556
0.130185 0.895697 0.841152
0.259075 0.900113 0.853468
0.389307 0.904172 0.865536
0.520746 0.907911 0.877380
0.649012 0.905415 0.883220
0.771357 0.896613 0.882817
0.903896 0.899909 0.894207
1.000000 0.897287 0.893852
0.010599 1.000000 0.831759
0.140837 1.000000 0.843604
0.269218 1.000000 0.845350
0.395278 1.000000 0.845891
0.519474 1.000000 0.846927
0.642052 1.000000 0.848643
0.763267 0.996790 0.851713
0.892366 0.988031 0.869058
1.000000 0.989021 0.875563
0.049644 0.087941 0.811140
0.119183 0.063401 0.811986
0.211101 0.062300 0.804623
0.306313 0.062193 0.809991
0.413052 0.063644 0.835801
0.522903 0.064691 0.856581
0.635064 0.065441 0.873629
0.748988 0.065967 0.887828
0.869479 0.064437 0.901852
0.048018 0.187292 0.847612
0.154381 0.189893 0.867084
0.231929 0.166721 0.866668
0.338431 0.169298 0.882341
0.447496 0.171381 0.895478
0.558579 0.173079 0.906618
0.671280 0.174471 0.916160
0.785298 0.175615 0.924402
0.905490 0.175136 0.933804
0.044224 0.301084 0.900234
0.158010 0.302684 0.911515
0.272064 0.304213 0.921167
0.358594 0.283406 0.922038
0.469732 0.285463 0.929778
0.582253 0.287220 0.936533
0.695936 0.288729 0.942464
0.810603 0.290028 0.947698
0.930949 0.290247 0.954664
0.037262 0.419484 0.931690
0.155318 0.418976 0.938609
0.274453 0.419425 0.945051
0.392731 0.420355 0.950797
0.486075 0.402679 0.951900
0.600739 0.404926 0.957705
0.720106 0.408608 0.967337
0.841165 0.411896 0.976036
0.968469 0.414531 0.986493
0.028829 0.541955 0.952505
0.149660 0.540095 0.958466
0.273409 0.541155 0.968227
0.399202 0.543379 0.977655
0.524815 0.546449 0.986429
0.627109 0.532917 0.989386
0.748353 0.536369 0.996265
0.870928 0.539500 1.000000
0.999153 0.542629 1.000000
0.020836 0.678162 0.982270
0.145659 0.676099 0.989131
0.272517 0.674333 0.995720
0.401329 0.673372 1.000000
0.531816 0.674009 1.000000
0.661792 0.676439 1.000000
0.771446 0.666564 1.000000
0.895359 0.669511 1.000000
1.000000 0.673114 1.000000
0.013172 0.820881 1.000000
0.140661 0.817011 1.000000
0.269659 0.813113 1.000000
0.400166 0.809441 1.000000
0.532266 0.806482 1.000000
0.666067 0.805292 1.000000
0.799830 0.807209 1.000000
0.914970 0.800247 1.000000
1.000000 0.793677 1.000000
0.006690 0.967122 1.000000
0.136031 0.961993 1.000000
0.266586 0.956738 1.000000
0.398288 0.951410 1.000000
0.525412 0.935998 1.000000
0.651162 0.921363 1.000000
0.775881 0.908152 1.000000
0.898880 0.898907 1.000000
1.000000 0.890397 1.000000
0.005269 1.000000 0.965331
0.134882 1.000000 0.975255
0.262101 1.000000 0.973908
0.387203 1.000000 0.972980
0.510377 1.000000 0.972432
0.631786 1.000000 0.972234
0.751580 0.995117 0.972356
0.869890 0.987482 0.972773
0.995939 0.989030 0.982121
