Camera18_LUT_V0/luts/ricoh-negative.cube
TITLE "Camera18 V0 - Ricoh Negative Film inspired"
LUT_3D_SIZE 33
DOMAIN_MIN 0.0 0.0 0.0
DOMAIN_MAX 1.0 1.0 1.0
# Original Camera 18 V0 approximation; input expected normalized display-referred RGB.
# Muted negative-film direction with cool/cyan shadows and warm highlights.
0.000000 0.020000 0.030000
0.029979 0.013811 0.020122
0.060675 0.013587 0.019403
0.087602 0.014334 0.020171
0.113252 0.015411 0.021444
0.138317 0.016639 0.022948
0.163065 0.017950 0.024578
0.187622 0.019311 0.026284
0.212056 0.020705 0.028040
0.236405 0.022122 0.029830
0.260693 0.023556 0.031644
0.284936 0.025002 0.033477
0.309145 0.026458 0.035324
0.333328 0.027922 0.037182
0.357489 0.029392 0.039050
0.381633 0.030868 0.040925
0.405763 0.032348 0.042806
0.429882 0.033833 0.044692
0.453990 0.035321 0.046583
0.478091 0.036812 0.048478
0.502184 0.038306 0.050376
0.526271 0.039803 0.052278
0.550353 0.041302 0.054182
0.574430 0.042803 0.056089
0.603118 0.044648 0.058445
0.636581 0.046842 0.061257
0.670064 0.049033 0.064062
0.703566 0.051220 0.066860
0.737085 0.053405 0.069654
0.770618 0.055587 0.072442
0.804164 0.057767 0.075226
0.837723 0.059946 0.078006
0.868061 0.061914 0.080516
0.000000 0.040534 0.015032
0.021964 0.037930 0.014599
0.051232 0.037932 0.015566
0.078789 0.038025 0.016690
0.105371 0.038332 0.017901
0.131332 0.038797 0.019172
0.156875 0.039376 0.020486
0.182121 0.040040 0.021830
0.207150 0.040768 0.023197
0.232014 0.041545 0.024580
0.256751 0.042359 0.025976
0.281388 0.043205 0.027382
0.305944 0.044075 0.028797
0.330434 0.044966 0.030217
0.354870 0.045873 0.031641
0.379262 0.046794 0.033067
0.403615 0.047727 0.034496
0.427936 0.048670 0.035927
0.452229 0.049622 0.037361
0.476498 0.050582 0.038796
0.500745 0.051549 0.040233
0.524974 0.052523 0.041672
0.549187 0.053501 0.043112
0.579148 0.055033 0.045001
0.611808 0.056796 0.047092
0.644544 0.058538 0.049180
0.677349 0.060261 0.051265
0.710214 0.061967 0.053348
0.743135 0.063659 0.055428
0.776106 0.065337 0.057508
0.809123 0.067003 0.059585
0.842182 0.068658 0.061661
0.871783 0.070045 0.063517
0.001688 0.063598 0.015313
0.026454 0.062637 0.015376
0.047882 0.060182 0.015217
0.074873 0.061074 0.016499
0.101223 0.061674 0.017790
0.127139 0.062270 0.019107
0.152734 0.062901 0.020439
0.178086 0.063574 0.021785
0.203246 0.064286 0.023146
0.228253 0.065033 0.024519
0.253136 0.065812 0.025904
0.277917 0.066618 0.027298
0.302614 0.067448 0.028701
0.327239 0.068299 0.030111
0.351803 0.069168 0.031528
0.376316 0.070053 0.032951
0.400783 0.070951 0.034378
0.425211 0.071863 0.035809
0.449606 0.072785 0.037245
0.473970 0.073718 0.038684
0.501076 0.075074 0.040348
0.532887 0.077094 0.042387
0.564835 0.079074 0.044427
0.596907 0.081020 0.046469
0.629089 0.082934 0.048513
0.661372 0.084821 0.050559
0.693745 0.086681 0.052604
0.726201 0.088518 0.054650
0.758732 0.090334 0.056697
0.791332 0.092130 0.058744
0.823994 0.093910 0.060792
0.856714 0.095673 0.062841
0.885731 0.097035 0.064653
0.006731 0.086846 0.016550
0.030617 0.086110 0.016611
0.053269 0.085826 0.016976
0.072718 0.082684 0.016677
0.098862 0.083976 0.018040
0.124638 0.084870 0.019362
0.150165 0.085679 0.020706
0.175492 0.086465 0.022059
0.200658 0.087249 0.023417
0.225693 0.088042 0.024782
0.250618 0.088848 0.026153
0.275450 0.089668 0.027531
0.300202 0.090503 0.028916
0.324887 0.091352 0.030309
0.349513 0.092215 0.031708
0.374087 0.093091 0.033112
0.398616 0.093978 0.034523
0.423534 0.094973 0.035975
0.454457 0.097261 0.037934
0.485583 0.099490 0.039900
0.516890 0.101665 0.041873
0.548361 0.103792 0.043852
0.579979 0.105876 0.045836
0.611730 0.107922 0.047825
0.643603 0.109932 0.049820
0.675586 0.111911 0.051819
0.707670 0.113862 0.053822
0.739847 0.115786 0.055830
0.772108 0.117686 0.057841
0.804448 0.119565 0.059856
0.836859 0.121423 0.061874
0.869337 0.123264 0.063896
0.897864 0.124559 0.065668
0.011513 0.110153 0.018062
0.034967 0.109524 0.018107
0.057288 0.109327 0.018502
0.079205 0.109283 0.018733
0.097252 0.105263 0.018377
0.122959 0.106802 0.019782
0.148402 0.107888 0.021113
0.173679 0.108858 0.022460
0.198819 0.109771 0.023819
0.223843 0.110658 0.025184
0.248769 0.111532 0.026552
0.273613 0.112404 0.027924
0.298384 0.113276 0.029299
0.323092 0.114153 0.030679
0.347746 0.115036 0.032064
0.376449 0.117201 0.033822
0.406731 0.119712 0.035711
0.437255 0.122144 0.037609
0.467995 0.124508 0.039517
0.498930 0.126811 0.041433
0.530043 0.129058 0.043358
0.561317 0.131257 0.045290
0.592737 0.133411 0.047230
0.624291 0.135524 0.049178
0.655968 0.137601 0.051132
0.687758 0.139645 0.053092
0.719651 0.141658 0.055058
0.751640 0.143644 0.057030
0.783717 0.145604 0.059008
0.815876 0.147541 0.060990
0.848110 0.149456 0.062977
0.880416 0.151351 0.064969
0.908537 0.152546 0.066697
0.016185 0.133489 0.019695
0.039383 0.132927 0.019737
0.061535 0.132760 0.020064
0.083313 0.132730 0.020531
0.104843 0.132834 0.020561
0.121660 0.127882 0.020184
0.147103 0.129599 0.021616
0.172328 0.130821 0.022953
0.197433 0.131916 0.024299
0.222437 0.132935 0.025658
0.247353 0.133911 0.027024
0.272192 0.134861 0.028394
0.298740 0.136608 0.029945
0.328172 0.139482 0.031771
0.357902 0.142239 0.033605
0.387903 0.144894 0.035449
0.418147 0.147461 0.037302
0.448613 0.149949 0.039165
0.479279 0.152368 0.041037
0.510127 0.154725 0.042918
0.541143 0.157025 0.044807
0.572313 0.159276 0.046706
0.603622 0.161481 0.048612
0.635062 0.163645 0.050526
0.666620 0.165771 0.052448
0.698289 0.167864 0.054377
0.730060 0.169924 0.056313
0.761927 0.171956 0.058255
0.793881 0.173962 0.060204
0.825917 0.175943 0.062158
0.858030 0.177902 0.064119
0.890214 0.179840 0.066085
0.918001 0.180912 0.067771
0.020800 0.156844 0.021391
0.043833 0.156331 0.021445
0.065898 0.156164 0.021693
0.087538 0.156181 0.022161
0.108985 0.156257 0.022553
0.130341 0.156435 0.022434
0.146001 0.150528 0.022048
0.171270 0.152378 0.023503
0.196344 0.153709 0.024845
0.221323 0.154903 0.026191
0.249766 0.158257 0.027943
0.278714 0.161505 0.029728
0.307981 0.164582 0.031526
0.337536 0.167516 0.033334
0.367354 0.170328 0.035151
0.397411 0.173037 0.036975
0.427687 0.175654 0.038808
0.458163 0.178190 0.040649
0.488821 0.180656 0.042498
0.519648 0.183058 0.044355
0.550630 0.185403 0.046221
0.581755 0.187697 0.048095
0.613013 0.189945 0.049976
0.644393 0.192150 0.051866
0.675886 0.194317 0.053763
0.707486 0.196448 0.055667
0.739184 0.198547 0.057578
0.770973 0.200617 0.059497
0.802849 0.202660 0.061422
0.834805 0.204677 0.063353
0.866836 0.206671 0.065291
0.898937 0.208643 0.067234
0.926450 0.209578 0.068885
0.025380 0.180215 0.023128
0.048301 0.179738 0.023203
0.070317 0.179562 0.023377
0.091890 0.179593 0.023811
0.113281 0.179682 0.024302
0.134480 0.179859 0.024550
0.157164 0.181691 0.024559
0.171070 0.173974 0.024058
0.199491 0.178767 0.025949
0.228072 0.182709 0.027703
0.256962 0.186306 0.029455
0.286152 0.189662 0.031221
0.315615 0.192826 0.033002
0.345328 0.195834 0.034796
0.375271 0.198710 0.036601
0.405425 0.201476 0.038415
0.435772 0.204145 0.040237
0.466299 0.206731 0.042066
0.496992 0.209242 0.043902
0.527838 0.211688 0.045745
0.558827 0.214075 0.047595
0.589948 0.216410 0.049453
0.621192 0.218696 0.051317
0.652551 0.220938 0.053189
0.684016 0.223141 0.055068
0.715582 0.225308 0.056954
0.747241 0.227442 0.058847
0.778988 0.229545 0.060747
0.810817 0.231619 0.062653
0.842724 0.233668 0.064566
0.874703 0.235693 0.066485
0.906751 0.237696 0.068410
0.934040 0.238484 0.070028
0.029939 0.203597 0.024892
0.052781 0.203152 0.024995
0.075296 0.204407 0.025284
0.098050 0.206657 0.025951
0.120979 0.208893 0.026724
0.144174 0.211036 0.027455
0.167515 0.213211 0.027805
0.191383 0.215260 0.027756
0.204573 0.205935 0.027208
0.233705 0.210585 0.029121
0.262919 0.214435 0.030888
0.292352 0.217933 0.032643
0.322020 0.221212 0.034409
0.351904 0.224314 0.036190
0.381990 0.227270 0.037983
0.412262 0.230103 0.039787
0.442706 0.232833 0.041601
0.473309 0.235473 0.043423
0.504062 0.238034 0.045252
0.534954 0.240526 0.047088
0.565976 0.242956 0.048930
0.597120 0.245331 0.050778
0.628377 0.247656 0.052632
0.659741 0.249935 0.054492
0.691204 0.252174 0.056359
0.722762 0.254374 0.058233
0.754407 0.256540 0.060112
0.786135 0.258675 0.061998
0.817942 0.260780 0.063890
0.849822 0.262859 0.065788
0.881771 0.264912 0.067693
0.913787 0.266943 0.069603
0.940895 0.267578 0.071193
0.035424 0.233183 0.027405
0.059388 0.234958 0.027804
0.082891 0.236832 0.028110
0.106322 0.238861 0.028701
0.129820 0.240928 0.029437
0.153506 0.242937 0.030200
0.177339 0.244914 0.030811
0.201344 0.246915 0.031009
0.225868 0.248777 0.030869
0.238180 0.237891 0.030288
0.267868 0.242430 0.032223
0.297591 0.246224 0.034007
0.327463 0.249646 0.035769
0.357522 0.252866 0.037538
0.387757 0.255921 0.039320
0.418157 0.258839 0.041114
0.448709 0.261641 0.042919
0.479406 0.264344 0.044734
0.510235 0.266962 0.046558
0.541191 0.269505 0.048389
0.572264 0.271982 0.050226
0.603448 0.274400 0.052069
0.634736 0.276766 0.053918
0.666123 0.279084 0.055772
0.697603 0.281358 0.057631
0.729170 0.283593 0.059496
0.760819 0.285793 0.061367
0.792546 0.287959 0.063243
0.824347 0.290094 0.065125
0.856218 0.292202 0.067013
0.888155 0.294284 0.068906
0.920155 0.296341 0.070805
0.947119 0.296821 0.072371
0.041462 0.266094 0.030264
0.066129 0.267681 0.030674
0.090261 0.269347 0.030903
0.114266 0.271185 0.031421
0.138259 0.273098 0.032112
0.162356 0.274996 0.032868
0.186635 0.276823 0.033602
0.210936 0.278699 0.034057
0.235490 0.280551 0.034137
0.260539 0.282263 0.033927
0.271861 0.269848 0.033322
0.301994 0.274299 0.035279
0.332137 0.278064 0.037082
0.362370 0.281426 0.038852
0.392757 0.284600 0.040626
0.423287 0.287619 0.042411
0.453954 0.290508 0.044207
0.484750 0.293287 0.046014
0.515666 0.295971 0.047831
0.546695 0.298573 0.049657
0.577832 0.301103 0.051491
0.609069 0.303570 0.053330
0.640401 0.305980 0.055176
0.671824 0.308339 0.057026
0.703333 0.310652 0.058882
0.734922 0.312924 0.060742
0.766588 0.315158 0.062608
0.798328 0.317357 0.064478
0.830136 0.319524 0.066354
0.862011 0.321661 0.068235
0.893947 0.323771 0.070120
0.925943 0.325856 0.072011
0.952797 0.326180 0.073557
0.047548 0.299007 0.033080
0.072803 0.300441 0.033514
0.097461 0.301934 0.033676
0.121958 0.303606 0.034126
0.146388 0.305378 0.034767
0.170855 0.307169 0.035502
0.195444 0.308919 0.036253
0.220144 0.310633 0.036912
0.244854 0.312416 0.037227
0.269867 0.314142 0.037214
0.295344 0.315732 0.036950
0.305594 0.301809 0.036326
0.336094 0.306189 0.038303
0.366586 0.309940 0.040127
0.397125 0.313259 0.041906
0.427788 0.316397 0.043686
0.458572 0.319389 0.045475
0.489470 0.322257 0.047274
0.520476 0.325018 0.049084
0.551585 0.327689 0.050903
0.582792 0.330280 0.052732
0.614090 0.332802 0.054568
0.645476 0.335261 0.056410
0.676944 0.337666 0.058259
0.708491 0.340022 0.060112
0.740112 0.342333 0.061971
0.771805 0.344604 0.063834
0.803566 0.346838 0.065701
0.835392 0.349038 0.067573
0.867279 0.351206 0.069449
0.899225 0.353347 0.071330
0.931227 0.355460 0.073216
0.957999 0.355631 0.074746
0.053669 0.331925 0.035867
0.079424 0.333234 0.036331
0.104530 0.334579 0.036437
0.129452 0.336106 0.036823
0.154269 0.337749 0.037413
0.179071 0.339439 0.038119
0.203941 0.341115 0.038868
0.228941 0.342736 0.039603
0.253940 0.344391 0.040144
0.279016 0.346085 0.040344
0.304416 0.347704 0.040257
0.330249 0.349193 0.039949
0.339367 0.333779 0.039310
0.370173 0.338101 0.041306
0.400960 0.341841 0.043150
0.431762 0.345136 0.044941
0.462662 0.348246 0.046728
0.493664 0.351217 0.048521
0.524763 0.354069 0.050324
0.555955 0.356818 0.052137
0.587235 0.359480 0.053959
0.618599 0.362064 0.055790
0.650043 0.364581 0.057629
0.681563 0.367037 0.059474
0.713155 0.369440 0.061326
0.744816 0.371794 0.063183
0.776542 0.374105 0.065044
0.808332 0.376377 0.066910
0.840182 0.378612 0.068780
0.872090 0.380814 0.070654
0.904053 0.382986 0.072533
0.936068 0.385130 0.074415
0.964188 0.385691 0.076030
0.059818 0.364849 0.038633
0.086001 0.366052 0.039129
0.111495 0.367272 0.039190
0.136789 0.368672 0.039519
0.161950 0.370198 0.040057
0.187056 0.371791 0.040730
0.212186 0.373395 0.041467
0.237402 0.374967 0.042213
0.262714 0.376498 0.042904
0.287966 0.378109 0.043318
0.313368 0.379720 0.043424
0.339097 0.381247 0.043276
0.365230 0.382652 0.042931
0.373170 0.365759 0.042282
0.404235 0.370033 0.044296
0.435274 0.373765 0.046160
0.466307 0.377053 0.047962
0.497412 0.380139 0.049757
0.528605 0.383094 0.051556
0.559880 0.385934 0.053363
0.591236 0.388675 0.055179
0.622668 0.391331 0.057004
0.654173 0.393912 0.058838
0.685748 0.396426 0.060679
0.717389 0.398882 0.062527
0.749094 0.401284 0.064382
0.780861 0.403640 0.066242
0.812685 0.405953 0.068107
0.844565 0.408226 0.069976
0.877654 0.410990 0.071936
0.911655 0.413975 0.073909
0.945772 0.416909 0.075888
0.973927 0.417275 0.077464
0.065987 0.397781 0.041384
0.092540 0.398893 0.041909
0.118377 0.400006 0.041939
0.143998 0.401293 0.042216
0.169466 0.402714 0.042705
0.194851 0.404216 0.043340
0.220223 0.405748 0.044058
0.245642 0.407269 0.044805
0.271156 0.408747 0.045539
0.296681 0.410235 0.046145
0.322178 0.411797 0.046450
0.347868 0.413333 0.046478
0.373882 0.414781 0.046280
0.400269 0.416114 0.045902
0.406996 0.397751 0.045246
0.438284 0.401983 0.047277
0.469540 0.405711 0.049159
0.500777 0.409003 0.050976
0.532062 0.412071 0.052778
0.563422 0.415012 0.054583
0.594854 0.417844 0.056394
0.626355 0.420581 0.058214
0.657923 0.423234 0.060043
0.689555 0.425813 0.061879
0.721248 0.428328 0.063723
0.753000 0.430784 0.065575
0.785122 0.433362 0.067459
0.818810 0.436597 0.069429
0.852632 0.439736 0.071387
0.886572 0.442812 0.073353
0.920626 0.445832 0.075324
0.954790 0.448798 0.077301
0.982952 0.449011 0.078868
0.072173 0.430721 0.044125
0.099048 0.431754 0.044675
0.125190 0.432775 0.044687
0.151101 0.433963 0.044917
0.176846 0.435288 0.045359
0.202485 0.436704 0.045954
0.228082 0.438167 0.046648
0.253694 0.439635 0.047388
0.279369 0.441078 0.048133
0.305131 0.442479 0.048844
0.330815 0.443952 0.049339
0.356543 0.445462 0.049551
0.382488 0.446930 0.049514
0.408748 0.448310 0.049275
0.435355 0.449580 0.048867
0.440841 0.429755 0.048207
0.472322 0.433953 0.050254
0.503767 0.437678 0.052154
0.535186 0.440984 0.053985
0.566630 0.444036 0.055795
0.598138 0.446968 0.057606
0.629709 0.449794 0.059423
0.661341 0.452528 0.061246
0.693031 0.455180 0.063078
0.725937 0.458459 0.065004
0.759470 0.461870 0.066935
0.793129 0.465198 0.068874
0.826909 0.468448 0.070822
0.860805 0.471629 0.072777
0.894812 0.474746 0.074740
0.928927 0.477802 0.076710
0.963144 0.480804 0.078686
0.991341 0.480873 0.080246
0.078372 0.463670 0.046859
0.105530 0.464634 0.047433
0.131947 0.465576 0.047436
0.158116 0.466675 0.047623
0.184112 0.467912 0.048020
0.209984 0.469249 0.048576
0.235790 0.470644 0.049242
0.261585 0.472060 0.049968
0.287414 0.473466 0.050716
0.313316 0.474837 0.051452
0.339245 0.476202 0.052104
0.365091 0.477652 0.052497
0.391033 0.479111 0.052630
0.417206 0.480518 0.052539
0.443682 0.481838 0.052265
0.470478 0.483055 0.051829
0.474700 0.461773 0.051167
0.506351 0.465942 0.053229
0.537962 0.469665 0.055147
0.569544 0.472990 0.056992
0.601130 0.476033 0.058811
0.633010 0.479138 0.060651
0.666250 0.482971 0.062567
0.699635 0.486650 0.064473
0.733147 0.490221 0.066389
0.766781 0.493692 0.068314
0.800532 0.497075 0.070249
0.834396 0.500377 0.072193
0.868370 0.503604 0.074145
0.902448 0.506764 0.076105
0.936627 0.509862 0.078072
0.970903 0.512902 0.080046
0.999162 0.512840 0.081601
0.084582 0.496629 0.049589
0.111991 0.497531 0.050184
0.138657 0.498405 0.050187
0.165058 0.499424 0.050335
0.191280 0.500582 0.050689
0.217366 0.501845 0.051207
0.243368 0.503175 0.051843
0.269336 0.504539 0.052552
0.295314 0.505906 0.053295
0.321340 0.507252 0.054041
0.347441 0.508559 0.054764
0.373479 0.509918 0.055325
0.399487 0.511339 0.055629
0.425627 0.512750 0.055694
0.452003 0.514103 0.055557
0.478670 0.515370 0.055253
0.505747 0.516659 0.054805
0.508571 0.493806 0.054129
0.540371 0.497948 0.056204
0.572816 0.502261 0.058203
0.606033 0.506666 0.060136
0.639297 0.510719 0.062038
0.672680 0.514610 0.063938
0.706184 0.518372 0.065843
0.739807 0.522016 0.067756
0.773542 0.525556 0.069677
0.807388 0.529000 0.071608
0.841338 0.532359 0.073547
0.875391 0.535639 0.075496
0.909543 0.538847 0.077452
0.943789 0.541989 0.079417
0.978127 0.545071 0.081389
1.000000 0.544894 0.082939
0.090801 0.529597 0.052317
0.118434 0.530445 0.052930
0.145327 0.531260 0.052941
0.171937 0.532207 0.053054
0.198365 0.533292 0.053369
0.224648 0.534486 0.053849
0.250832 0.535755 0.054453
0.276964 0.537068 0.055141
0.303085 0.538395 0.055875
0.329233 0.539713 0.056624
0.355436 0.541002 0.057363
0.381681 0.542273 0.058048
0.407821 0.543628 0.058515
0.434703 0.545870 0.058818
0.461862 0.548054 0.058874
0.489323 0.550156 0.058741
0.517126 0.552155 0.058451
0.545261 0.554040 0.058002
0.544641 0.527768 0.057232
0.578113 0.533036 0.059395
0.611596 0.537840 0.061420
0.645093 0.542224 0.063371
0.678620 0.546249 0.065285
0.712243 0.550100 0.067194
0.745976 0.553826 0.069107
0.779813 0.557441 0.071026
0.813753 0.560954 0.072954
0.847792 0.564375 0.074890
0.881926 0.567713 0.076834
0.916152 0.570974 0.078787
0.950468 0.574166 0.080749
0.984870 0.577293 0.082718
1.000000 0.577018 0.084264
0.097028 0.562576 0.055044
0.124861 0.563375 0.055675
0.151963 0.564138 0.055699
0.178762 0.565020 0.055780
0.205378 0.566039 0.056058
0.231843 0.567169 0.056502
0.258198 0.568379 0.057074
0.284484 0.569642 0.057738
0.310742 0.570929 0.058459
0.337465 0.572964 0.059276
0.364441 0.575098 0.060076
0.391548 0.577177 0.060856
0.418687 0.579265 0.061520
0.445813 0.581413 0.061949
0.473069 0.583559 0.062150
0.500555 0.585654 0.062147
0.528336 0.587667 0.061971
0.556442 0.589581 0.061649
0.584852 0.591387 0.061167
0.582863 0.563471 0.060405
0.616602 0.568677 0.062584
0.650345 0.573444 0.064628
0.684096 0.577810 0.066595
0.717863 0.581819 0.068523
0.751704 0.585634 0.070441
0.785644 0.589329 0.072362
0.819678 0.592917 0.074288
0.853805 0.596408 0.076222
0.888021 0.599809 0.078163
0.922323 0.603129 0.080113
0.956710 0.606374 0.082071
0.991178 0.609552 0.084037
1.000000 0.609196 0.085581
0.103260 0.595565 0.057772
0.131274 0.596321 0.058420
0.158570 0.597039 0.058462
0.185541 0.597862 0.058513
0.212329 0.598819 0.058757
0.239217 0.600525 0.059227
0.266236 0.602585 0.059819
0.293251 0.604686 0.060508
0.320294 0.606803 0.061262
0.347398 0.608910 0.062053
0.374589 0.610989 0.062854
0.401888 0.613025 0.063646
0.429296 0.615015 0.064402
0.456661 0.617064 0.064976
0.484058 0.619151 0.065323
0.511607 0.621221 0.065458
0.539391 0.623235 0.065404
0.567459 0.625168 0.065189
0.595837 0.627006 0.064839
0.624492 0.628742 0.064326
0.621110 0.599187 0.063573
0.655091 0.604338 0.065767
0.689069 0.609072 0.067829
0.723049 0.613422 0.069813
0.757037 0.617426 0.071755
0.791077 0.621208 0.073682
0.825206 0.624877 0.075611
0.859420 0.628442 0.077545
0.893718 0.631912 0.079485
0.928098 0.635296 0.081432
0.962556 0.638601 0.083387
0.997090 0.641833 0.085350
1.000000 0.641416 0.086892
0.109498 0.628565 0.060502
0.137809 0.629891 0.061224
0.165616 0.631500 0.061343
0.193155 0.633173 0.061415
0.220591 0.634966 0.061674
0.247944 0.636859 0.062097
0.275244 0.638827 0.062654
0.302521 0.640844 0.063314
0.329809 0.642885 0.064048
0.357137 0.644928 0.064826
0.384532 0.646953 0.065625
0.412015 0.648944 0.066424
0.439604 0.650890 0.067206
0.467240 0.652828 0.067908
0.494824 0.654835 0.068397
0.522475 0.656862 0.068671
0.550294 0.658862 0.068747
0.578347 0.660803 0.068648
0.606676 0.662663 0.068399
0.635299 0.664434 0.068024
0.663259 0.665212 0.067484
0.659380 0.634916 0.066739
0.693579 0.640018 0.068948
0.727770 0.644723 0.071027
0.761959 0.649060 0.073027
0.796150 0.653063 0.074983
0.830373 0.656821 0.076920
0.864675 0.660466 0.078857
0.899055 0.664010 0.080798
0.933511 0.667463 0.082744
0.968041 0.670832 0.084697
1.000000 0.674124 0.086658
1.000000 0.673666 0.088200
0.116509 0.665012 0.063449
0.145259 0.666632 0.064178
0.173389 0.668160 0.064318
0.201216 0.669741 0.064359
0.228933 0.671442 0.064583
0.256559 0.673244 0.064970
0.284119 0.675125 0.065494
0.311644 0.677062 0.066125
0.339162 0.679031 0.066836
0.366702 0.681011 0.067600
0.394291 0.682983 0.068394
0.421950 0.684930 0.069195
0.449698 0.686841 0.069988
0.477546 0.688708 0.070756
0.505357 0.690619 0.071379
0.533152 0.692584 0.071791
0.561042 0.694553 0.071999
0.589109 0.696488 0.072022
0.617409 0.698361 0.071883
0.645974 0.700156 0.071604
0.674820 0.701865 0.071207
0.701380 0.701029 0.070645
0.697669 0.670660 0.069904
0.732065 0.675718 0.072128
0.766451 0.680397 0.074224
0.800830 0.684723 0.076240
0.835208 0.688727 0.078210
0.869602 0.692469 0.080157
0.904063 0.696092 0.082102
0.938596 0.699619 0.084050
0.973198 0.703057 0.086003
1.000000 0.706413 0.087962
1.000000 0.705935 0.089505
0.123660 0.701844 0.066385
0.152698 0.703388 0.067126
0.181126 0.704846 0.067292
0.209218 0.706343 0.067304
0.237195 0.707958 0.067496
0.265074 0.709675 0.067849
0.292878 0.711475 0.068340
0.320634 0.713336 0.068943
0.348369 0.715236 0.069630
0.376111 0.717155 0.070378
0.403885 0.719075 0.071162
0.431713 0.720979 0.071963
0.459615 0.722854 0.072762
0.487605 0.724690 0.073547
0.515653 0.726506 0.074277
0.543630 0.728393 0.074821
0.571628 0.730314 0.075162
0.599740 0.732229 0.075311
0.628036 0.734103 0.075288
0.656561 0.735915 0.075113
0.685342 0.737651 0.074807
0.714392 0.739304 0.074390
0.739530 0.736856 0.073809
0.735974 0.706419 0.073072
0.770551 0.711437 0.075309
0.805115 0.716093 0.077421
0.839669 0.720410 0.079453
0.874217 0.724415 0.081436
0.908771 0.728150 0.083394
0.943380 0.731755 0.085348
0.978054 0.735265 0.087303
1.000000 0.738690 0.089263
1.000000 0.738214 0.090810
0.130822 0.738686 0.069319
0.160126 0.740161 0.070070
0.188832 0.741556 0.070267
0.217168 0.742975 0.070252
0.245386 0.744511 0.070414
0.273501 0.746150 0.070735
0.301533 0.747873 0.071194
0.329506 0.749662 0.071768
0.357446 0.751496 0.072431
0.385380 0.753356 0.073160
0.413331 0.755224 0.073933
0.441322 0.757085 0.074730
0.469371 0.758924 0.075533
0.497495 0.760732 0.076328
0.525706 0.762500 0.077103
0.553900 0.764293 0.077769
0.582042 0.766152 0.078239
0.610233 0.768030 0.078516
0.638553 0.769892 0.078612
0.667060 0.771711 0.078547
0.695792 0.773466 0.078340
0.724771 0.775148 0.078010
0.754007 0.776751 0.077575
0.777706 0.772695 0.076977
0.774292 0.742194 0.076242
0.809036 0.747176 0.078492
0.843763 0.751811 0.080620
0.878478 0.756120 0.082667
0.913184 0.760128 0.084664
0.947888 0.763864 0.086634
0.982633 0.767451 0.088595
1.000000 0.770948 0.090558
1.000000 0.770496 0.092113
0.137996 0.775540 0.072251
0.167543 0.776950 0.073012
0.196508 0.778288 0.073240
0.225072 0.779636 0.073204
0.253514 0.781098 0.073337
0.281849 0.782664 0.073628
0.310094 0.784316 0.074056
0.338272 0.786037 0.074601
0.366406 0.787808 0.075240
0.394522 0.789611 0.075950
0.422643 0.791428 0.076709
0.450790 0.793245 0.077499
0.478981 0.795049 0.078302
0.507234 0.796828 0.079104
0.535562 0.798573 0.079892
0.563955 0.800290 0.080644
0.592275 0.802071 0.081236
0.620578 0.803899 0.081638
0.648953 0.805736 0.081856
0.677467 0.807549 0.081905
0.706170 0.809315 0.081802
0.735092 0.811019 0.081566
0.764253 0.812652 0.081215
0.793660 0.814208 0.080763
0.815904 0.808545 0.080151
0.812623 0.777985 0.079417
0.847520 0.782934 0.081680
0.882398 0.787551 0.083822
0.917260 0.791853 0.085884
0.952112 0.795864 0.087895
0.986958 0.799607 0.089876
1.000000 0.803179 0.091846
1.000000 0.802775 0.093412
0.145178 0.812404 0.075182
0.174950 0.813756 0.075953
0.204156 0.815041 0.076211
0.232935 0.816324 0.076160
0.261586 0.817718 0.076266
0.290126 0.819215 0.076528
0.318571 0.820800 0.076927
0.346942 0.822456 0.077444
0.375260 0.824167 0.078058
0.403550 0.825914 0.078747
0.431832 0.827683 0.079492
0.460129 0.829457 0.080272
0.488459 0.831225 0.081073
0.516837 0.832974 0.081879
0.545279 0.834696 0.082677
0.573796 0.836382 0.083457
0.602319 0.838076 0.084159
0.630766 0.839841 0.084681
0.659226 0.841638 0.085021
0.687775 0.843433 0.085186
