Camera18_LUT_V0/luts/ricoh-positive.cube
TITLE "Camera18 V0 - Ricoh Positive Film inspired"
LUT_3D_SIZE 33
DOMAIN_MIN 0.0 0.0 0.0
DOMAIN_MAX 1.0 1.0 1.0
# Original Camera 18 V0 approximation; input expected normalized display-referred RGB.
# Denser positive-film direction: saturated, punchy, deeper shadows.
0.000000 0.000000 0.001611
0.022449 0.000000 0.001424
0.048121 0.000000 0.001236
0.073793 0.000000 0.001049
0.099464 0.000000 0.000861
0.125136 0.000000 0.000673
0.150808 0.000000 0.000486
0.176479 0.000000 0.000298
0.202151 0.000000 0.000110
0.227823 0.000000 0.000000
0.253494 0.000000 0.000000
0.279166 0.000000 0.000000
0.304838 0.000000 0.000000
0.330509 0.000000 0.000000
0.356181 0.000000 0.000000
0.381853 0.000000 0.000000
0.407524 0.000000 0.000000
0.433196 0.000000 0.000000
0.458867 0.000000 0.000000
0.484539 0.000000 0.000000
0.510211 0.000000 0.000000
0.535882 0.000000 0.000000
0.561554 0.000000 0.000000
0.587226 0.000000 0.000000
0.612897 0.000000 0.000000
0.638569 0.000000 0.000000
0.664241 0.000000 0.000000
0.689912 0.000000 0.000000
0.722614 0.000000 0.000000
0.757028 0.000000 0.000000
0.791439 0.000000 0.000000
0.825847 0.000000 0.000000
0.860251 0.000000 0.000000
0.000000 0.023667 0.001315
0.022799 0.023308 0.001005
0.048430 0.023008 0.000693
0.074068 0.022818 0.000379
0.099714 0.022648 0.000065
0.125367 0.022476 0.000000
0.151026 0.022300 0.000000
0.176689 0.022118 0.000000
0.202354 0.021932 0.000000
0.228022 0.021743 0.000000
0.253692 0.021550 0.000000
0.279364 0.021356 0.000000
0.305036 0.021159 0.000000
0.330709 0.020962 0.000000
0.356381 0.020764 0.000000
0.382054 0.020567 0.000000
0.407727 0.020370 0.000000
0.433399 0.020173 0.000000
0.459072 0.019977 0.000000
0.484745 0.019780 0.000000
0.510417 0.019583 0.000000
0.536090 0.019387 0.000000
0.561763 0.019190 0.000000
0.587435 0.018993 0.000000
0.613108 0.018797 0.000000
0.644067 0.018754 0.000000
0.677496 0.018765 0.000000
0.710987 0.018758 0.000000
0.744534 0.018734 0.000000
0.778132 0.018696 0.000000
0.811775 0.018643 0.000000
0.845461 0.018579 0.000000
0.879185 0.018503 0.000000
0.000000 0.048944 0.001019
0.023918 0.049321 0.000692
0.048820 0.048227 0.000398
0.074452 0.047868 0.000086
0.100081 0.047626 0.000000
0.125718 0.047427 0.000000
0.151358 0.047247 0.000000
0.177002 0.047076 0.000000
0.202650 0.046906 0.000000
0.228302 0.046736 0.000000
0.253956 0.046563 0.000000
0.279614 0.046388 0.000000
0.305274 0.046210 0.000000
0.330936 0.046030 0.000000
0.356599 0.045847 0.000000
0.382264 0.045662 0.000000
0.407931 0.045475 0.000000
0.433599 0.045287 0.000000
0.459267 0.045096 0.000000
0.484937 0.044905 0.000000
0.510607 0.044712 0.000000
0.536837 0.044564 0.000000
0.569195 0.044894 0.000000
0.601687 0.045182 0.000000
0.634302 0.045434 0.000000
0.667028 0.045652 0.000000
0.699855 0.045841 0.000000
0.732773 0.046002 0.000000
0.765775 0.046140 0.000000
0.798853 0.046254 0.000000
0.832002 0.046348 0.000000
0.865215 0.046423 0.000000
0.898488 0.046480 0.000000
0.000000 0.074222 0.000721
0.024171 0.074446 0.000400
0.050903 0.075117 0.000062
0.074841 0.073147 0.000000
0.100479 0.072754 0.000000
0.126102 0.072477 0.000000
0.151733 0.072245 0.000000
0.177369 0.072041 0.000000
0.203007 0.071854 0.000000
0.228648 0.071677 0.000000
0.254291 0.071505 0.000000
0.279938 0.071335 0.000000
0.305586 0.071165 0.000000
0.331237 0.070995 0.000000
0.356890 0.070823 0.000000
0.382546 0.070650 0.000000
0.408203 0.070476 0.000000
0.433862 0.070299 0.000000
0.462146 0.070522 0.000000
0.493557 0.071148 0.000000
0.525165 0.071715 0.000000
0.556951 0.072227 0.000000
0.588898 0.072690 0.000000
0.620992 0.073109 0.000000
0.653220 0.073486 0.000000
0.685570 0.073826 0.000000
0.718031 0.074132 0.000000
0.750596 0.074406 0.000000
0.783255 0.074651 0.000000
0.816002 0.074870 0.000000
0.848829 0.075063 0.000000
0.881732 0.075234 0.000000
0.914704 0.075383 0.000000
0.000000 0.099500 0.000423
0.024542 0.099618 0.000104
0.051057 0.100253 0.000000
0.077803 0.100846 0.000000
0.100863 0.098066 0.000000
0.126508 0.097652 0.000000
0.152127 0.097347 0.000000
0.177753 0.097091 0.000000
0.203385 0.096864 0.000000
0.229020 0.096657 0.000000
0.254657 0.096465 0.000000
0.280297 0.096282 0.000000
0.305938 0.096106 0.000000
0.331581 0.095933 0.000000
0.357226 0.095763 0.000000
0.386738 0.096558 0.000000
0.417246 0.097461 0.000000
0.448009 0.098289 0.000000
0.479003 0.099048 0.000000
0.510206 0.099745 0.000000
0.541598 0.100384 0.000000
0.573164 0.100971 0.000000
0.604889 0.101509 0.000000
0.636759 0.102004 0.000000
0.668762 0.102457 0.000000
0.700889 0.102873 0.000000
0.733129 0.103253 0.000000
0.765475 0.103601 0.000000
0.797918 0.103920 0.000000
0.830452 0.104210 0.000000
0.863070 0.104474 0.000000
0.895767 0.104714 0.000000
0.928537 0.104931 0.000000
0.000000 0.124777 0.000124
0.024974 0.124828 0.000000
0.051271 0.125367 0.000000
0.078056 0.126065 0.000000
0.104646 0.126535 0.000000
0.126884 0.122985 0.000000
0.152537 0.122557 0.000000
0.178153 0.122230 0.000000
0.203776 0.121953 0.000000
0.229404 0.121707 0.000000
0.255036 0.121483 0.000000
0.281430 0.121602 0.000000
0.310725 0.122824 0.000000
0.340365 0.123957 0.000000
0.370316 0.125008 0.000000
0.400546 0.125982 0.000000
0.431031 0.126886 0.000000
0.461748 0.127724 0.000000
0.492676 0.128502 0.000000
0.523797 0.129224 0.000000
0.555095 0.129893 0.000000
0.586556 0.130515 0.000000
0.618168 0.131092 0.000000
0.649918 0.131627 0.000000
0.681797 0.132123 0.000000
0.713796 0.132583 0.000000
0.745905 0.133009 0.000000
0.778117 0.133404 0.000000
0.810426 0.133770 0.000000
0.842824 0.134107 0.000000
0.875307 0.134419 0.000000
0.907869 0.134706 0.000000
0.940504 0.134970 0.000000
0.000000 0.150055 0.000000
0.025437 0.150061 0.000000
0.051563 0.150502 0.000000
0.078197 0.151184 0.000000
0.105029 0.151845 0.000000
0.131459 0.152205 0.000000
0.152905 0.147905 0.000000
0.178565 0.147465 0.000000
0.205781 0.148272 0.000000
0.234179 0.149623 0.000000
0.262980 0.150899 0.000000
0.292146 0.152098 0.000000
0.321640 0.153224 0.000000
0.351433 0.154281 0.000000
0.381496 0.155273 0.000000
0.411806 0.156203 0.000000
0.442343 0.157075 0.000000
0.473087 0.157893 0.000000
0.504023 0.158659 0.000000
0.535135 0.159377 0.000000
0.566410 0.160050 0.000000
0.597836 0.160679 0.000000
0.629402 0.161269 0.000000
0.661098 0.161821 0.000000
0.692916 0.162337 0.000000
0.724846 0.162820 0.000000
0.756883 0.163271 0.000000
0.789019 0.163692 0.000000
0.821247 0.164086 0.000000
0.853562 0.164453 0.000000
0.885960 0.164795 0.000000
0.918434 0.165114 0.000000
0.950981 0.165410 0.000000
0.000369 0.175333 0.000000
0.025919 0.175310 0.000000
0.051914 0.175664 0.000000
0.078396 0.176296 0.000000
0.106105 0.178540 0.000000
0.134805 0.181431 0.000000
0.163479 0.183737 0.000000
0.185095 0.178782 0.000000
0.213556 0.179928 0.000000
0.242334 0.181076 0.000000
0.271451 0.182193 0.000000
0.300878 0.183264 0.000000
0.330588 0.184284 0.000000
0.360557 0.185251 0.000000
0.390764 0.186168 0.000000
0.421190 0.187036 0.000000
0.451818 0.187858 0.000000
0.482631 0.188636 0.000000
0.513617 0.189371 0.000000
0.544762 0.190066 0.000000
0.576057 0.190722 0.000000
0.607490 0.191342 0.000000
0.639052 0.191926 0.000000
0.670736 0.192477 0.000000
0.702533 0.192996 0.000000
0.734436 0.193486 0.000000
0.766439 0.193946 0.000000
0.798536 0.194380 0.000000
0.830721 0.194787 0.000000
0.862989 0.195170 0.000000
0.895335 0.195530 0.000000
0.927756 0.195867 0.000000
0.960247 0.196183 0.000000
0.000882 0.200610 0.000000
0.026651 0.202382 0.000000
0.053412 0.205094 0.000000
0.081245 0.208058 0.000000
0.109994 0.211053 0.000000
0.139424 0.213897 0.000000
0.169029 0.216359 0.000000
0.198492 0.218312 0.000000
0.219871 0.212142 0.000000
0.249063 0.213066 0.000000
0.278479 0.214008 0.000000
0.308158 0.214940 0.000000
0.338083 0.215847 0.000000
0.368235 0.216718 0.000000
0.398597 0.217553 0.000000
0.429153 0.218351 0.000000
0.459890 0.219112 0.000000
0.490793 0.219838 0.000000
0.521852 0.220530 0.000000
0.553057 0.221189 0.000000
0.584396 0.221816 0.000000
0.615863 0.222413 0.000000
0.647449 0.222979 0.000000
0.679147 0.223517 0.000000
0.710950 0.224027 0.000000
0.742852 0.224511 0.000000
0.774848 0.224969 0.000000
0.806932 0.225403 0.000000
0.839099 0.225814 0.000000
0.871345 0.226202 0.000000
0.903666 0.226569 0.000000
0.936057 0.226915 0.000000
0.968516 0.227242 0.000000
0.001444 0.233813 0.000000
0.028118 0.235954 0.000000
0.055594 0.238339 0.000000
0.083991 0.241006 0.000000
0.113214 0.243778 0.000000
0.143101 0.246495 0.000000
0.173388 0.249014 0.000000
0.203634 0.251140 0.000000
0.233689 0.252827 0.000000
0.254658 0.245500 0.000000
0.284423 0.246250 0.000000
0.314345 0.247027 0.000000
0.344477 0.247810 0.000000
0.374808 0.248580 0.000000
0.405325 0.249329 0.000000
0.436016 0.250052 0.000000
0.466868 0.250748 0.000000
0.497871 0.251417 0.000000
0.529016 0.252058 0.000000
0.560292 0.252673 0.000000
0.591692 0.253262 0.000000
0.623209 0.253826 0.000000
0.654835 0.254365 0.000000
0.686565 0.254881 0.000000
0.718392 0.255372 0.000000
0.750311 0.255842 0.000000
0.782318 0.256289 0.000000
0.814406 0.256715 0.000000
0.846574 0.257120 0.000000
0.878815 0.257505 0.000000
0.911127 0.257871 0.000000
0.943507 0.258218 0.000000
0.975950 0.258548 0.000000
0.002033 0.267668 0.000000
0.029435 0.269580 0.000000
0.057492 0.271697 0.000000
0.086353 0.274108 0.000000
0.115959 0.276670 0.000000
0.146192 0.279246 0.000000
0.176904 0.281724 0.000000
0.207769 0.283961 0.000000
0.238496 0.285820 0.000000
0.269013 0.287299 0.000000
0.289453 0.278856 0.000000
0.319679 0.279467 0.000000
0.350012 0.280110 0.000000
0.380516 0.280769 0.000000
0.411185 0.281425 0.000000
0.442008 0.282069 0.000000
0.472978 0.282696 0.000000
0.504084 0.283304 0.000000
0.535318 0.283891 0.000000
0.566673 0.284458 0.000000
0.598142 0.285004 0.000000
0.629718 0.285530 0.000000
0.661395 0.286036 0.000000
0.693167 0.286522 0.000000
0.725029 0.286989 0.000000
0.756977 0.287437 0.000000
0.789007 0.287866 0.000000
0.821113 0.288276 0.000000
0.853293 0.288669 0.000000
0.885543 0.289045 0.000000
0.917860 0.289404 0.000000
0.950240 0.289746 0.000000
0.982680 0.290072 0.000000
0.002640 0.301518 0.000000
0.030642 0.303246 0.000000
0.059182 0.305140 0.000000
0.088431 0.307328 0.000000
0.118354 0.309698 0.000000
0.148866 0.312132 0.000000
0.179853 0.314525 0.000000
0.211156 0.316790 0.000000
0.242439 0.318784 0.000000
0.273541 0.320428 0.000000
0.304429 0.321740 0.000000
0.324253 0.312212 0.000000
0.354859 0.312708 0.000000
0.385534 0.313239 0.000000
0.416349 0.313793 0.000000
0.447302 0.314352 0.000000
0.478386 0.314906 0.000000
0.509594 0.315450 0.000000
0.540920 0.315981 0.000000
0.572356 0.316498 0.000000
0.603897 0.316998 0.000000
0.635536 0.317482 0.000000
0.667269 0.317951 0.000000
0.699090 0.318404 0.000000
0.730995 0.318840 0.000000
0.762980 0.319262 0.000000
0.795041 0.319668 0.000000
0.827174 0.320058 0.000000
0.859375 0.320434 0.000000
0.891643 0.320795 0.000000
0.923972 0.321141 0.000000
0.956362 0.321472 0.000000
0.988809 0.321790 0.000000
0.003261 0.335365 0.000000
0.031766 0.336942 0.000000
0.060714 0.338646 0.000000
0.090292 0.340641 0.000000
0.120484 0.342836 0.000000
0.151227 0.345130 0.000000
0.182431 0.347430 0.000000
0.213998 0.349659 0.000000
0.245713 0.351728 0.000000
0.277316 0.353514 0.000000
0.308720 0.354984 0.000000
0.339912 0.356160 0.000000
0.359058 0.345566 0.000000
0.389982 0.345968 0.000000
0.420944 0.346404 0.000000
0.452024 0.346868 0.000000
0.483220 0.347343 0.000000
0.514528 0.347819 0.000000
0.545944 0.348291 0.000000
0.577461 0.348754 0.000000
0.609074 0.349207 0.000000
0.640779 0.349648 0.000000
0.672570 0.350077 0.000000
0.704444 0.350494 0.000000
0.736396 0.350898 0.000000
0.768422 0.351289 0.000000
0.800519 0.351668 0.000000
0.832684 0.352035 0.000000
0.864913 0.352389 0.000000
0.897204 0.352731 0.000000
0.929554 0.353060 0.000000
0.961960 0.353377 0.000000
0.994421 0.353682 0.000000
0.003892 0.369209 0.000000
0.032824 0.370659 0.000000
0.062123 0.372203 0.000000
0.091985 0.374029 0.000000
0.122407 0.376065 0.000000
0.153345 0.378226 0.000000
0.184728 0.380427 0.000000
0.216473 0.382597 0.000000
0.248480 0.384677 0.000000
0.280492 0.386564 0.000000
0.312349 0.388176 0.000000
0.344002 0.389500 0.000000
0.375446 0.390561 0.000000
0.393866 0.378920 0.000000
0.425060 0.379241 0.000000
0.456269 0.379596 0.000000
0.487575 0.379983 0.000000
0.518982 0.380385 0.000000
0.550486 0.380792 0.000000
0.582082 0.381199 0.000000
0.613768 0.381602 0.000000
0.645538 0.381998 0.000000
0.677389 0.382387 0.000000
0.709316 0.382766 0.000000
0.741316 0.383136 0.000000
0.773387 0.383495 0.000000
0.805523 0.383845 0.000000
0.837723 0.384185 0.000000
0.869984 0.384515 0.000000
0.902303 0.384834 0.000000
0.934677 0.385144 0.000000
0.967105 0.385443 0.000000
0.999583 0.385732 0.000000
0.004530 0.403051 0.000000
0.033831 0.404393 0.000000
0.063434 0.405800 0.000000
0.093544 0.407477 0.000000
0.124167 0.409369 0.000000
0.155272 0.411403 0.000000
0.186804 0.413505 0.000000
0.218694 0.415608 0.000000
0.250871 0.417658 0.000000
0.283195 0.419596 0.000000
0.315436 0.421320 0.000000
0.347501 0.422783 0.000000
0.379362 0.423985 0.000000
0.411018 0.424949 0.000000
0.428676 0.412274 0.000000
0.460103 0.412525 0.000000
0.491525 0.412810 0.000000
0.523029 0.413129 0.000000
0.554619 0.413467 0.000000
0.586294 0.413813 0.000000
0.618051 0.414163 0.000000
0.649885 0.414512 0.000000
0.681795 0.414858 0.000000
0.713777 0.415198 0.000000
0.745826 0.415532 0.000000
0.777941 0.415859 0.000000
0.810119 0.416178 0.000000
0.842356 0.416489 0.000000
0.874651 0.416793 0.000000
0.907013 0.417094 0.000000
0.940290 0.417786 0.000000
0.973635 0.418453 0.000000
1.000000 0.419073 0.000000
0.005176 0.436892 0.000000
0.034795 0.438139 0.000000
0.064666 0.439429 0.000000
0.094994 0.440974 0.000000
0.125794 0.442735 0.000000
0.157045 0.444651 0.000000
0.188704 0.446655 0.000000
0.220714 0.448686 0.000000
0.253014 0.450693 0.000000
0.285535 0.452633 0.000000
0.318085 0.454432 0.000000
0.350508 0.456013 0.000000
0.382746 0.457348 0.000000
0.414785 0.458446 0.000000
0.446621 0.459326 0.000000
0.463489 0.445627 0.000000
0.495117 0.445818 0.000000
0.526727 0.446042 0.000000
0.558404 0.446301 0.000000
0.590156 0.446581 0.000000
0.621982 0.446874 0.000000
0.653880 0.447172 0.000000
0.685848 0.447473 0.000000
0.717883 0.447772 0.000000
0.749982 0.448069 0.000000
0.782142 0.448362 0.000000
0.814698 0.448842 0.000000
0.847734 0.449548 0.000000
0.880864 0.450237 0.000000
0.914086 0.450908 0.000000
0.947396 0.451563 0.000000
0.980789 0.452200 0.000000
1.000000 0.452604 0.000000
0.005826 0.470732 0.000000
0.035725 0.471896 0.000000
0.065834 0.473085 0.000000
0.096356 0.474513 0.000000
0.127313 0.476155 0.000000
0.158692 0.477959 0.000000
0.190460 0.479868 0.000000
0.222572 0.481826 0.000000
0.254973 0.483783 0.000000
0.287608 0.485698 0.000000
0.320386 0.487530 0.000000
0.353108 0.489200 0.000000
0.385681 0.490654 0.000000
0.418066 0.491879 0.000000
0.450259 0.492887 0.000000
0.482248 0.493693 0.000000
0.498303 0.478980 0.000000
0.530108 0.479117 0.000000
0.561883 0.479288 0.000000
0.593713 0.479494 0.000000
0.625609 0.479723 0.000000
0.657570 0.479967 0.000000
0.689596 0.480219 0.000000
0.722256 0.480886 0.000000
0.755072 0.481591 0.000000
0.787988 0.482284 0.000000
0.821001 0.482963 0.000000
0.854107 0.483628 0.000000
0.887303 0.484279 0.000000
0.920585 0.484914 0.000000
0.953950 0.485535 0.000000
0.987395 0.486141 0.000000
1.000000 0.486299 0.000000
0.006481 0.504570 0.000000
0.036626 0.505662 0.000000
0.066949 0.506763 0.000000
0.097643 0.508085 0.000000
0.128741 0.509619 0.000000
0.160235 0.511321 0.000000
0.192099 0.513138 0.000000
0.224296 0.515021 0.000000
0.256781 0.516924 0.000000
0.289504 0.518806 0.000000
0.322416 0.520635 0.000000
0.355377 0.522360 0.000000
0.388237 0.523911 0.000000
0.420935 0.525253 0.000000
0.453447 0.526383 0.000000
0.485773 0.527312 0.000000
0.517895 0.528053 0.000000
0.533118 0.512333 0.000000
0.565080 0.512423 0.000000
0.597217 0.512742 0.000000
0.629713 0.513378 0.000000
0.662314 0.514028 0.000000
0.695019 0.514684 0.000000
0.727825 0.515339 0.000000
0.760728 0.515989 0.000000
0.793726 0.516631 0.000000
0.826815 0.517264 0.000000
0.859992 0.517887 0.000000
0.893253 0.518498 0.000000
0.926596 0.519096 0.000000
0.960017 0.519683 0.000000
0.993514 0.520257 0.000000
1.000000 0.520141 0.000000
0.007139 0.538408 0.000000
0.037504 0.539434 0.000000
0.068019 0.540460 0.000000
0.098868 0.541687 0.000000
0.130093 0.543122 0.000000
0.161690 0.544727 0.000000
0.193639 0.546457 0.000000
0.225910 0.548267 0.000000
0.258465 0.550112 0.000000
0.291261 0.551956 0.000000
0.324253 0.553765 0.000000
0.357382 0.555511 0.000000
0.390479 0.557131 0.000000
0.423451 0.558574 0.000000
0.456617 0.560336 0.000000
0.489685 0.561956 0.000000
0.522616 0.563364 0.000000
0.555379 0.564565 0.000000
0.569273 0.547165 0.000000
0.601910 0.547685 0.000000
0.634547 0.548226 0.000000
0.667259 0.548791 0.000000
0.700066 0.549373 0.000000
0.732965 0.549962 0.000000
0.765955 0.550554 0.000000
0.799034 0.551144 0.000000
0.832197 0.551729 0.000000
0.865444 0.552307 0.000000
0.898770 0.552877 0.000000
0.932174 0.553438 0.000000
0.965652 0.553989 0.000000
0.999201 0.554530 0.000000
1.000000 0.554111 0.000000
0.007800 0.572245 0.000000
0.038362 0.573213 0.000000
0.069052 0.574172 0.000000
0.100041 0.575313 0.000000
0.131381 0.576658 0.000000
0.163071 0.578174 0.000000
0.195096 0.579821 0.000000
0.227432 0.581558 0.000000
0.260047 0.583345 0.000000
0.292902 0.585146 0.000000
0.325959 0.586929 0.000000
0.359448 0.589220 0.000000
0.393099 0.591533 0.000000
0.426724 0.593680 0.000000
0.460260 0.595621 0.000000
0.493671 0.597344 0.000000
0.526946 0.598855 0.000000
0.560085 0.600168 0.000000
0.593049 0.601287 0.000000
0.606122 0.582795 0.000000
0.638978 0.583250 0.000000
0.671825 0.583726 0.000000
0.704733 0.584227 0.000000
0.737725 0.584746 0.000000
0.770801 0.585275 0.000000
0.803958 0.585809 0.000000
0.837196 0.586344 0.000000
0.870511 0.586876 0.000000
0.903902 0.587404 0.000000
0.937366 0.587926 0.000000
0.970900 0.588441 0.000000
1.000000 0.588948 0.000000
1.000000 0.588195 0.000000
0.008464 0.606081 0.000000
0.039203 0.606996 0.000000
0.070052 0.607897 0.000000
0.101169 0.608960 0.000000
0.132614 0.610223 0.000000
0.164388 0.611656 0.000000
0.196483 0.613224 0.000000
0.228876 0.614890 0.000000
0.261701 0.617136 0.000000
0.294855 0.619577 0.000000
0.328279 0.622000 0.000000
0.361934 0.624377 0.000000
0.395775 0.626685 0.000000
0.429661 0.628873 0.000000
0.463490 0.630888 0.000000
0.497215 0.632704 0.000000
0.530810 0.634315 0.000000
0.564270 0.635728 0.000000
0.597595 0.636958 0.000000
0.630736 0.638001 0.000000
0.642968 0.618426 0.000000
0.676022 0.618822 0.000000
0.709059 0.619240 0.000000
0.742144 0.619681 0.000000
0.775305 0.620143 0.000000
0.808541 0.620618 0.000000
0.841851 0.621099 0.000000
0.875235 0.621583 0.000000
0.908689 0.622067 0.000000
0.942213 0.622548 0.000000
0.975803 0.623025 0.000000
1.000000 0.623497 0.000000
1.000000 0.622380 0.000000
0.009130 0.639917 0.000000
0.040029 0.640784 0.000000
0.071024 0.641634 0.000000
0.102257 0.642626 0.000000
0.133799 0.643813 0.000000
0.165729 0.645719 0.000000
0.198018 0.647900 0.000000
0.230661 0.650179 0.000000
0.263634 0.652520 0.000000
0.296907 0.654889 0.000000
0.330447 0.657255 0.000000
0.364218 0.659591 0.000000
0.398187 0.661874 0.000000
0.432284 0.664078 0.000000
0.466367 0.666147 0.000000
0.500372 0.668041 0.000000
0.534262 0.669744 0.000000
0.568022 0.671255 0.000000
0.601646 0.672580 0.000000
0.635139 0.673735 0.000000
0.668438 0.674710 0.000000
0.679811 0.654058 0.000000
0.713045 0.654400 0.000000
0.746255 0.654764 0.000000
0.779502 0.655152 0.000000
0.812816 0.655562 0.000000
0.846199 0.655986 0.000000
0.879650 0.656419 0.000000
0.913167 0.656856 0.000000
0.946749 0.657295 0.000000
0.980395 0.657733 0.000000
1.000000 0.658168 0.000000
1.000000 0.656657 0.000000
0.009798 0.673752 0.000000
0.040847 0.674643 0.000000
0.071960 0.676119 0.000000
0.103334 0.677711 0.000000
0.135060 0.679491 0.000000
0.167141 0.681436 0.000000
0.199574 0.683518 0.000000
0.232344 0.685704 0.000000
0.265433 0.687961 0.000000
0.298813 0.690258 0.000000
0.332455 0.692565 0.000000
0.366330 0.694856 0.000000
0.400404 0.697109 0.000000
0.434646 0.699305 0.000000
0.468942 0.701405 0.000000
0.503193 0.703362 0.000000
0.537351 0.705146 0.000000
0.571389 0.706748 0.000000
0.605295 0.708167 0.000000
0.639068 0.709414 0.000000
0.672713 0.710501 0.000000
0.706153 0.711414 0.000000
0.716652 0.689689 0.000000
0.750049 0.689983 0.000000
0.783418 0.690299 0.000000
0.816812 0.690638 0.000000
0.850268 0.691000 0.000000
0.883786 0.691377 0.000000
0.917365 0.691765 0.000000
0.951006 0.692159 0.000000
0.984707 0.692555 0.000000
1.000000 0.692953 0.000000
1.000000 0.691015 0.000000
0.010254 0.709307 0.000000
0.041447 0.710750 0.000000
0.072773 0.712154 0.000000
0.104338 0.713655 0.000000
0.136234 0.715341 0.000000
0.168466 0.717192 0.000000
0.201031 0.719180 0.000000
0.233919 0.721277 0.000000
0.267112 0.723453 0.000000
0.300590 0.725679 0.000000
0.334326 0.727927 0.000000
0.368291 0.730171 0.000000
0.402459 0.732390 0.000000
0.436798 0.734564 0.000000
0.471263 0.736674 0.000000
0.505726 0.738674 0.000000
0.540121 0.740526 0.000000
0.574414 0.742209 0.000000
0.608583 0.743719 0.000000
0.642621 0.745057 0.000000
0.676530 0.746232 0.000000
0.710311 0.747257 0.000000
0.743879 0.748114 0.000000
0.753491 0.725321 0.000000
0.787037 0.725570 0.000000
0.820552 0.725842 0.000000
0.854082 0.726136 0.000000
0.887667 0.726454 0.000000
0.921309 0.726788 0.000000
0.955008 0.727134 0.000000
0.988763 0.727487 0.000000
1.000000 0.727845 0.000000
1.000000 0.725449 0.000000
0.010605 0.745482 0.000000
0.042015 0.746859 0.000000
0.073546 0.748201 0.000000
0.105289 0.749620 0.000000
0.137342 0.751219 0.000000
0.169713 0.752981 0.000000
0.202401 0.754881 0.000000
0.235397 0.756894 0.000000
0.268688 0.758992 0.000000
0.302255 0.761148 0.000000
0.336075 0.763337 0.000000
0.370122 0.765532 0.000000
0.404371 0.767714 0.000000
0.438796 0.769863 0.000000
0.473370 0.771963 0.000000
0.508010 0.773987 0.000000
0.542614 0.775890 0.000000
0.577136 0.777645 0.000000
0.611548 0.779237 0.000000
0.645836 0.780662 0.000000
0.679995 0.781926 0.000000
0.714025 0.783037 0.000000
0.747932 0.784006 0.000000
0.781615 0.784810 0.000000
0.790328 0.760953 0.000000
0.824011 0.761161 0.000000
0.857660 0.761393 0.000000
0.891316 0.761645 0.000000
0.925021 0.761922 0.000000
0.958778 0.762216 0.000000
0.992587 0.762523 0.000000
1.000000 0.762839 0.000000
1.000000 0.759952 0.000000
0.010953 0.781656 0.000000
0.042563 0.782975 0.000000
0.074286 0.784260 0.000000
0.106192 0.785603 0.000000
0.138392 0.787122 0.000000
0.170892 0.788800 0.000000
0.203694 0.790617 0.000000
0.236792 0.792550 0.000000
0.270173 0.794574 0.000000
0.303821 0.796662 0.000000
0.337717 0.798791 0.000000
0.371838 0.800937 0.000000
0.406160 0.803079 0.000000
0.440660 0.805199 0.000000
0.475312 0.807281 0.000000
0.510085 0.809310 0.000000
0.544867 0.811248 0.000000
0.579593 0.813060 0.000000
0.614226 0.814725 0.000000
0.648745 0.816232 0.000000
0.683140 0.817581 0.000000
0.717408 0.818777 0.000000
0.751551 0.819829 0.000000
0.785572 0.820747 0.000000
0.819360 0.821502 0.000000
0.827163 0.796586 0.000000
0.860973 0.796756 0.000000
0.894746 0.796950 0.000000
0.928518 0.797164 0.000000
0.962334 0.797402 0.000000
0.996197 0.797660 0.000000
1.000000 0.797931 0.000000
1.000000 0.794521 0.000000
0.011299 0.817831 0.000000
0.043094 0.819095 0.000000
0.074993 0.820327 0.000000
0.107053 0.821602 0.000000
0.139389 0.823045 0.000000
0.172010 0.824646 0.000000
0.204919 0.826385 0.000000
0.238110 0.828242 0.000000
0.271575 0.830194 0.000000
0.305299 0.832216 0.000000
0.339264 0.834286 0.000000
0.373452 0.836382 0.000000
0.407840 0.838484 0.000000
0.442406 0.840572 0.000000
0.477127 0.842633 0.000000
0.511982 0.844651 0.000000
0.546913 0.846608 0.000000
0.581816 0.848463 0.000000
0.616649 0.850189 0.000000
0.651381 0.851770 0.000000
