Camera18_LUT_V0/luts/ricoh-positive.cube
TITLE "Camera18 V0 - Ricoh Positive Film inspired"
LUT_3D_SIZE 5
DOMAIN_MIN 0.0 0.0 0.0
DOMAIN_MAX 1.0 1.0 1.0
# Original Camera 18 V0 approximation; input expected normalized display-referred RGB.
# Denser positive-film direction: saturated, punchy, deeper shadows.
0.000000 0.000000 0.001611
0.202151 0.000000 0.000110
0.407524 0.000000 0.000000
0.612897 0.000000 0.000000
0.860251 0.000000 0.000000
0.000882 0.200610 0.000000
0.219871 0.212142 0.000000
0.459890 0.219112 0.000000
0.710950 0.224027 0.000000
0.968516 0.227242 0.000000
0.005826 0.470732 0.000000
0.254973 0.483783 0.000000
0.498303 0.478980 0.000000
0.755072 0.481591 0.000000
1.000000 0.486299 0.000000
0.010605 0.745482 0.000000
0.268688 0.758992 0.000000
0.542614 0.775890 0.000000
0.790328 0.760953 0.000000
1.000000 0.759952 0.000000
0.013343 1.000000 0.000000
0.278682 1.000000 0.000000
0.553369 1.000000 0.000000
0.812356 1.000000 0.000000
1.000000 0.999779 0.000000
0.000000 0.000000 0.202400
0.198095 0.000000 0.200374
0.404732 0.000000 0.199393
0.609893 0.000000 0.197189
0.873623 0.000000 0.209668
0.000000 0.203284 0.204088
0.219428 0.218996 0.218515
0.453217 0.189737 0.188613
0.693859 0.158630 0.156842
0.939780 0.126098 0.123632
0.000000 0.472089 0.225530
0.215060 0.478898 0.206158
0.498161 0.485655 0.198449
0.748592 0.446517 0.161526
1.000000 0.411832 0.124816
0.000000 0.747037 0.231056
0.200044 0.754578 0.185222
0.493747 0.771237 0.174572
0.790223 0.766847 0.164368
1.000000 0.722469 0.125890
0.000000 1.000000 0.235503
0.179176 1.000000 0.160834
0.475048 1.000000 0.151526
0.765505 1.000000 0.126272
1.000000 0.999843 0.116797
0.000000 0.000000 0.403188
0.195450 0.000000 0.400692
0.399413 0.000000 0.399130
0.619765 0.000000 0.407680
0.885409 0.000000 0.432689
0.000000 0.206739 0.419860
0.171598 0.172885 0.424967
0.450170 0.183643 0.446965
0.696746 0.156947 0.420986
0.943169 0.123363 0.388917
0.000000 0.471502 0.469479
0.197377 0.477399 0.474137
0.492133 0.489210 0.484098
0.748064 0.456169 0.450756
1.000000 0.422224 0.416543
0.000000 0.749045 0.483187
0.188068 0.755927 0.459766
0.484026 0.764700 0.472613
0.789828 0.776802 0.471683
1.000000 0.733128 0.431459
0.000000 1.000000 0.496450
0.161558 1.000000 0.438778
0.465104 1.000000 0.450427
0.750035 1.000000 0.430978
1.000000 1.000000 0.413451
0.000000 0.000000 0.603976
0.193280 0.000000 0.601479
0.396292 0.000000 0.598976
0.626637 0.000000 0.623660
0.895837 0.000000 0.663146
0.000000 0.209731 0.642909
0.128090 0.130970 0.620381
0.399954 0.139471 0.660708
0.692196 0.147294 0.686536
0.947766 0.122616 0.663923
0.000000 0.472101 0.711735
0.148496 0.431201 0.711155
0.438494 0.437557 0.719316
0.740332 0.446839 0.730823
1.000000 0.420276 0.703191
0.000000 0.747568 0.743883
0.163031 0.753486 0.749451
0.464278 0.761936 0.757295
0.780385 0.777783 0.772523
1.000000 0.741403 0.735876
0.000000 1.000000 0.758644
0.158495 1.000000 0.732690
0.449844 1.000000 0.729344
0.734799 1.000000 0.724040
1.000000 1.000000 0.706613
0.000000 0.000000 0.804764
0.191110 0.000000 0.802265
0.394122 0.000000 0.799761
0.635534 0.000000 0.848521
0.896292 0.000000 0.890224
0.000000 0.212116 0.872156
0.086908 0.091278 0.802413
0.351493 0.098106 0.865264
0.638698 0.102184 0.904223
0.940137 0.108597 0.931952
0.000000 0.473113 0.954916
0.103540 0.385966 0.943730
0.391403 0.392371 0.957690
0.687525 0.397537 0.968760
0.998602 0.407923 0.987656
0.000000 0.748181 1.000000
0.109295 0.703746 0.998346
0.411521 0.712431 1.000000
0.720285 0.719420 1.000000
1.000000 0.728437 1.000000
0.000000 1.000000 1.000000
0.121344 1.000000 1.000000
0.421344 1.000000 1.000000
0.710961 1.000000 1.000000
1.000000 0.998820 0.993818
