Camera18_LUT_V0/luts/ricoh-positive.cube
TITLE "Camera18 V0 - Ricoh Positive Film inspired"
LUT_3D_SIZE 9
DOMAIN_MIN 0.0 0.0 0.0
DOMAIN_MAX 1.0 1.0 1.0
# Original Camera 18 V0 approximation; input expected normalized display-referred RGB.
# Denser positive-film direction: saturated, punchy, deeper shadows.
0.000000 0.000000 0.001611
0.099464 0.000000 0.000861
0.202151 0.000000 0.000110
0.304838 0.000000 0.000000
0.407524 0.000000 0.000000
0.510211 0.000000 0.000000
0.612897 0.000000 0.000000
0.722614 0.000000 0.000000
0.860251 0.000000 0.000000
0.000000 0.099500 0.000423
0.100863 0.098066 0.000000
0.203385 0.096864 0.000000
0.305938 0.096106 0.000000
0.417246 0.097461 0.000000
0.541598 0.100384 0.000000
0.668762 0.102457 0.000000
0.797918 0.103920 0.000000
0.928537 0.104931 0.000000
0.000882 0.200610 0.000000
0.109994 0.211053 0.000000
0.219871 0.212142 0.000000
0.338083 0.215847 0.000000
0.459890 0.219112 0.000000
0.584396 0.221816 0.000000
0.710950 0.224027 0.000000
0.839099 0.225814 0.000000
0.968516 0.227242 0.000000
0.003261 0.335365 0.000000
0.120484 0.342836 0.000000
0.245713 0.351728 0.000000
0.359058 0.345566 0.000000
0.483220 0.347343 0.000000
0.609074 0.349207 0.000000
0.736396 0.350898 0.000000
0.864913 0.352389 0.000000
0.994421 0.353682 0.000000
0.005826 0.470732 0.000000
0.127313 0.476155 0.000000
0.254973 0.483783 0.000000
0.385681 0.490654 0.000000
0.498303 0.478980 0.000000
0.625609 0.479723 0.000000
0.755072 0.481591 0.000000
0.887303 0.484279 0.000000
1.000000 0.486299 0.000000
0.008464 0.606081 0.000000
0.132614 0.610223 0.000000
0.261701 0.617136 0.000000
0.395775 0.626685 0.000000
0.530810 0.634315 0.000000
0.642968 0.618426 0.000000
0.775305 0.620143 0.000000
0.908689 0.622067 0.000000
1.000000 0.622380 0.000000
0.010605 0.745482 0.000000
0.137342 0.751219 0.000000
0.268688 0.758992 0.000000
0.404371 0.767714 0.000000
0.542614 0.775890 0.000000
0.679995 0.781926 0.000000
0.790328 0.760953 0.000000
0.925021 0.761922 0.000000
1.000000 0.759952 0.000000
0.011986 0.890182 0.000000
0.141248 0.894949 0.000000
0.274167 0.901537 0.000000
0.410919 0.909401 0.000000
0.550508 0.917364 0.000000
0.690954 0.924341 0.000000
0.829848 0.929246 0.000000
0.937662 0.903484 0.000000
1.000000 0.895729 0.000000
0.013343 1.000000 0.000000
0.144541 1.000000 0.000000
0.278682 1.000000 0.000000
0.416207 1.000000 0.000000
0.553369 1.000000 0.000000
0.684666 1.000000 0.000000
0.812356 1.000000 0.000000
0.936971 1.000000 0.000000
1.000000 0.999779 0.000000
0.000000 0.000000 0.102006
0.097437 0.000000 0.100994
0.200755 0.000000 0.100505
0.303335 0.000000 0.099406
0.406010 0.000000 0.098645
0.508698 0.000000 0.097917
0.611387 0.000000 0.097185
0.730894 0.000000 0.098719
0.867276 0.000000 0.101623
0.000000 0.098558 0.100570
0.098726 0.099334 0.100737
0.201521 0.084235 0.085357
0.304316 0.069135 0.069976
0.407110 0.054036 0.054595
0.509905 0.038937 0.039214
0.618305 0.024056 0.024051
0.736775 0.008998 0.008702
0.860251 0.000000 0.000000
0.000000 0.202041 0.097751
0.092623 0.209166 0.091285
0.220967 0.216248 0.089643
0.334740 0.199835 0.073544
0.451341 0.184652 0.057013
0.569946 0.169184 0.040002
0.690203 0.153259 0.022574
0.811873 0.136889 0.004792
0.935577 0.122043 0.000000
0.000000 0.336410 0.104905
0.089370 0.340766 0.084165
0.223516 0.349610 0.079169
0.359337 0.348484 0.074333
0.480479 0.329590 0.056900
0.602993 0.312286 0.039138
0.726609 0.295253 0.021008
0.851143 0.278180 0.002606
0.976952 0.263039 0.000000
0.000000 0.471256 0.106635
0.081807 0.474109 0.072461
0.218009 0.480427 0.068011
0.362756 0.489386 0.057814
0.498279 0.481048 0.054056
0.623311 0.460788 0.035992
0.749083 0.442143 0.017747
0.875572 0.424010 0.000000
1.000000 0.409505 0.000000
0.000000 0.606298 0.106141
0.072320 0.608230 0.058700
0.210794 0.613001 0.055007
0.354817 0.623436 0.045212
0.507808 0.633328 0.035798
0.643072 0.620058 0.033327
0.772581 0.599319 0.014852
0.902824 0.580141 0.000000
1.000000 0.563838 0.000000
0.000000 0.745949 0.105847
0.061448 0.748157 0.044993
0.203136 0.754498 0.042502
0.347719 0.763545 0.033423
0.499721 0.773298 0.021868
0.657193 0.781136 0.013562
0.790319 0.761803 0.011666
0.922710 0.740114 0.000000
1.000000 0.720525 0.000000
0.000000 0.890392 0.106033
0.049302 0.891793 0.031027
0.193637 0.897099 0.028876
0.339261 0.904789 0.020733
0.490188 0.913755 0.009035
0.647404 0.922318 0.000000
0.807475 0.928600 0.000000
0.937652 0.903625 0.000000
1.000000 0.878735 0.000000
0.000000 1.000000 0.105525
0.036412 1.000000 0.016338
0.182853 1.000000 0.014435
0.329684 1.000000 0.007242
0.480137 1.000000 0.000000
0.628916 1.000000 0.000000
0.776211 1.000000 0.000000
0.919333 1.000000 0.000000
1.000000 0.999779 0.000000
0.000000 0.000000 0.202400
0.096114 0.000000 0.201153
0.198095 0.000000 0.200374
0.302196 0.000000 0.200656
0.404732 0.000000 0.199393
0.507273 0.000000 0.198142
0.609893 0.000000 0.197189
0.738322 0.000000 0.203501
0.873623 0.000000 0.209668
0.000000 0.097882 0.201236
0.078980 0.080390 0.200401
0.198388 0.080782 0.199397
0.302607 0.067722 0.184640
0.405313 0.052419 0.168625
0.509053 0.037395 0.153452
0.625218 0.022773 0.141020
0.743952 0.007478 0.127615
0.868221 0.000000 0.116951
0.000000 0.203284 0.204088
0.085280 0.209530 0.209833
0.219428 0.218996 0.218515
0.335345 0.204630 0.203830
0.453217 0.189737 0.188613
0.572792 0.174385 0.172931
0.693859 0.158630 0.156842
0.816238 0.142521 0.140396
0.939780 0.126098 0.123632
0.000000 0.337728 0.218857
0.084139 0.341721 0.208505
0.219325 0.346870 0.214559
0.359695 0.353402 0.214234
0.480281 0.334057 0.196073
0.603035 0.316826 0.178199
0.726965 0.299716 0.160156
0.851807 0.282424 0.141901
0.977424 0.264898 0.123443
0.000000 0.472089 0.225530
0.073917 0.474633 0.199220
0.215060 0.478898 0.206158
0.356555 0.487105 0.202238
0.498161 0.485655 0.198449
0.622790 0.465088 0.179990
0.748592 0.446517 0.161526
0.876606 0.429166 0.143281
1.000000 0.411832 0.124816
0.000000 0.606830 0.228103
0.061864 0.608469 0.186153
0.208007 0.612611 0.194965
0.350174 0.620829 0.192559
0.502093 0.632762 0.185030
0.643347 0.625340 0.182579
0.772658 0.604294 0.163969
0.902948 0.585103 0.145346
1.000000 0.566047 0.126359
0.000000 0.747037 0.231056
0.048302 0.748729 0.173370
0.200044 0.754578 0.185222
0.344161 0.760942 0.183047
0.493747 0.771237 0.174572
0.651532 0.780894 0.166402
0.790223 0.766847 0.164368
0.922433 0.744913 0.145299
1.000000 0.722469 0.125890
0.000000 0.891215 0.233954
0.033463 0.892094 0.159678
0.190225 0.897280 0.173640
0.336279 0.902451 0.171751
0.485093 0.911106 0.163635
0.641039 0.920795 0.153187
0.801779 0.928422 0.145822
0.937288 0.908495 0.144178
1.000000 0.879273 0.123799
0.000000 1.000000 0.235503
0.017892 1.000000 0.144586
0.179176 1.000000 0.160834
0.326925 1.000000 0.159175
0.475048 1.000000 0.151526
0.620198 1.000000 0.138822
0.765505 1.000000 0.126272
0.909783 1.000000 0.118421
1.000000 0.999843 0.116797
0.000000 0.000000 0.302794
0.095029 0.000000 0.301547
0.196535 0.000000 0.300299
0.298754 0.000000 0.299753
0.403636 0.000000 0.300805
0.506173 0.000000 0.299541
0.612092 0.000000 0.299933
0.745342 0.000000 0.311246
0.879543 0.000000 0.319760
0.000000 0.097327 0.301629
0.060412 0.062612 0.301210
0.179341 0.062296 0.299745
0.298988 0.063160 0.298968
0.403995 0.051669 0.284964
0.515656 0.036907 0.273470
0.631705 0.021631 0.261721
0.750448 0.005946 0.249409
0.875339 0.000000 0.240878
0.000000 0.204968 0.311134
0.063168 0.187449 0.311399
0.193815 0.194266 0.321705
0.332203 0.200608 0.330188
0.453820 0.189106 0.318238
0.573607 0.173314 0.302662
0.695053 0.157439 0.287332
0.817756 0.141239 0.271669
0.941556 0.124730 0.255640
0.000000 0.337408 0.336894
0.072930 0.340863 0.339879
0.210559 0.345828 0.344025
0.355750 0.354105 0.351391
0.478699 0.337843 0.334779
0.602554 0.321337 0.317921
0.727233 0.304608 0.300838
0.852664 0.287677 0.283550
0.978783 0.270560 0.266075
0.000000 0.472853 0.345126
0.072701 0.475356 0.333392
0.209596 0.479271 0.336952
0.350844 0.482677 0.342414
0.497961 0.490207 0.343616
0.621628 0.469078 0.323966
0.748638 0.451401 0.305857
0.877010 0.434006 0.287729
1.000000 0.416478 0.269429
0.000000 0.607316 0.350524
0.060513 0.608947 0.323145
0.200039 0.613413 0.326481
0.346779 0.618964 0.335358
0.495153 0.629951 0.334237
0.643524 0.630559 0.332745
0.772282 0.609028 0.313569
0.902591 0.589876 0.294708
1.000000 0.571366 0.275761
0.000000 0.748068 0.356844
0.046765 0.749826 0.314014
0.189326 0.755080 0.317473
0.341040 0.760037 0.327903
0.488162 0.767503 0.325992
0.645201 0.779752 0.319697
0.790059 0.771845 0.317718
0.921872 0.749557 0.298307
1.000000 0.727758 0.278450
0.000000 0.891997 0.362306
0.031832 0.892948 0.303009
0.176805 0.897551 0.305806
0.333012 0.902021 0.318156
0.480870 0.907607 0.316346
0.634415 0.918023 0.308835
0.795738 0.927846 0.301629
0.931944 0.908527 0.298296
1.000000 0.879412 0.276727
0.000000 1.000000 0.365815
0.016198 1.000000 0.290001
0.163075 1.000000 0.292358
0.323430 1.000000 0.306847
0.470167 1.000000 0.303793
0.612974 1.000000 0.292448
0.757825 1.000000 0.278938
0.901642 1.000000 0.268281
1.000000 0.999977 0.265578
0.000000 0.000000 0.403188
0.093944 0.000000 0.401941
0.195450 0.000000 0.400692
0.296956 0.000000 0.399442
0.399413 0.000000 0.399130
0.505077 0.000000 0.400952
0.619765 0.000000 0.407680
0.752047 0.000000 0.421925
0.885409 0.000000 0.432689
0.000000 0.096771 0.402022
0.041843 0.044834 0.402018
0.160773 0.044518 0.400554
0.279702 0.044201 0.399088
0.400786 0.045674 0.399733
0.522123 0.036797 0.398050
0.638661 0.021228 0.387603
0.757429 0.005119 0.375943
0.882090 0.000000 0.367886
0.000000 0.206739 0.419860
0.043113 0.166018 0.408794
0.171598 0.172885 0.424967
0.307584 0.177970 0.436704
0.450170 0.183643 0.446965
0.575347 0.173429 0.436700
0.696746 0.156947 0.420986
0.819322 0.140173 0.404853
0.943169 0.123363 0.388917
0.000000 0.338038 0.453378
0.048324 0.317815 0.452230
0.186184 0.322915 0.458305
0.327730 0.327059 0.462986
0.473432 0.332027 0.467917
0.601719 0.320126 0.454686
0.726477 0.303070 0.437264
0.852196 0.286142 0.420368
0.978564 0.269031 0.403335
0.000000 0.471502 0.469479
0.055825 0.473491 0.471086
0.197377 0.477399 0.474137
0.341058 0.480733 0.476602
0.492133 0.489210 0.484098
0.619629 0.472800 0.467520
0.748064 0.456169 0.450756
0.877364 0.439305 0.433759
1.000000 0.422224 0.416543
0.000000 0.607761 0.473380
0.059151 0.609376 0.460655
0.199015 0.614495 0.465763
0.341306 0.619641 0.471081
0.488124 0.624285 0.478381
0.643609 0.635718 0.483769
0.770996 0.613216 0.462998
0.901431 0.594249 0.443820
1.000000 0.575796 0.424828
0.000000 0.749045 0.483187
0.045215 0.750858 0.455335
0.188068 0.755927 0.459766
0.332796 0.760469 0.463894
0.484026 0.764700 0.472613
0.637234 0.775934 0.472318
0.789828 0.776802 0.471683
0.920835 0.753920 0.451448
1.000000 0.733128 0.431459
0.000000 0.892737 0.491074
0.030193 0.893752 0.446855
0.175393 0.898211 0.450405
0.322054 0.902256 0.453759
0.477381 0.906129 0.464282
0.627940 0.913307 0.462753
0.787940 0.925109 0.457064
0.926522 0.908444 0.451216
1.000000 0.879674 0.428475
0.000000 1.000000 0.496450
0.014499 1.000000 0.435820
0.161558 1.000000 0.438778
0.309788 1.000000 0.441604
0.465104 1.000000 0.450427
0.606710 1.000000 0.443265
0.750035 1.000000 0.430978
0.893566 1.000000 0.417754
1.000000 1.000000 0.413451
0.000000 0.000000 0.503582
0.092859 0.000000 0.502334
0.194365 0.000000 0.501085
0.295871 0.000000 0.499835
0.397377 0.000000 0.498584
0.500072 0.000000 0.498505
0.626678 0.000000 0.517754
0.758152 0.000000 0.534441
0.890842 0.000000 0.547246
0.000000 0.096215 0.502415
0.023274 0.027056 0.502827
0.142204 0.026739 0.501362
0.261134 0.026423 0.499897
0.380063 0.026107 0.498430
0.518200 0.028921 0.516046
0.644883 0.020794 0.516113
0.764008 0.004478 0.505451
0.888570 0.000000 0.497978
0.000000 0.208320 0.530522
0.023684 0.144929 0.501452
0.149673 0.151771 0.524730
0.284167 0.156778 0.541632
0.424265 0.160552 0.554247
0.570300 0.165819 0.565877
0.698751 0.156982 0.557254
0.821606 0.140057 0.541638
0.945456 0.122879 0.525599
0.000000 0.339032 0.569996
0.027089 0.295465 0.562210
0.163806 0.300627 0.571032
0.304538 0.304790 0.577922
0.448297 0.308200 0.583355
0.596157 0.313175 0.589373
0.726802 0.302946 0.577557
0.852331 0.285434 0.559884
0.978495 0.267769 0.542021
0.000000 0.471518 0.590939
0.028960 0.449901 0.589329
0.171172 0.453917 0.593317
0.315713 0.457323 0.596484
0.462134 0.460236 0.598988
0.612909 0.465615 0.604113
0.747173 0.454997 0.592475
0.876578 0.437805 0.575144
1.000000 0.420767 0.558395
0.000000 0.605582 0.601964
0.036653 0.606681 0.602788
0.181172 0.612167 0.607864
0.328265 0.617346 0.612740
0.477583 0.621924 0.617013
0.636274 0.633479 0.628259
0.767662 0.616051 0.610699
0.899653 0.598460 0.592975
1.000000 0.580715 0.575098
0.000000 0.749970 0.610061
0.043654 0.751829 0.597300
0.186789 0.756722 0.602644
0.331747 0.761111 0.607605
0.478288 0.765063 0.612233
0.628677 0.768696 0.619023
0.789536 0.781717 0.626231
0.918783 0.757618 0.604010
1.000000 0.737692 0.583988
0.000000 0.893439 0.620242
0.028546 0.894508 0.591194
0.173967 0.898830 0.595457
0.320814 0.902753 0.599468
0.468919 0.906325 0.603257
0.623101 0.909696 0.611787
0.777325 0.918350 0.610278
0.921219 0.908439 0.603022
1.000000 0.880088 0.579054
0.000000 1.000000 0.627396
0.012794 1.000000 0.582030
0.160031 1.000000 0.585559
0.308412 1.000000 0.588916
0.452793 1.000000 0.585619
0.601185 1.000000 0.588494
0.741631 1.000000 0.580228
0.885618 1.000000 0.567149
1.000000 1.000000 0.560451
0.000000 0.000000 0.603976
0.091774 0.000000 0.602728
0.193280 0.000000 0.601479
0.294786 0.000000 0.600228
0.396292 0.000000 0.598976
0.497799 0.000000 0.597724
0.626637 0.000000 0.623660
0.763618 0.000000 0.648511
0.895837 0.000000 0.663146
0.000000 0.095660 0.602808
0.004706 0.009277 0.603634
0.123636 0.008961 0.602171
0.242565 0.008645 0.600706
0.361495 0.008329 0.599239
0.486913 0.008121 0.605845
0.638702 0.010943 0.635395
0.769936 0.003819 0.637048
0.894452 0.000000 0.629902
0.000000 0.209731 0.642909
0.005116 0.127151 0.602262
0.128090 0.130970 0.620381
0.260895 0.135849 0.643523
0.399954 0.139471 0.660708
0.543279 0.142235 0.673828
0.692196 0.147294 0.686536
0.823680 0.139910 0.679509
0.947766 0.122616 0.663923
0.000000 0.339936 0.687538
0.006162 0.273238 0.670060
0.141618 0.278454 0.682056
0.281462 0.282627 0.691466
0.424580 0.286021 0.698946
0.570204 0.288819 0.704948
0.719980 0.293886 0.711915
0.852898 0.285355 0.701516
0.979227 0.267597 0.683918
0.000000 0.472101 0.711735
0.006986 0.427137 0.705580
0.148496 0.431201 0.711155
0.292496 0.434633 0.715664
0.438494 0.437557 0.719316
0.586246 0.440163 0.722431
0.740332 0.446839 0.730823
0.877146 0.437985 0.720797
1.000000 0.420276 0.703191
0.000000 0.605164 0.726578
0.007691 0.582711 0.724843
0.152915 0.587123 0.729240
0.300719 0.592415 0.735106
0.450919 0.597075 0.740173
0.603148 0.601201 0.744563
0.759206 0.607203 0.750472
0.897993 0.596802 0.738745
1.000000 0.578784 0.720392
0.000000 0.747568 0.743883
0.015187 0.748511 0.744774
0.163031 0.753486 0.749451
0.312815 0.757938 0.753601
0.464278 0.761936 0.757295
0.617204 0.765539 0.760591
0.780385 0.777783 0.772523
0.914381 0.759650 0.754257
1.000000 0.741403 0.735876
0.000000 0.894049 0.749912
0.026893 0.895219 0.736007
0.172529 0.899408 0.740944
0.319557 0.903215 0.745578
0.467813 0.906683 0.749946
0.617163 0.909849 0.754075
0.766679 0.908875 0.757211
0.916030 0.908507 0.753763
1.000000 0.880711 0.728382
0.000000 1.000000 0.758644
0.011084 1.000000 0.728616
0.158495 1.000000 0.732690
0.306313 1.000000 0.734845
0.449844 1.000000 0.729344
0.591101 1.000000 0.724264
0.734799 1.000000 0.724040
0.877367 1.000000 0.716224
1.000000 1.000000 0.706613
0.000000 0.000000 0.704370
0.090689 0.000000 0.703121
0.192195 0.000000 0.701872
0.293701 0.000000 0.700621
0.395207 0.000000 0.699369
0.503505 0.000000 0.707661
0.630393 0.000000 0.734340
0.761480 0.000000 0.756985
0.900027 0.000000 0.779917
0.000000 0.095104 0.703201
0.000000 0.000000 0.704370
0.107607 0.000000 0.702913
0.226030 0.000000 0.701455
0.344454 0.000000 0.699995
0.462878 0.000000 0.698534
0.609088 0.000000 0.730390
0.761529 0.000000 0.757032
0.899681 0.000000 0.763366
0.000000 0.210992 0.756840
0.000000 0.111871 0.703004
0.106913 0.110541 0.711153
0.237791 0.115226 0.741893
0.375695 0.118643 0.764510
0.518296 0.121212 0.781695
0.664193 0.123185 0.795067
0.815554 0.128189 0.808639
0.949868 0.122323 0.803167
0.000000 0.340755 0.805935
0.000000 0.253879 0.777021
0.119643 0.256411 0.791175
0.258514 0.260581 0.803469
0.400937 0.263948 0.813266
0.546054 0.266706 0.821167
0.693264 0.268989 0.827595
0.844756 0.274219 0.835401
0.979869 0.267409 0.826413
0.000000 0.472632 0.833071
0.000000 0.406525 0.821250
0.125948 0.408549 0.827990
0.269368 0.412003 0.833986
0.414915 0.414933 0.838903
0.562185 0.417439 0.842945
0.712788 0.420832 0.849219
0.868937 0.427592 0.858711
1.000000 0.420516 0.850313
0.000000 0.605675 0.850228
0.000000 0.561131 0.845111
0.129878 0.563161 0.848830
0.277000 0.568494 0.856300
0.426640 0.573179 0.862779
0.578408 0.577315 0.868421
0.731987 0.580985 0.873351
0.889641 0.587227 0.880190
1.000000 0.578736 0.869946
0.000000 0.747399 0.873010
0.000000 0.723729 0.869705
0.132714 0.727988 0.874851
0.283398 0.732539 0.879569
0.435879 0.736615 0.883705
0.589919 0.740278 0.887334
0.745321 0.743581 0.890522
0.904335 0.749245 0.895743
1.000000 0.739337 0.884326
0.000000 0.890885 0.887453
0.000000 0.891067 0.887623
0.142853 0.895352 0.891607
0.294738 0.899235 0.895187
0.447935 0.902765 0.898410
0.602294 0.905981 0.901317
0.753043 0.903348 0.898402
0.904057 0.901728 0.896551
1.000000 0.879319 0.874033
0.000000 1.000000 0.890651
0.008822 1.000000 0.875602
0.156950 1.000000 0.880157
0.303715 1.000000 0.878974
0.446931 1.000000 0.872330
0.587917 1.000000 0.866178
0.726888 1.000000 0.860471
0.866244 1.000000 0.857370
1.000000 1.000000 0.851966
0.000000 0.000000 0.804764
0.089604 0.000000 0.803515
0.191110 0.000000 0.802265
0.292616 0.000000 0.801013
0.394122 0.000000 0.799761
0.509160 0.000000 0.820308
0.635534 0.000000 0.848521
0.763923 0.000000 0.870376
0.896292 0.000000 0.890224
0.000000 0.094548 0.803593
0.000000 0.000000 0.804764
0.104105 0.000000 0.803336
0.220112 0.000000 0.801907
0.336119 0.000000 0.800477
0.455831 0.000000 0.805594
0.599189 0.000000 0.841211
0.745483 0.000000 0.867565
0.896292 0.000000 0.890224
0.000000 0.212116 0.872156
0.000000 0.108920 0.803425
0.086908 0.091278 0.802413
0.214884 0.094960 0.836145
0.351493 0.098106 0.865264
0.493302 0.100429 0.887216
0.638698 0.102184 0.904223
0.786674 0.103532 0.917674
0.940137 0.108597 0.931952
0.000000 0.341497 0.925124
0.000000 0.248724 0.891006
0.097906 0.234513 0.898149
0.235709 0.238666 0.913757
0.377377 0.241992 0.926183
0.521949 0.244697 0.936218
0.668756 0.246922 0.944412
0.817323 0.248770 0.951156
0.970366 0.254221 0.959710
0.000000 0.473113 0.954916
0.000000 0.397725 0.939751
0.103540 0.385966 0.943730
0.246337 0.389439 0.951378
0.391403 0.392371 0.957690
0.538296 0.394869 0.962926
0.687525 0.397537 0.968760
0.840552 0.401022 0.977156
0.998602 0.407923 0.987656
0.000000 0.606702 0.975358
0.000000 0.548836 0.966595
0.107001 0.540113 0.969009
0.253401 0.544643 0.976455
0.402452 0.549348 0.984464
0.553735 0.553492 0.991458
0.706913 0.557160 0.997590
0.861714 0.560419 1.000000
1.000000 0.566936 1.000000
0.000000 0.748181 1.000000
0.000000 0.707679 0.994237
0.109295 0.703746 0.998346
0.259470 0.708332 1.000000
0.411521 0.712431 1.000000
0.565196 0.716109 1.000000
0.720285 0.719420 1.000000
0.876614 0.722408 1.000000
1.000000 0.728437 1.000000
0.000000 0.890309 1.000000
0.000000 0.869975 1.000000
0.110506 0.869483 1.000000
0.263424 0.873455 1.000000
0.417738 0.877056 1.000000
0.573287 0.880330 1.000000
0.729507 0.882803 1.000000
0.875517 0.874028 1.000000
1.000000 0.867934 1.000000
0.000000 1.000000 1.000000
0.000000 1.000000 1.000000
0.121344 1.000000 1.000000
0.273082 1.000000 1.000000
0.421344 1.000000 1.000000
0.567225 1.000000 1.000000
0.710961 1.000000 1.000000
0.852756 0.998366 0.993609
1.000000 0.998820 0.993818
