Camera18_LUT_V0/luts/VMF_HN_33_v2.cube
# V-MF HNCS-inspired v2
# Independent approximation for Camera 18; not official Hasselblad HNCS.
TITLE "V-MF HN v2"
LUT_3D_SIZE 33
DOMAIN_MIN 0.0 0.0 0.0
DOMAIN_MAX 1.0 1.0 1.0
0.0000000 0.0000000 0.0000000
0.0306470 0.0007966 0.0006692
0.0612939 0.0015932 0.0013384
0.0919409 0.0023898 0.0020076
0.1225878 0.0031863 0.0026767
0.1532348 0.0039829 0.0033459
0.1838817 0.0047795 0.0040151
0.2145287 0.0055761 0.0046843
0.2451756 0.0063727 0.0053535
0.2758226 0.0071693 0.0060227
0.3064695 0.0079659 0.0066919
0.3371165 0.0087625 0.0073611
0.3677634 0.0095590 0.0080302
0.3984104 0.0103556 0.0086994
0.4290573 0.0111522 0.0093686
0.4597043 0.0119488 0.0100378
0.4903512 0.0127454 0.0107070
0.5209982 0.0135420 0.0113762
0.5516451 0.0143386 0.0120454
0.5822921 0.0151351 0.0127146
0.6129390 0.0159317 0.0133837
0.6435860 0.0167283 0.0140529
0.6742329 0.0175249 0.0147221
0.7048799 0.0183215 0.0153913
0.7355268 0.0191181 0.0160605
0.7661738 0.0199147 0.0167297
0.7968207 0.0207113 0.0173989
0.8274677 0.0215078 0.0180681
0.8581146 0.0223044 0.0187372
0.8887616 0.0231010 0.0194064
0.9194085 0.0238976 0.0200756
0.9500555 0.0246942 0.0207448
0.9786765 0.0274995 0.0234400
0.0008277 0.0304226 0.0012169
0.0305322 0.0302822 0.0008664
0.0615990 0.0308573 0.0014310
0.0923702 0.0315180 0.0020480
0.1230410 0.0322838 0.0026911
0.1536886 0.0330809 0.0033439
0.1843307 0.0338860 0.0040019
0.2149719 0.0346923 0.0046629
0.2456135 0.0354981 0.0053258
0.2762557 0.0363028 0.0059901
0.3068985 0.0371064 0.0066554
0.3375419 0.0379091 0.0073213
0.3681858 0.0387110 0.0079878
0.3988300 0.0395123 0.0086547
0.4294746 0.0403129 0.0093219
0.4601195 0.0411131 0.0099893
0.4907646 0.0419129 0.0106570
0.5214099 0.0427123 0.0113249
0.5520553 0.0435115 0.0119929
0.5827009 0.0443104 0.0126610
0.6133467 0.0451091 0.0133292
0.6439925 0.0459076 0.0139976
0.6746385 0.0467059 0.0146660
0.7052845 0.0475041 0.0153344
0.7359306 0.0483022 0.0160030
0.7665767 0.0491001 0.0166715
0.7972230 0.0498980 0.0173402
0.8278692 0.0506957 0.0180088
0.8585156 0.0514934 0.0186775
0.8891619 0.0522910 0.0193463
0.9198083 0.0530885 0.0200150
0.9504548 0.0538860 0.0206838
0.9787519 0.0568696 0.0237020
0.0016554 0.0608452 0.0024338
0.0310151 0.0610576 0.0014943
0.0610645 0.0605645 0.0017328
0.0921882 0.0611815 0.0023041
0.1231981 0.0617145 0.0028620
0.1540158 0.0623337 0.0034678
0.1847404 0.0630360 0.0040959
0.2154216 0.0637883 0.0047356
0.2460819 0.0645676 0.0053821
0.2767320 0.0653611 0.0060333
0.3073771 0.0661618 0.0066879
0.3380198 0.0669660 0.0073449
0.3686614 0.0677719 0.0080038
0.3993026 0.0685783 0.0086642
0.4299439 0.0693846 0.0093258
0.4605853 0.0701906 0.0099883
0.4912270 0.0709961 0.0106517
0.5218690 0.0718011 0.0113157
0.5525114 0.0726056 0.0119803
0.5831541 0.0734095 0.0126453
0.6137971 0.0742129 0.0133107
0.6444403 0.0750158 0.0139765
0.6750838 0.0758183 0.0146426
0.7057276 0.0766204 0.0153090
0.7363715 0.0774221 0.0159756
0.7670157 0.0782235 0.0166424
0.7976600 0.0790245 0.0173093
0.8283045 0.0798253 0.0179765
0.8589492 0.0806259 0.0186438
0.8895940 0.0814261 0.0193112
0.9202389 0.0822262 0.0199787
0.9508840 0.0830261 0.0206463
0.9788068 0.0861936 0.0240364
0.0024831 0.0912678 0.0036507
0.0312354 0.0914690 0.0023057
0.0619034 0.0915872 0.0023462
0.0915967 0.0908467 0.0025993
0.1226960 0.0914950 0.0031943
0.1538303 0.0920329 0.0037244
0.1847971 0.0925718 0.0042930
0.2156359 0.0931746 0.0048937
0.2463967 0.0938405 0.0055131
0.2771107 0.0945540 0.0061439
0.3077965 0.0953005 0.0067822
0.3384650 0.0960688 0.0074257
0.3691229 0.0968514 0.0080732
0.3997741 0.0976433 0.0087238
0.4304212 0.0984411 0.0093768
0.4610657 0.0992427 0.0100318
0.4917086 0.1000466 0.0106885
0.5223506 0.1008518 0.0113465
0.5529921 0.1016579 0.0120057
0.5836333 0.1024642 0.0126659
0.6142745 0.1032706 0.0133269
0.6449158 0.1040769 0.0139887
0.6755572 0.1048830 0.0146511
0.7061987 0.1056888 0.0153141
0.7368405 0.1064942 0.0159775
0.7674825 0.1072993 0.0166414
0.7981247 0.1081040 0.0173057
0.8287671 0.1089083 0.0179704
0.8594097 0.1097123 0.0186354
0.8900526 0.1105160 0.0193006
0.9206956 0.1113193 0.0199661
0.9513388 0.1121223 0.0206319
0.9788415 0.1154666 0.0244385
0.0033108 0.1216904 0.0048676
0.0315645 0.1218565 0.0031601
0.0620302 0.1221152 0.0029885
0.0927534 0.1220628 0.0032774
0.1221290 0.1211289 0.0034657
0.1531979 0.1217912 0.0040812
0.1843763 0.1223629 0.0046081
0.2154497 0.1228844 0.0051502
0.2463962 0.1234291 0.0057240
0.2772469 0.1240233 0.0063218
0.3080316 0.1246674 0.0069355
0.3387715 0.1253534 0.0075599
0.3694809 0.1260721 0.0081919
0.4001693 0.1268153 0.0088294
0.4308432 0.1275766 0.0094712
0.4615071 0.1283511 0.0101163
0.4921639 0.1291352 0.0107643
0.5228157 0.1299262 0.0114145
0.5534641 0.1307221 0.0120667
0.5841100 0.1315216 0.0127205
0.6147542 0.1323235 0.0133758
0.6453973 0.1331272 0.0140322
0.6760395 0.1339321 0.0146898
0.7066813 0.1347377 0.0153483
0.7373227 0.1355438 0.0160076
0.7679640 0.1363501 0.0166676
0.7986052 0.1371566 0.0173284
0.8292464 0.1379630 0.0179897
0.8598877 0.1387692 0.0186516
0.8905291 0.1395753 0.0193139
0.9211706 0.1403812 0.0199767
0.9518122 0.1411869 0.0206398
0.9788561 0.1446866 0.0249013
0.0041386 0.1521131 0.0060845
0.0319422 0.1522486 0.0040146
0.0622125 0.1525431 0.0037745
0.0929220 0.1526710 0.0038033
0.1235716 0.1525318 0.0042228
0.1526612 0.1514112 0.0043321
0.1837051 0.1520790 0.0049631
0.2148894 0.1526822 0.0054983
0.2460275 0.1532153 0.0060263
0.2770604 0.1537375 0.0065783
0.3079952 0.1542863 0.0071551
0.3388536 0.1548753 0.0077510
0.3696552 0.1555052 0.0083606
0.4004151 0.1561716 0.0089802
0.4311444 0.1568685 0.0096072
0.4618511 0.1575901 0.0102398
0.4925412 0.1583313 0.0108769
0.5232188 0.1590878 0.0115175
0.5538872 0.1598563 0.0121611
0.5845486 0.1606341 0.0128072
0.6152048 0.1614190 0.0134554
0.6458571 0.1622094 0.0141054
0.6765063 0.1630041 0.0147570
0.7071533 0.1638019 0.0154101
0.7377987 0.1646023 0.0160643
0.7684428 0.1654044 0.0167197
0.7990859 0.1662080 0.0173760
0.8297284 0.1670125 0.0180333
0.8603704 0.1678178 0.0186913
0.8910120 0.1686236 0.0193501
0.9216534 0.1694298 0.0200095
0.9522947 0.1702361 0.0206695
0.9788512 0.1738553 0.0254147
0.0049663 0.1825357 0.0073015
0.0323428 0.1826468 0.0048647
0.0624708 0.1829381 0.0046113
0.0930452 0.1831729 0.0044828
0.1238068 0.1831745 0.0046923
0.1543746 0.1830042 0.0051681
0.1831935 0.1816934 0.0051985
0.2142178 0.1823631 0.0058413
0.2453919 0.1829900 0.0063886
0.2765645 0.1835444 0.0069122
0.3076606 0.1840658 0.0074488
0.3386670 0.1845919 0.0080074
0.3695943 0.1851436 0.0085861
0.4004579 0.1857291 0.0091807
0.4312719 0.1863491 0.0097874
0.4620474 0.1870010 0.0104033
0.4927933 0.1876810 0.0110262
0.5235162 0.1883846 0.0116548
0.5542213 0.1891081 0.0122878
0.5849126 0.1898479 0.0129245
0.6155930 0.1906010 0.0135643
0.6462648 0.1913649 0.0142067
0.6769300 0.1921376 0.0148514
0.7075900 0.1929174 0.0154981
0.7382458 0.1937028 0.0161464
0.7688983 0.1944928 0.0167963
0.7995482 0.1952865 0.0174476
0.8301961 0.1960832 0.0181000
0.8608423 0.1968822 0.0187536
0.8914873 0.1976830 0.0194082
0.9221313 0.1984853 0.0200636
0.9527745 0.1992888 0.0207199
0.9788270 0.2029778 0.0259670
0.0057940 0.2129583 0.0085184
0.0327557 0.2130497 0.0057110
0.0627825 0.2133253 0.0054640
0.0932135 0.2136094 0.0052558
0.1239349 0.2137402 0.0052812
0.1546674 0.2136545 0.0056160
0.1851705 0.2134814 0.0061104
0.2137257 0.2119756 0.0060649
0.2447347 0.2126455 0.0067168
0.2758930 0.2132891 0.0072768
0.3070803 0.2138658 0.0078021
0.3382195 0.2143975 0.0083296
0.3692832 0.2149168 0.0088738
0.4002713 0.2154469 0.0094370
0.4311933 0.2160009 0.0100171
0.4620609 0.2165839 0.0106107
0.4928843 0.2171966 0.0112152
0.5236724 0.2178376 0.0118281
0.5544320 0.2185041 0.0124477
0.5851690 0.2191930 0.0130728
0.6158876 0.2199013 0.0137024
0.6465916 0.2206261 0.0143358
0.6772836 0.2213649 0.0149722
0.7079661 0.2221154 0.0156114
0.7386408 0.2228757 0.0162530
0.7693091 0.2236443 0.0168966
0.7999723 0.2244197 0.0175420
0.8306312 0.2252008 0.0181890
0.8612867 0.2259866 0.0188375
0.8919395 0.2267764 0.0194873
0.9225899 0.2275693 0.0201383
0.9532384 0.2283650 0.0207903
0.9787840 0.2320623 0.0265448
0.0066217 0.2433809 0.0097353
0.0331756 0.2434558 0.0065544
0.0631291 0.2437130 0.0063201
0.0934369 0.2440149 0.0060754
0.1240603 0.2442305 0.0059771
0.1548290 0.2442642 0.0061408
0.1855067 0.2441255 0.0065548
0.2159588 0.2439789 0.0070238
0.2442580 0.2422578 0.0069314
0.2752548 0.2429270 0.0075904
0.3063958 0.2435823 0.0081624
0.3375861 0.2441790 0.0086928
0.3687527 0.2447259 0.0092162
0.3998601 0.2452482 0.0097502
0.4308994 0.2457687 0.0103004
0.4618742 0.2463025 0.0108671
0.4927924 0.2468582 0.0114481
0.5236629 0.2474392 0.0120410
0.5544938 0.2480465 0.0126436
0.5852920 0.2486790 0.0132541
0.6160633 0.2493347 0.0138710
0.6468123 0.2500114 0.0144932
0.6775431 0.2507068 0.0151198
0.7082587 0.2514184 0.0157502
0.7389618 0.2521441 0.0163837
0.7696545 0.2528821 0.0170200
0.8003386 0.2536306 0.0176587
0.8310155 0.2543881 0.0182996
0.8616864 0.2551532 0.0189423
0.8923524 0.2559249 0.0195867
0.9230141 0.2567022 0.0202327
0.9536724 0.2574843 0.0208800
0.9787221 0.2611193 0.0271341
0.0074494 0.2738035 0.0109522
0.0336000 0.2738644 0.0073955
0.0634988 0.2741035 0.0071756
0.0937063 0.2744071 0.0069170
0.1242215 0.2746723 0.0067424
0.1549478 0.2748043 0.0067663
0.1857102 0.2747617 0.0070385
0.2163304 0.2745942 0.0074994
0.2467388 0.2745030 0.0078962
0.2747902 0.2725401 0.0077978
0.3057772 0.2732081 0.0084625
0.3369016 0.2738715 0.0090454
0.3680879 0.2744850 0.0095829
0.3992702 0.2750483 0.0101059
0.4304098 0.2755795 0.0106332
0.4614909 0.2760986 0.0111732
0.4925115 0.2766215 0.0117281
0.5234762 0.2771585 0.0122973
0.5543914 0.2777154 0.0128791
0.5852643 0.2782950 0.0134714
0.6161012 0.2788980 0.0140726
0.6469078 0.2795237 0.0146811
0.6776889 0.2801706 0.0152956
0.7084485 0.2808372 0.0159153
0.7391900 0.2815214 0.0165393
0.7699162 0.2822215 0.0171671
0.8006296 0.2829356 0.0177980
0.8313320 0.2836621 0.0184317
0.8620253 0.2843995 0.0190678
0.8927107 0.2851464 0.0197062
0.9233894 0.2859015 0.0203465
0.9540625 0.2866638 0.0209885
0.9786415 0.2901606 0.0277215
0.0082771 0.3042261 0.0121691
0.0340274 0.3042748 0.0082350
0.0638844 0.3044972 0.0080292
0.0940110 0.3047946 0.0077685
0.1244250 0.3050862 0.0075489
0.1550754 0.3052881 0.0074714
0.1858440 0.3053419 0.0076067
0.2165748 0.3052440 0.0079586
0.2471432 0.3050636 0.0084457
0.2775180 0.3050284 0.0087675
0.3053225 0.3028223 0.0086642
0.3363013 0.3034891 0.0093337
0.3674103 0.3041581 0.0099263
0.3985888 0.3047853 0.0104715
0.4297787 0.3053645 0.0109966
0.4609408 0.3059074 0.0115203
0.4920551 0.3064307 0.0120527
0.5231148 0.3069495 0.0125979
0.5541208 0.3074750 0.0131565
0.5850775 0.3080147 0.0137278
0.6159905 0.3085727 0.0143101
0.6468653 0.3091512 0.0149020
0.6777072 0.3097506 0.0155019
0.7085208 0.3103707 0.0161087
0.7393103 0.3110104 0.0167213
0.7700791 0.3116684 0.0173388
0.8008301 0.3123432 0.0179605
0.8315659 0.3130332 0.0185859
0.8622887 0.3137370 0.0192144
0.8930003 0.3144531 0.0198458
0.9237022 0.3151802 0.0204797
0.9543959 0.3159170 0.0211157
0.9785417 0.3191986 0.0282944
0.0091048 0.3346487 0.0133860
0.0344568 0.3346866 0.0090733
0.0642810 0.3348941 0.0088804
0.0943423 0.3351814 0.0086239
0.1246671 0.3354850 0.0083791
0.1552323 0.3357333 0.0082316
0.1859611 0.3358660 0.0082548
0.2167344 0.3358541 0.0084832
0.2474239 0.3357182 0.0088918
0.2779487 0.3355348 0.0093915
0.3082969 0.3355549 0.0096379
0.3358547 0.3331045 0.0095306
0.3668268 0.3337701 0.0102041
0.3979217 0.3344428 0.0108053
0.4290905 0.3350811 0.0113584
0.4602824 0.3356748 0.0118873
0.4914595 0.3362304 0.0124098
0.5225993 0.3367613 0.0129370
0.5536915 0.3372811 0.0134743
0.5847338 0.3378010 0.0140238
0.6157281 0.3383291 0.0145854
0.6466785 0.3388711 0.0151583
0.6775895 0.3394300 0.0157411
0.7084659 0.3400075 0.0163326
0.7393120 0.3406041 0.0169315
0.7701316 0.3412196 0.0175369
0.8009284 0.3418532 0.0181477
0.8317052 0.3425039 0.0187633
0.8624647 0.3431704 0.0193830
0.8932092 0.3438516 0.0200063
0.9239407 0.3445462 0.0206327
0.9546608 0.3452529 0.0212619
0.9784221 0.3482448 0.0288425
0.0099325 0.3650713 0.0146029
0.0348877 0.3650994 0.0099106
0.0646856 0.3652936 0.0097295
0.0946936 0.3655695 0.0094802
0.1249417 0.3658761 0.0092227
0.1554233 0.3661537 0.0090283
0.1860905 0.3663457 0.0089656
0.2168570 0.3664131 0.0090818
0.2476137 0.3663490 0.0093846
0.2782601 0.3661883 0.0098322
0.3087492 0.3660084 0.0103362
0.3390758 0.3660821 0.0105078
0.3663870 0.3633868 0.0103970
0.3973533 0.3640511 0.0110738
0.4284356 0.3647262 0.0116826
0.4595938 0.3653735 0.0122436
0.4907838 0.3659800 0.0127772
0.5219701 0.3665485 0.0133004
0.5531290 0.3670888 0.0138244
0.5842477 0.3676129 0.0143558
0.6153212 0.3681315 0.0148976
0.6463492 0.3686531 0.0154506
0.6773340 0.3691837 0.0160147
0.7082791 0.3697276 0.0165889
0.7391886 0.3702872 0.0171721
0.7700663 0.3708639 0.0177633
0.8009159 0.3714582 0.0183614
0.8317407 0.3720698 0.0189654
0.8625438 0.3726982 0.0195748
0.8933277 0.3733426 0.0201886
0.9240949 0.3740021 0.0208065
0.9548473 0.3746755 0.0214279
0.9782819 0.3773096 0.0293572
0.0107602 0.3954940 0.0158198
0.0353196 0.3955130 0.0107471
0.0650962 0.3956955 0.0105766
0.0950603 0.3959594 0.0103360
0.1252427 0.3962638 0.0100735
0.1556469 0.3965587 0.0098486
0.1862445 0.3967934 0.0097224
0.2169748 0.3969264 0.0097451
0.2477516 0.3969367 0.0099421
0.2784803 0.3968326 0.0103028
0.3090859 0.3966570 0.0107763
0.3395463 0.3964845 0.0112793
0.3698548 0.3966101 0.0113771
0.3969192 0.3936690 0.0112635
0.4278807 0.3943322 0.0119431
0.4589516 0.3950089 0.0125587
0.4900990 0.3956632 0.0131270
0.5212847 0.3962809 0.0136660
0.5524757 0.3968616 0.0141912
0.5836484 0.3974123 0.0147137
0.6147883 0.3979431 0.0152408
0.6458882 0.3984636 0.0157764
0.6769458 0.3989823 0.0163221
0.7079618 0.3995057 0.0168782
0.7389387 0.4000386 0.0174443
0.7698795 0.4005842 0.0180196
0.8007876 0.4011445 0.0186031
0.8316664 0.4017205 0.0191940
0.8625191 0.4023127 0.0197914
0.8933484 0.4029211 0.0203944
0.9241571 0.4035450 0.0210023
0.9549474 0.4041840 0.0216147
0.9781198 0.4064016 0.0298325
0.0115880 0.4259166 0.0170367
0.0357524 0.4259272 0.0115830
0.0655113 0.4260993 0.0114221
0.0954388 0.4263516 0.0111906
0.1255650 0.4266506 0.0109279
0.1558995 0.4269545 0.0106838
0.1864270 0.4272188 0.0105116
0.2171056 0.4274033 0.0104599
0.2478698 0.4274804 0.0105623
0.2786391 0.4274428 0.0108273
0.3093349 0.4273091 0.0112320
0.3399035 0.4271258 0.0117222
0.3703411 0.4269628 0.0122208
0.4006341 0.4271386 0.0122460
0.4274515 0.4239512 0.0121299
0.4584087 0.4246133 0.0128120
0.4894695 0.4252909 0.0134336
0.5206062 0.4259509 0.0140089
0.5517859 0.4265783 0.0145536
0.5829785 0.4271703 0.0150817
0.6141607 0.4277316 0.0156041
0.6453172 0.4282703 0.0161284
0.6764390 0.4287951 0.0166591
0.7075224 0.4293140 0.0171985
0.7385664 0.4298335 0.0177476
0.7695724 0.4303589 0.0183063
0.8005425 0.4308939 0.0188741
0.8314796 0.4314410 0.0194503
0.8623867 0.4320018 0.0200342
0.8932665 0.4325772 0.0206248
0.9241218 0.4331677 0.0212215
0.9549550 0.4337732 0.0218235
0.9779345 0.4355270 0.0302644
0.0124157 0.4563392 0.0182536
0.0361858 0.4563420 0.0124184
0.0659299 0.4565048 0.0122660
0.0958265 0.4567459 0.0120437
0.1259046 0.4570377 0.0117839
0.1561771 0.4573451 0.0115283
0.1866374 0.4576293 0.0113234
0.2172576 0.4578528 0.0112140
0.2479888 0.4579861 0.0112364
0.2787659 0.4580129 0.0114100
0.3095171 0.4579362 0.0117308
0.3401788 0.4577813 0.0121685
0.3707149 0.4575953 0.0126685
0.4011343 0.4574432 0.0131608
0.4314135 0.4576675 0.0131146
0.4579837 0.4542335 0.0129963
0.4889372 0.4548944 0.0136806
0.5199889 0.4555726 0.0143076
0.5511154 0.4562371 0.0148894
0.5822882 0.4568727 0.0154398
0.6134798 0.4574750 0.0159715
0.6446681 0.4580467 0.0164949
0.6758372 0.4585941 0.0170177
0.7069772 0.4591247 0.0175448
0.7380826 0.4596460 0.0180790
0.7691515 0.4601644 0.0186219
0.8001839 0.4606852 0.0191739
0.8311813 0.4612126 0.0197348
0.8621457 0.4617494 0.0203041
0.8930797 0.4622977 0.0208811
0.9239857 0.4628590 0.0214652
0.9548664 0.4634340 0.0220556
0.9777246 0.4646902 0.0306511
0.0132434 0.4867618 0.0194705
0.0366214 0.4867607 0.0132499
0.0663513 0.4869117 0.0131088
0.0962216 0.4871422 0.0128954
0.1262582 0.4874259 0.0126403
0.1564758 0.4877330 0.0123787
0.1868737 0.4880298 0.0121507
0.2174339 0.4882823 0.0119973
0.2481207 0.4884610 0.0119542
0.2788826 0.4885453 0.0120463
0.3096581 0.4885285 0.0122817
0.3403849 0.4884207 0.0126476
0.3710134 0.4882511 0.0131095
0.4015213 0.4880662 0.0136145
0.4319177 0.4879578 0.0140475
0.4621931 0.4881968 0.0139829
0.4885160 0.4845157 0.0138627
0.5194662 0.4851757 0.0145489
0.5505096 0.4858540 0.0151807
0.5816264 0.4865220 0.0157687
0.6127917 0.4871647 0.0163248
0.6439806 0.4877763 0.0168605
0.6751723 0.4883580 0.0173857
0.7063507 0.4889143 0.0179079
0.7375053 0.4894518 0.0184325
0.7686296 0.4899771 0.0189627
0.7997203 0.4904965 0.0195003
0.8307765 0.4910151 0.0200464
0.8617989 0.4915374 0.0206009
0.8927888 0.4920666 0.0211636
0.9237483 0.4926051 0.0217342
0.9546795 0.4931546 0.0223119
0.9774889 0.4938933 0.0309920
0.0140711 0.5171844 0.0206875
0.0370590 0.5171832 0.0140776
0.0667748 0.5173198 0.0139504
0.0966226 0.5175405 0.0137455
0.1266232 0.5178156 0.0134962
0.1567922 0.5181199 0.0132323
0.1871330 0.5184239 0.0129888
0.2176346 0.5186973 0.0128020
0.2482712 0.5189119 0.0127063
0.2790030 0.5190453 0.0127285
0.3097791 0.5190849 0.0128840
0.3405433 0.5190309 0.0131721
0.3712430 0.5188989 0.0135741
0.4018404 0.5187198 0.0140534
0.4323240 0.5185386 0.0145599
0.4626980 0.5184815 0.0149203
0.4929729 0.5187265 0.0148511
0.5190482 0.5147979 0.0147291
0.5499955 0.5154570 0.0154170
0.5810315 0.5161352 0.0160532
0.6121392 0.5168061 0.0166468
0.6432966 0.5174547 0.0172084
0.6744817 0.5180747 0.0177484
0.7056745 0.5186656 0.0182760
0.7368596 0.5192309 0.0187987
0.7680258 0.5197758 0.0193217
0.7991658 0.5203064 0.0198487
0.8302755 0.5208283 0.0203820
0.8613531 0.5213468 0.0209228
0.8923982 0.5218662 0.0214716
0.9234118 0.5223900 0.0220283
0.9543953 0.5229209 0.0225927
0.9772268 0.5231367 0.0312881
0.0148988 0.5476070 0.0219044
0.0374967 0.5476057 0.0149053
0.0672001 0.5477289 0.0147911
0.0970284 0.5479404 0.0145942
0.1269977 0.5482069 0.0143513
0.1571237 0.5485067 0.0140878
0.1874125 0.5488142 0.0138340
0.2178583 0.5491022 0.0136224
0.2484429 0.5493445 0.0134848
0.2791357 0.5495186 0.0134485
0.3098956 0.5496086 0.0135326
0.3406738 0.5496083 0.0137445
0.3714205 0.5495235 0.0140770
0.4020920 0.5493729 0.0145074
0.4326608 0.5491884 0.0149988
0.4631238 0.5490126 0.0155043
0.4934776 0.5490060 0.0157924
0.5237529 0.5492563 0.0157190
0.5495805 0.5450802 0.0155955
0.5805252 0.5457384 0.0162850
0.6115544 0.5464163 0.0169251
0.6426534 0.5470894 0.0175240
0.6738031 0.5477431 0.0180909
0.7049833 0.5483705 0.0186353
0.7361757 0.5489700 0.0191658
0.7673652 0.5495440 0.0196895
0.7985404 0.5500967 0.0202118
0.8296935 0.5506332 0.0207366
0.8608196 0.5511590 0.0212663
0.8919160 0.5516789 0.0218027
0.9229818 0.5521973 0.0223463
0.9540172 0.5527177 0.0228975
0.9769382 0.5524190 0.0315411
0.0157265 0.5780296 0.0231213
0.0379346 0.5780282 0.0157330
0.0676268 0.5781389 0.0156309
0.0974382 0.5783419 0.0154417
0.1273799 0.5785999 0.0152054
0.1574679 0.5788941 0.0149440
0.1877096 0.5792022 0.0146840
0.2181032 0.5795000 0.0144542
0.2486361 0.5797635 0.0142836
0.2792852 0.5799706 0.0141989
0.3100174 0.5801041 0.0142210
0.3407919 0.5801538 0.0143622
0.3715637 0.5801188 0.0146235
0.4022892 0.5800085 0.0149929
0.4329330 0.5798442 0.0154455
0.4634758 0.5796574 0.0159450
0.4939213 0.5794883 0.0164477
0.5242569 0.5795311 0.0166639
0.5545330 0.5797865 0.0165868
0.5801127 0.5753624 0.0164620
0.6110551 0.5760198 0.0171527
0.6420782 0.5766973 0.0177965
0.6731691 0.5773721 0.0184002
0.7043111 0.5780301 0.0189723
0.7354859 0.5786641 0.0195211
0.7666766 0.5792716 0.0200548
0.7978686 0.5798539 0.0205801
0.8290506 0.5804144 0.0211024
0.8602143 0.5809574 0.0216257
0.8913544 0.5814880 0.0221527
0.9224674 0.5820105 0.0226853
0.9535518 0.5825293 0.0232244
0.9766243 0.5817377 0.0317535
0.0165542 0.6084522 0.0243382
0.0383724 0.6084508 0.0165607
0.0680548 0.6085497 0.0164701
0.0978512 0.6087448 0.0162879
0.1277687 0.6089945 0.0160583
0.1578227 0.6092824 0.0158003
0.1880220 0.6095892 0.0155370
0.2183671 0.6098932 0.0152940
0.2488499 0.6101723 0.0150978
0.2794532 0.6104059 0.0149736
0.3101508 0.6105762 0.0149427
0.3409088 0.6106707 0.0150205
0.3716879 0.6106839 0.0152133
0.4024474 0.6106188 0.0155173
0.4331496 0.6104881 0.0159173
0.4637668 0.6103139 0.0163869
0.4942865 0.6101271 0.0168913
0.5247171 0.6099655 0.0173900
0.5550360 0.6100568 0.0175350
0.5853133 0.6103168 0.0174544
0.6106450 0.6056446 0.0173284
0.6415853 0.6063013 0.0180204
0.6726027 0.6069783 0.0186674
0.7036861 0.6076544 0.0192757
0.7348205 0.6083161 0.0198526
0.7659896 0.6089558 0.0204059
0.7971775 0.6095706 0.0209431
0.8283705 0.6101608 0.0214704
0.8595574 0.6107290 0.0219932
0.8907298 0.6112788 0.0225157
0.9218817 0.6118147 0.0230406
0.9530092 0.6123409 0.0235701
0.9762875 0.6110890 0.0319281
0.0173819 0.6388748 0.0255551
0.0388104 0.6388733 0.0173885
0.0684838 0.6389611 0.0173086
0.0982670 0.6391490 0.0171331
0.1281630 0.6393906 0.0169101
0.1581868 0.6396720 0.0166563
0.1883475 0.6399759 0.0163919
0.2186479 0.6402832 0.0161397
0.2490832 0.6405738 0.0159237
0.2796405 0.6408282 0.0157673
0.3102993 0.6410291 0.0156919
0.3410319 0.6411627 0.0157139
0.3718046 0.6412207 0.0158435
0.4025808 0.6412013 0.0160824
0.4333239 0.6411107 0.0164231
0.4640023 0.6409636 0.0168480
0.4945944 0.6407827 0.0173306
0.5250935 0.6405978 0.0178374
0.5555116 0.6404442 0.0183313
0.5858149 0.6405830 0.0184056
0.6160938 0.6408473 0.0183220
0.6411772 0.6359269 0.0181948
0.6721156 0.6365828 0.0188879
0.7031279 0.6372593 0.0195379
0.7342042 0.6379364 0.0201504
0.7653313 0.6386012 0.0207320
0.7964944 0.6392460 0.0212897
0.8276789 0.6398674 0.0218304
0.8588717 0.6404650 0.0223601
0.8900619 0.6410407 0.0228840
0.9212410 0.6415974 0.0234062
0.9524028 0.6421391 0.0239297
0.9759315 0.6404685 0.0320681
0.0182097 0.6692975 0.0267720
0.0392484 0.6692959 0.0182162
0.0689136 0.6693732 0.0181466
0.0986851 0.6695542 0.0179773
0.1285620 0.6697882 0.0177608
0.1585586 0.6700628 0.0175117
0.1886846 0.6703629 0.0172478
0.2189439 0.6706713 0.0169894
0.2493342 0.6709699 0.0167582
0.2798464 0.6712406 0.0165761
0.3104645 0.6714666 0.0164633
0.3411659 0.6716338 0.0164370
0.3719222 0.6717320 0.0165095
0.4027012 0.6717563 0.0166867
0.4334689 0.6717082 0.0169665
0.4641932 0.6715962 0.0173384
0.4948479 0.6714363 0.0177835
0.5254166 0.6712512 0.0182757
0.5558974 0.6710696 0.0187831
0.5863051 0.6709242 0.0192715
0.6165938 0.6711097 0.0192759
0.6468743 0.6713779 0.0191894
0.6717095 0.6662091 0.0190612
0.7026461 0.6668644 0.0197554
0.7336536 0.6675402 0.0204081
0.7647234 0.6682181 0.0210245
0.7958435 0.6688855 0.0216105
0.8270004 0.6695349 0.0221725
0.8581809 0.6701623 0.0227169
0.8893725 0.6707668 0.0232492
0.9205648 0.6713496 0.0237746
0.9517491 0.6719132 0.0242970
0.9755616 0.6698716 0.0321769
0.0190374 0.6997201 0.0279889
0.0396865 0.6997184 0.0190439
0.0693442 0.6997857 0.0189841
0.0991051 0.6999604 0.0188206
0.1289649 0.7001871 0.0186104
0.1589371 0.7004549 0.0183663
0.1890316 0.7007505 0.0181041
0.2192532 0.7010584 0.0178419
0.2496015 0.7013623 0.0175994
0.2800702 0.7016455 0.0173966
0.3106470 0.7018919 0.0172527
0.3413137 0.7020875 0.0171850
0.3720465 0.7022212 0.0172070
0.4028174 0.7022859 0.0173270
0.4335959 0.7022797 0.0175473
0.4643512 0.7022065 0.0178628
0.4950554 0.7020768 0.0182612
0.5256869 0.7019071 0.0187226
0.5562342 0.7017199 0.0192216
0.5866989 0.7015426 0.0197281
0.6170955 0.7014137 0.0201979
0.6473727 0.7016368 0.0201458
0.6776550 0.7019087 0.0200568
0.7022417 0.6964913 0.0199276
0.7331768 0.6971460 0.0206227
0.7641799 0.6978212 0.0212780
0.7952435 0.6984996 0.0218981
0.8263568 0.6991693 0.0224883
0.8575077 0.6998226 0.0230545
0.8886838 0.7004554 0.0236024
0.9198734 0.7010663 0.0241376
0.9510665 0.7016560 0.0246647
0.9751843 0.6992934 0.0322581
0.0198651 0.7301427 0.0292058
0.0401246 0.7301410 0.0198716
