Camera18_LUT_V0/luts/VMF_HN_33_v2.cube
# V-MF HNCS-inspired v2
# Independent approximation for Camera 18; not official Hasselblad HNCS.
TITLE "V-MF HN v2"
LUT_3D_SIZE 9
DOMAIN_MIN 0.0 0.0 0.0
DOMAIN_MAX 1.0 1.0 1.0
0.0000000 0.0000000 0.0000000
0.1225878 0.0031863 0.0026767
0.2451756 0.0063727 0.0053535
0.3677634 0.0095590 0.0080302
0.4903512 0.0127454 0.0107070
0.6129390 0.0159317 0.0133837
0.7355268 0.0191181 0.0160605
0.8581146 0.0223044 0.0187372
0.9786765 0.0274995 0.0234400
0.0033108 0.1216904 0.0048676
0.1221290 0.1211289 0.0034657
0.2463962 0.1234291 0.0057240
0.3694809 0.1260721 0.0081919
0.4921639 0.1291352 0.0107643
0.6147542 0.1323235 0.0133758
0.7373227 0.1355438 0.0160076
0.8598877 0.1387692 0.0186516
0.9788561 0.1446866 0.0249013
0.0066217 0.2433809 0.0097353
0.1240603 0.2442305 0.0059771
0.2442580 0.2422578 0.0069314
0.3687527 0.2447259 0.0092162
0.4927924 0.2468582 0.0114481
0.6160633 0.2493347 0.0138710
0.7389618 0.2521441 0.0163837
0.8616864 0.2551532 0.0189423
0.9787221 0.2611193 0.0271341
0.0099325 0.3650713 0.0146029
0.1249417 0.3658761 0.0092227
0.2476137 0.3663490 0.0093846
0.3663870 0.3633868 0.0103970
0.4907838 0.3659800 0.0127772
0.6153212 0.3681315 0.0148976
0.7391886 0.3702872 0.0171721
0.8625438 0.3726982 0.0195748
0.9782819 0.3773096 0.0293572
0.0132434 0.4867618 0.0194705
0.1262582 0.4874259 0.0126403
0.2481207 0.4884610 0.0119542
0.3710134 0.4882511 0.0131095
0.4885160 0.4845157 0.0138627
0.6127917 0.4871647 0.0163248
0.7375053 0.4894518 0.0184325
0.8617989 0.4915374 0.0206009
0.9774889 0.4938933 0.0309920
0.0165542 0.6084522 0.0243382
0.1277687 0.6089945 0.0160583
0.2488499 0.6101723 0.0150978
0.3716879 0.6106839 0.0152133
0.4942865 0.6101271 0.0168913
0.6106450 0.6056446 0.0173284
0.7348205 0.6083161 0.0198526
0.8595574 0.6107290 0.0219932
0.9762875 0.6110890 0.0319281
0.0198651 0.7301427 0.0292058
0.1293713 0.7305873 0.0194590
0.2498834 0.7317522 0.0184453
0.3721810 0.7326914 0.0179313
0.4952273 0.7326980 0.0187693
0.6174984 0.7320169 0.0206724
0.7327740 0.7267735 0.0207941
0.8568713 0.7294525 0.0233653
0.9748070 0.7287297 0.0323151
0.0231759 0.8518331 0.0340735
0.1310227 0.8521986 0.0228441
0.2511300 0.8533012 0.0218559
0.3728540 0.8544377 0.0210231
0.4957395 0.8549609 0.0211246
0.6186698 0.8546181 0.0224640
0.7406821 0.8539255 0.0244417
0.8549030 0.8479025 0.0242597
0.9734430 0.8465678 0.0323632
0.0264966 0.9735138 0.0389506
0.1327325 0.9737846 0.0262562
0.2525819 0.9747262 0.0254062
0.3738387 0.9757160 0.0246450
0.4962483 0.9761313 0.0246990
0.6189327 0.9755161 0.0261042
0.7407206 0.9739232 0.0287980
0.8609446 0.9721294 0.0318812
0.9725371 0.9646123 0.0322203
0.0035044 0.0044825 0.1210729
0.1218371 0.0032475 0.1215620
0.2442800 0.0060837 0.1236724
0.3667380 0.0087187 0.1255801
0.4892368 0.0113268 0.1274846
0.6117595 0.0139488 0.1294427
0.7342982 0.0165847 0.1314493
0.8568480 0.0192305 0.1334921
0.9781730 0.0231161 0.1365012
0.0031751 0.1214926 0.1217745
0.1250000 0.1250000 0.1250000
0.2495599 0.1265657 0.1262338
0.3743398 0.1274814 0.1267184
0.4983709 0.1291797 0.1279518
0.6219099 0.1313858 0.1296775
0.7451877 0.1338618 0.1316642
0.8667486 0.1380487 0.1353678
0.9813419 0.1490621 0.1455100
0.0059446 0.2440515 0.1266663
0.1272479 0.2477559 0.1282516
0.2486538 0.2480105 0.1281302
0.3762124 0.2501532 0.1280280
0.5007010 0.2506888 0.1287536
0.6242091 0.2520310 0.1301831
0.7473938 0.2539240 0.1319882
0.8671632 0.2583288 0.1372772
0.9814987 0.2661904 0.1470405
0.0092984 0.3657003 0.1316005
0.1283713 0.3716339 0.1306906
0.2494283 0.3729137 0.1275015
0.3729807 0.3714924 0.1293980
0.4997363 0.3732095 0.1302118
0.6250183 0.3737729 0.1313424
0.7489924 0.3746786 0.1329155
0.8671383 0.3779465 0.1399890
0.9812998 0.3825202 0.1493289
0.0127377 0.4872617 0.1366904
0.1302418 0.4947646 0.1339810
0.2489592 0.4958397 0.1293250
0.3744381 0.4964837 0.1297390
0.4965568 0.4941565 0.1314165
0.6224954 0.4956475 0.1328461
0.7481064 0.4964939 0.1341999
0.8664404 0.4974102 0.1420406
0.9807412 0.4988015 0.1513774
0.0161621 0.6088378 0.1417771
0.1326035 0.6174042 0.1378102
0.2492081 0.6182355 0.1318638
0.3735643 0.6195355 0.1310872
0.4989496 0.6192901 0.1327508
0.6196395 0.6162964 0.1339286
0.7450539 0.6177314 0.1357091
0.8649061 0.6170333 0.1430110
0.9797447 0.6156932 0.1526551
0.0195651 0.7304354 0.1468346
0.1352258 0.7397832 0.1419269
0.2498765 0.7404346 0.1346393
0.3731709 0.7418514 0.1335268
0.4983015 0.7424749 0.1337812
0.6230753 0.7418241 0.1360017
0.7424603 0.7381573 0.1367024
0.8630047 0.7366656 0.1432262
0.9783336 0.7332032 0.1532171
0.0229513 0.8520499 0.1518643
0.1380209 0.8619894 0.1462326
0.2508348 0.8624714 0.1375902
0.3733809 0.8636857 0.1365777
0.4976655 0.8643739 0.1364564
0.6222872 0.8635763 0.1383800
0.7452086 0.8616300 0.1419557
0.8616800 0.8564565 0.1430774
0.9769127 0.8510100 0.1533238
0.0263269 0.9736749 0.1568730
0.1481845 0.9768246 0.1590818
0.2560526 0.9771581 0.1478846
0.3761969 0.9781520 0.1470050
0.4979223 0.9789990 0.1464618
0.6205965 0.9789277 0.1471577
0.7428145 0.9776426 0.1494395
0.8633705 0.9757457 0.1526215
0.9759700 0.9690358 0.1531927
0.0070087 0.0089649 0.2421458
0.1243693 0.0067278 0.2430489
0.2436742 0.0064951 0.2431240
0.3661419 0.0094012 0.2453189
0.4885600 0.0121674 0.2473448
0.6110042 0.0148237 0.2492720
0.7334760 0.0174373 0.2511601
0.8559674 0.0200432 0.2530530
0.9773975 0.0237297 0.2555223
0.0067364 0.1257279 0.2426913
0.1272258 0.1278543 0.2465060
0.2480521 0.1272017 0.2478746
0.3729920 0.1277354 0.2492369
0.4969965 0.1287646 0.2495203
0.6205080 0.1303374 0.2500994
0.7437628 0.1322289 0.2510280
0.8659955 0.1351817 0.2528085
0.9808168 0.1452618 0.2592420
0.0063502 0.2429851 0.2435490
0.1269266 0.2477401 0.2479223
0.2500000 0.2500000 0.2500000
0.3743398 0.2522742 0.2519830
0.4991197 0.2531315 0.2524676
0.6238997 0.2540332 0.2529522
0.7476337 0.2560022 0.2544828
0.8688919 0.2601483 0.2579599
0.9840073 0.2706246 0.2675800
0.0089368 0.3660418 0.2487675
0.1273526 0.3726397 0.2512421
0.2533726 0.3716339 0.2542435
0.3729807 0.3724239 0.2549927
0.5016166 0.3764711 0.2547441
0.6268170 0.3767500 0.2544195
0.7485538 0.3786512 0.2573025
0.8693272 0.3807753 0.2600548
0.9841340 0.3876757 0.2691964
0.0118892 0.4881031 0.2533325
0.1293947 0.4956032 0.2542704
0.2544959 0.4955119 0.2565033
0.3746351 0.4972182 0.2534045
0.4973076 0.4960210 0.2562604
0.6256119 0.4995681 0.2563156
0.7482506 0.5003725 0.2602303
0.8691667 0.5007168 0.2627413
0.9838482 0.5039208 0.2714973
0.0151860 0.6098100 0.2581837
0.1319702 0.6180290 0.2579365
0.2556192 0.6193899 0.2588996
0.3743467 0.6207339 0.2544966
0.4995954 0.6215405 0.2551713
0.6216345 0.6195303 0.2575282
0.7459173 0.6208412 0.2612048
0.8680227 0.6205773 0.2642836
0.9831167 0.6204200 0.2732440
0.0185968 0.7314007 0.2632009
0.1347541 0.7402458 0.2619487
0.2567476 0.7432628 0.2613862
0.3742123 0.7442010 0.2559314
0.4988593 0.7454201 0.2554101
0.6239334 0.7442120 0.2585092
0.7436548 0.7407063 0.2611026
0.8660669 0.7404105 0.2646961
0.9818571 0.7377004 0.2740807
0.0220362 0.8529620 0.2682829
0.1376628 0.8623378 0.2661716
0.2602321 0.8647770 0.2669330
0.3749082 0.8653835 0.2596905
0.4982266 0.8665886 0.2587896
0.6231290 0.8666024 0.2596537
0.7468896 0.8648739 0.2629519
0.8645921 0.8603299 0.2645706
0.9803933 0.8554555 0.2742799
0.0254755 0.9745233 0.2733808
0.1479524 0.9770488 0.2768651
0.2698724 0.9801353 0.2792130
0.3794015 0.9805434 0.2695028
0.4999493 0.9815644 0.2686332
0.6221862 0.9820985 0.2685242
0.7447607 0.9813040 0.2701632
0.8657752 0.9794753 0.2732139
0.9794029 0.9734592 0.2741652
0.0105131 0.0134474 0.3632187
0.1265760 0.0102247 0.3640924
0.2464276 0.0099698 0.3649347
0.3655113 0.0097426 0.3646861
0.4879961 0.0126683 0.3669258
0.6104210 0.0155099 0.3690112
0.7328399 0.0182511 0.3710172
0.8552789 0.0209186 0.3729555
0.9765145 0.0247696 0.3751770
0.0103426 0.1304666 0.3635225
0.1285501 0.1300049 0.3697590
0.2493902 0.1284234 0.3711299
0.3720782 0.1282603 0.3716682
0.4962036 0.1297016 0.3725061
0.6196649 0.1314262 0.3730188
0.7428582 0.1333008 0.3736561
0.8650094 0.1362083 0.3747906
0.9800031 0.1460075 0.3784797
0.0098415 0.2468875 0.3646113
0.1282711 0.2501827 0.3705844
0.2531273 0.2536707 0.3697590
0.3720782 0.2533449 0.3719240
0.4973227 0.2537684 0.3745681
0.6221808 0.2538847 0.3749018
0.7464401 0.2546871 0.3751489
0.8680705 0.2579212 0.3764513
0.9834543 0.2674286 0.3820231
0.0095253 0.3644777 0.3653235
0.1279150 0.3714629 0.3718834
0.2528646 0.3717249 0.3718834
0.3750000 0.3750000 0.3750000
0.4991197 0.3780048 0.3777321
0.6233808 0.3793464 0.3787356
0.7481162 0.3798121 0.3787356
0.8708703 0.3824182 0.3807170
0.9866728 0.3921872 0.3896500
0.0121458 0.4878031 0.3709097
0.1289064 0.4960581 0.3750861
0.2531355 0.4968529 0.3760756
0.3794972 0.4955119 0.3803036
0.4973076 0.4967933 0.3818551
0.6249557 0.5026899 0.3835253
0.7491815 0.5026540 0.3820549
0.8713328 0.5034885 0.3830594
0.9867575 0.5091348 0.3913724
0.0147886 0.6101898 0.3753878
0.1309078 0.6190806 0.3777874
0.2545590 0.6204380 0.3789835
0.3806230 0.6193874 0.3824677
0.4997930 0.6213218 0.3795085
0.6205052 0.6193354 0.3842522
0.7477111 0.6236474 0.3842164
0.8708667 0.6238470 0.3854941
0.9863463 0.6253629 0.3935880
0.0178338 0.7321546 0.3799988
0.1335820 0.7414123 0.3811496
0.2559813 0.7440175 0.3819585
0.3806230 0.7443861 0.3839033
0.4993801 0.7456374 0.3795930
0.6243562 0.7458252 0.3808866
0.7449105 0.7428263 0.3842522
0.8690328 0.7439789 0.3863088
0.9853492 0.7422534 0.3948696
0.0211008 0.8538919 0.3848119
0.1365322 0.8634644 0.3850026
0.2597540 0.8652459 0.3869487
0.3826086 0.8673992 0.3878151
0.4992414 0.8681711 0.3819282
0.6235672 0.8691303 0.3814924
0.7482824 0.8679697 0.3840712
0.8673397 0.8640283 0.3862284
0.9838889 0.8599059 0.3952275
0.0244744 0.9755204 0.3897660
0.1470346 0.9779637 0.3932822
0.2695656 0.9804349 0.3968349
0.3915603 0.9834461 0.3993441
0.5027999 0.9839444 0.3911084
0.6239050 0.9849152 0.3903549
0.7465195 0.9848303 0.3910669
0.8681226 0.9832174 0.3938010
0.9828357 0.9778827 0.3951377
0.0140175 0.0179299 0.4842916
0.1288481 0.0137230 0.4851167
0.2487386 0.0134556 0.4860977
0.3684521 0.0132252 0.4867670
0.4873484 0.0129902 0.4862481
0.6098412 0.0159246 0.4885202
0.7322839 0.0188024 0.4906378
0.8546993 0.0216054 0.4926935
0.9757359 0.0257189 0.4947072
0.0139033 0.1351454 0.4844581
0.1306191 0.1329658 0.4922673
0.2501423 0.1304171 0.4934447
0.3729919 0.1302605 0.4945803
0.4953565 0.1300666 0.4946956
0.6189588 0.1320376 0.4953560
0.7421599 0.1341432 0.4959853
0.8640996 0.1373552 0.4967553
0.9791386 0.1470588 0.4981335
0.0134729 0.2514559 0.4853826
0.1304333 0.2530985 0.4926753
0.2544516 0.2557086 0.4930120
0.3743307 0.2544900 0.4948399
0.4961043 0.2544035 0.4957492
0.6211899 0.2550774 0.4978087
0.7452715 0.2561833 0.4984804
0.8670519 0.2591071 0.4988266
0.9826051 0.2683082 0.5014625
0.0129719 0.3682318 0.4864778
0.1299484 0.3731691 0.4941394
0.2541707 0.3747947 0.4941126
0.3790289 0.3795301 0.4930120
0.4961043 0.3794881 0.4959613
0.6213020 0.3801527 0.4998296
0.7467329 0.3793327 0.5000554
0.8699561 0.3808893 0.5003816
0.9860828 0.3896256 0.5048579
0.0127004 0.4859703 0.4870980
0.1296504 0.4944199 0.4950976
0.2538531 0.4954802 0.4958445
0.3788027 0.4956974 0.4958445
0.5000000 0.5000000 0.5000000
0.6238634 0.5032600 0.5029885
0.7485988 0.5036496 0.5029885
0.8725886 0.5049569 0.5037342
0.9893382 0.5137498 0.5117200
0.0154186 0.6094925 0.4930077
0.1312185 0.6187049 0.4985247
0.2539436 0.6210066 0.4998932
0.3789184 0.6210662 0.5009890
0.5044984 0.6205107 0.5053048
0.6217610 0.6212515 0.5074018
0.7495405 0.6264998 0.5068202
0.8730688 0.6265952 0.5063858
0.9893611 0.6305596 0.5135671
0.0178737 0.7320837 0.4975349
0.1331019 0.7418679 0.5012557
0.2547052 0.7452794 0.5024841
0.3795577 0.7454393 0.5039831
0.5044984 0.7455094 0.5065057
0.6246362 0.7470160 0.5036068
0.7461663 0.7448919 0.5074018
0.8718338 0.7472946 0.5081144
0.9887445 0.7469467 0.5154960
0.0206933 0.8542825 0.5020272
0.1356407 0.8643439 0.5043957
0.2585781 0.8664163 0.5061489
0.3819696 0.8680295 0.5079363
0.5052456 0.8697609 0.5089847
0.6239927 0.8707432 0.5044215
0.7491986 0.8707677 0.5054551
0.8698279 0.8674503 0.5081454
0.9874035 0.8643648 0.5161575
0.0237784 0.9762061 0.5066651
0.1460938 0.9788988 0.5098111
0.2685943 0.9814031 0.5132002
0.3911620 0.9838379 0.5167770
0.5132483 0.9867569 0.5194753
0.6262910 0.9873631 0.5127031
0.7481241 0.9880656 0.5123495
0.8703603 0.9869616 0.5143990
0.9862686 0.9823062 0.5161101
0.0175219 0.0224124 0.6053645
0.1311995 0.0172861 0.6060731
0.2509405 0.0169808 0.6071252
0.3708230 0.0166894 0.6080128
0.4904939 0.0164802 0.6085940
0.6091854 0.0162377 0.6078101
0.7316820 0.0191774 0.6101070
0.8541409 0.0220741 0.6122489
0.9751573 0.0263227 0.6139983
0.0174418 0.1397642 0.6054461
0.1331775 0.1364462 0.6142861
0.2512552 0.1329325 0.6153270
0.3737972 0.1327639 0.6165660
0.4962613 0.1325779 0.6174105
0.6181434 0.1323644 0.6172232
0.7414617 0.1346104 0.6179060
0.8634573 0.1379910 0.6182861
0.9784589 0.1478458 0.6175311
0.0170939 0.2561979 0.6061800
0.1330470 0.2564199 0.6144952
0.2557759 0.2578324 0.6162650
0.3752325 0.2556683 0.6177382
0.4978485 0.2556180 0.6191592
0.6201303 0.2554621 0.6195503
0.7444877 0.2568409 0.6209112
0.8662557 0.2600474 0.6208133
0.9818019 0.2692892 0.6210304
0.0165725 0.3725488 0.6073136
0.1326236 0.3758370 0.6156596
0.2555767 0.3776575 0.6167753
0.3803531 0.3815062 0.6162650
0.4992462 0.3805567 0.6185499
0.6199682 0.3807088 0.6196422
0.7456604 0.3806068 0.6226361
0.8689556 0.3821355 0.6230262
0.9852156 0.3906123 0.6244404
0.0161194 0.4896514 0.6083084
0.1321352 0.4959224 0.6170393
0.2551161 0.4978177 0.6186070
0.3800703 0.4994553 0.6176407
0.5036421 0.5041467 0.6183988
0.6210254 0.5045670 0.6208826
0.7469689 0.5041222 0.6245709
0.8715486 0.5042125 0.6246744
0.9886987 0.5118648 0.6277611
0.0158755 0.6074628 0.6088725
0.1318768 0.6168774 0.6178208
0.2548416 0.6192107 0.6198056
0.3797912 0.6194704 0.6198056
0.5037555 0.6207445 0.6208917
0.6250000 0.6250000 0.6250000
0.7490814 0.6275313 0.6272414
0.8738168 0.6280011 0.6272414
0.9920037 0.6353123 0.6337900
0.0187132 0.7311550 0.6150684
0.1338455 0.7410301 0.6216003
0.2550695 0.7448283 0.6238972
0.3789228 0.7460275 0.6249003
0.5031317 0.7468567 0.6260757
0.6283738 0.7466327 0.6292447
0.7474221 0.7468705 0.6305513
0.8741253 0.7501863 0.6301152
0.9919241 0.7519604 0.6357487
0.0210565 0.8538736 0.6196869
0.1356824 0.8642607 0.6244995
0.2580810 0.8668889 0.6262601
0.3809003 0.8690881 0.6277874
0.5043934 0.8706044 0.6292700
0.6283738 0.8716314 0.6306931
0.7494296 0.8727101 0.6277051
0.8718274 0.8703531 0.6305513
0.9909285 0.8688502 0.6370404
0.0237027 0.9762555 0.6241495
0.1456703 0.9793056 0.6270308
0.2678228 0.9821656 0.6299990
0.3901821 0.9848138 0.6331830
0.5127372 0.9872622 0.6366901
0.6349362 0.9900677 0.6396065
0.7499746 0.9907822 0.6343166
0.8723803 0.9906520 0.6350816
0.9897014 0.9867296 0.6370826
0.0210262 0.0268948 0.7264374
0.1336088 0.0208583 0.7270281
0.2531520 0.0204494 0.7281847
0.3731080 0.0201834 0.7291466
0.4928552 0.0199396 0.7298694
0.6125534 0.0197336 0.7304223
0.7310225 0.0194852 0.7293721
0.8535206 0.0224286 0.7316882
0.9747307 0.0265979 0.7332327
0.0209688 0.1443451 0.7264614
0.1359957 0.1402033 0.7360452
0.2527129 0.1358001 0.7369028
0.3748080 0.1355715 0.7381769
0.4971150 0.1353319 0.7392512
0.6192712 0.1351496 0.7399544
0.7406695 0.1349229 0.7394853
0.8629728 0.1381730 0.7396949
0.9779871 0.1482280 0.7367659
0.0206852 0.2609332 0.7270451
0.1358998 0.2600109 0.7361431
0.2571001 0.2600099 0.7395180
0.3758481 0.2569097 0.7407696
0.4987804 0.2568467 0.7422598
0.6216863 0.2567092 0.7432752
0.7438265 0.2568505 0.7430076
0.8657190 0.2603531 0.7424657
0.9812520 0.2698342 0.7403049
0.0202093 0.3771838 0.7280739
0.1355536 0.3791300 0.7370298
0.2569537 0.3803381 0.7397691
0.3795526 0.3816231 0.7424882
0.5000082 0.3800077 0.7433988
0.6228793 0.3805254 0.7442518
0.7448836 0.3807088 0.7443044
0.8683128 0.3826837 0.7450379
0.9845363 0.3913946 0.7438445
0.0196829 0.4937750 0.7292225
0.1350410 0.4983747 0.7383996
0.2565421 0.5003655 0.7411688
0.3794803 0.5023022 0.7428717
0.5036421 0.5049076 0.7438215
0.6243301 0.5042751 0.7450548
0.7459407 0.5045670 0.7455862
0.8706736 0.5052316 0.7473339
0.9878679 0.5128595 0.7473536
0.0192761 0.6111036 0.7301197
0.1345972 0.6184120 0.7396017
0.2560721 0.6212357 0.7428273
0.3795848 0.6229959 0.7441382
0.5036202 0.6247977 0.7446631
0.6277316 0.6282786 0.7451548
0.7469979 0.6284253 0.7468439
0.8726357 0.6280916 0.7492402
0.9913025 0.6341541 0.7507312
0.0190506 0.7289554 0.7306471
0.1343636 0.7390695 0.7402836
0.2558301 0.7429258 0.7437668
0.3796944 0.7443574 0.7449528
0.5037555 0.7455775 0.7459421
0.6278166 0.7467728 0.7469314
0.7500000 0.7500000 0.7500000
0.8742994 0.7518248 0.7514943
0.9946691 0.7568749 0.7558600
0.0220161 0.8528057 0.7371033
0.1366482 0.8631761 0.7444222
0.2587591 0.8661165 0.7466527
0.3811687 0.8687547 0.7485500
0.5038855 0.8710790 0.7500932
0.6273488 0.8726435 0.7512421
0.7522492 0.8727547 0.7532529
0.8730831 0.8724459 0.7537009
0.9943722 0.8734733 0.7577480
0.0242916 0.9756062 0.7418193
0.1459899 0.9789402 0.7447160
0.2678330 0.9821243 0.7475489
0.3897681 0.9852104 0.7503921
0.5118819 0.9881104 0.7533326
0.6342972 0.9907016 0.7566001
0.7566241 0.9933784 0.7597377
0.8740621 0.9940328 0.7561747
0.9931343 0.9911531 0.7580551
0.0245306 0.0313773 0.8475103
0.1360537 0.0243779 0.8480576
0.2554031 0.0239233 0.8492358
0.3753167 0.0237043 0.8501883
0.4952057 0.0234131 0.8510760
0.6148770 0.0231946 0.8517051
0.7346260 0.0229856 0.8522525
0.8528596 0.0227328 0.8509342
0.9743744 0.0266625 0.8525348
0.0244894 0.1489017 0.8474928
0.1389786 0.1441353 0.8576396
0.2544169 0.1388474 0.8583344
0.3760673 0.1384848 0.8596940
0.4981846 0.1382810 0.8608256
0.6201475 0.1380700 0.8616754
0.7419934 0.1380333 0.8621746
0.8625394 0.1381376 0.8610902
0.9776201 0.1483291 0.8560517
0.0242537 0.2656303 0.8479625
0.1389065 0.2637914 0.8576672
0.2589595 0.2631956 0.8630814
0.3767461 0.2592179 0.8634850
0.4996302 0.2597083 0.8640401
0.6221720 0.2600441 0.8645391
0.7442280 0.2602214 0.8648825
0.8652597 0.2603327 0.8640770
0.9808665 0.2699928 0.8595698
0.0238354 0.3819212 0.8488596
0.1386215 0.3827455 0.8583522
0.2588644 0.3838172 0.8631785
0.3815449 0.3848359 0.8659187
0.5006836 0.3818104 0.8664491
0.6237957 0.3823312 0.8669987
0.7462651 0.3825703 0.8674180
0.8678147 0.3826930 0.8668958
0.9841144 0.3916515 0.8630903
0.0233083 0.4982518 0.8500062
0.1381510 0.5015296 0.8595599
0.2588879 0.5038134 0.8636956
0.3814640 0.5056482 0.8660781
0.5043919 0.5067546 0.8684945
0.6249168 0.5047548 0.8691070
0.7480228 0.5051677 0.8696731
0.8701094 0.5053138 0.8694494
0.9873653 0.5132990 0.8666164
0.0228076 0.6150912 0.8511011
0.1376322 0.6207533 0.8609085
0.2589638 0.6235948 0.8644768
0.3815154 0.6258447 0.8667679
0.5043337 0.6277437 0.8687748
0.6277316 0.6291963 0.8705775
0.7493895 0.6282063 0.8713470
0.8719132 0.6284253 0.8715038
0.9906260 0.6349171 0.8701525
0.0224382 0.7325719 0.8519200
0.1372326 0.7406969 0.8619618
0.2590428 0.7437443 0.8651561
0.3816010 0.7461898 0.8675736
0.5044162 0.7483478 0.8696717
0.6277151 0.7501862 0.8711404
0.7518210 0.7524538 0.8719108
0.8729704 0.7522835 0.8727931
0.9939340 0.7564297 0.8736768
0.0222256 0.8504480 0.8524216
0.1370157 0.8610934 0.8625811
0.2591192 0.8643129 0.8655280
0.3816808 0.8670726 0.8680168
0.5045030 0.8695668 0.8702450
0.6278166 0.8715610 0.8719818
0.7518777 0.8727887 0.8729711
0.8750000 0.8750000 0.8750000
0.9973346 0.8784374 0.8779300
0.0253225 0.9744507 0.8591203
0.1468469 0.9779749 0.8622253
0.2685879 0.9812803 0.8651528
0.3903341 0.9845770 0.8680590
0.5120972 0.9878517 0.8709344
0.6339165 0.9910622 0.8737744
0.7559409 0.9940552 0.8766663
0.8783121 0.9966892 0.8798688
0.9965671 0.9955765 0.8790275
0.0280350 0.0358598 0.9685831
0.1385199 0.0278939 0.9690972
0.2576963 0.0274459 0.9702334
0.3775057 0.0272404 0.9711791
0.4974773 0.0269111 0.9721954
0.6172551 0.0266577 0.9729533
0.7369042 0.0264505 0.9735339
0.8564791 0.0265405 0.9737803
0.9740548 0.0266222 0.9718573
0.0280059 0.1534419 0.9685342
0.1467379 0.1536311 0.9753029
0.2592891 0.1469566 0.9754788
0.3796392 0.1471833 0.9759758
0.5001605 0.1476570 0.9762356
0.6202735 0.1479295 0.9765595
0.7399177 0.1480997 0.9768001
0.8594644 0.1482111 0.9770269
0.9772980 0.1482944 0.9753751
0.0278067 0.2702908 0.9689162
0.1466410 0.2719146 0.9753411
0.2686325 0.2745409 0.9788311
0.3822504 0.2688625 0.9790238
0.5027099 0.2691581 0.9794760
0.6231052 0.2695494 0.9797805
0.7429153 0.2697588 0.9800502
0.8624547 0.2698813 0.9802746
0.9805411 0.2699666 0.9788930
0.0274411 0.3866700 0.9696921
0.1466247 0.3895421 0.9755915
0.2685433 0.3927679 0.9788870
0.3905271 0.3954508 0.9823592
0.5052494 0.3907363 0.9826229
0.6257655 0.3911354 0.9829706
0.7458788 0.3914076 0.9832947
0.8654516 0.3915506 0.9835237
0.9837843 0.3916389 0.9824108
0.0269458 0.5029117 0.9707652
0.1466564 0.5066337 0.9760387
0.2685410 0.5102476 0.9791892
0.3904479 0.5135999 0.9824400
0.5124217 0.5163606 0.9858874
0.6282872 0.5126264 0.9862132
0.7487368 0.5130329 0.9865204
0.8684558 0.5132179 0.9867743
0.9870274 0.5133111 0.9859286
0.0264115 0.6194173 0.9719301
0.1467127 0.6234896 0.9766018
0.2685853 0.6271978 0.9796979
0.3904624 0.6308909 0.9828114
0.5123562 0.6343955 0.9860052
0.6343163 0.6372705 0.9894155
0.7513549 0.6345791 0.9897380
0.8714576 0.6348794 0.9900251
0.9902706 0.6349833 0.9894465
0.0259437 0.7364636 0.9729557
0.1467734 0.7405361 0.9771354
0.2686459 0.7441238 0.9802595
0.3905179 0.7477652 0.9833683
0.5123902 0.7514652 0.9864653
0.6342705 0.7551238 0.9895946
0.7562108 0.7581803 0.9929437
0.8743684 0.7565165 0.9932602
0.9935137 0.7566555 0.9929643
0.0256036 0.8540489 0.9737136
0.1468293 0.8580055 0.9775289
0.2687030 0.8614848 0.9806928
0.3905767 0.8649766 0.9838511
0.5124502 0.8684929 0.9869995
0.6343230 0.8720619 0.9901298
0.7561951 0.8757326 0.9932326
0.8781054 0.8790902 0.9964718
0.9967569 0.8783278 0.9964822
0.0254007 0.9719405 0.9741961
0.1468908 0.9757812 0.9777564
0.2687635 0.9792410 0.9809341
0.3906363 0.9827009 0.9841117
0.5125090 0.9861607 0.9872894
0.6343818 0.9896205 0.9904670
0.7562545 0.9930803 0.9936447
0.8781273 0.9965402 0.9968223
1.0000000 1.0000000 1.0000000
