Camera18_LUT_V0/luts/VMF_HN_33_v2.cube
# V-MF HNCS-inspired v2
# Independent approximation for Camera 18; not official Hasselblad HNCS.
TITLE "V-MF HN v2"
LUT_3D_SIZE 5
DOMAIN_MIN 0.0 0.0 0.0
DOMAIN_MAX 1.0 1.0 1.0
0.0000000 0.0000000 0.0000000
0.2451756 0.0063727 0.0053535
0.4903512 0.0127454 0.0107070
0.7355268 0.0191181 0.0160605
0.9786765 0.0274995 0.0234400
0.0066217 0.2433809 0.0097353
0.2442580 0.2422578 0.0069314
0.4927924 0.2468582 0.0114481
0.7389618 0.2521441 0.0163837
0.9787221 0.2611193 0.0271341
0.0132434 0.4867618 0.0194705
0.2481207 0.4884610 0.0119542
0.4885160 0.4845157 0.0138627
0.7375053 0.4894518 0.0184325
0.9774889 0.4938933 0.0309920
0.0198651 0.7301427 0.0292058
0.2498834 0.7317522 0.0184453
0.4952273 0.7326980 0.0187693
0.7327740 0.7267735 0.0207941
0.9748070 0.7287297 0.0323151
0.0264966 0.9735138 0.0389506
0.2525819 0.9747262 0.0254062
0.4962483 0.9761313 0.0246990
0.7407206 0.9739232 0.0287980
0.9725371 0.9646123 0.0322203
0.0070087 0.0089649 0.2421458
0.2436742 0.0064951 0.2431240
0.4885600 0.0121674 0.2473448
0.7334760 0.0174373 0.2511601
0.9773975 0.0237297 0.2555223
0.0063502 0.2429851 0.2435490
0.2500000 0.2500000 0.2500000
0.4991197 0.2531315 0.2524676
0.7476337 0.2560022 0.2544828
0.9840073 0.2706246 0.2675800
0.0118892 0.4881031 0.2533325
0.2544959 0.4955119 0.2565033
0.4973076 0.4960210 0.2562604
0.7482506 0.5003725 0.2602303
0.9838482 0.5039208 0.2714973
0.0185968 0.7314007 0.2632009
0.2567476 0.7432628 0.2613862
0.4988593 0.7454201 0.2554101
0.7436548 0.7407063 0.2611026
0.9818571 0.7377004 0.2740807
0.0254755 0.9745233 0.2733808
0.2698724 0.9801353 0.2792130
0.4999493 0.9815644 0.2686332
0.7447607 0.9813040 0.2701632
0.9794029 0.9734592 0.2741652
0.0140175 0.0179299 0.4842916
0.2487386 0.0134556 0.4860977
0.4873484 0.0129902 0.4862481
0.7322839 0.0188024 0.4906378
0.9757359 0.0257189 0.4947072
0.0134729 0.2514559 0.4853826
0.2544516 0.2557086 0.4930120
0.4961043 0.2544035 0.4957492
0.7452715 0.2561833 0.4984804
0.9826051 0.2683082 0.5014625
0.0127004 0.4859703 0.4870980
0.2538531 0.4954802 0.4958445
0.5000000 0.5000000 0.5000000
0.7485988 0.5036496 0.5029885
0.9893382 0.5137498 0.5117200
0.0178737 0.7320837 0.4975349
0.2547052 0.7452794 0.5024841
0.5044984 0.7455094 0.5065057
0.7461663 0.7448919 0.5074018
0.9887445 0.7469467 0.5154960
0.0237784 0.9762061 0.5066651
0.2685943 0.9814031 0.5132002
0.5132483 0.9867569 0.5194753
0.7481241 0.9880656 0.5123495
0.9862686 0.9823062 0.5161101
0.0210262 0.0268948 0.7264374
0.2531520 0.0204494 0.7281847
0.4928552 0.0199396 0.7298694
0.7310225 0.0194852 0.7293721
0.9747307 0.0265979 0.7332327
0.0206852 0.2609332 0.7270451
0.2571001 0.2600099 0.7395180
0.4987804 0.2568467 0.7422598
0.7438265 0.2568505 0.7430076
0.9812520 0.2698342 0.7403049
0.0196829 0.4937750 0.7292225
0.2565421 0.5003655 0.7411688
0.5036421 0.5049076 0.7438215
0.7459407 0.5045670 0.7455862
0.9878679 0.5128595 0.7473536
0.0190506 0.7289554 0.7306471
0.2558301 0.7429258 0.7437668
0.5037555 0.7455775 0.7459421
0.7500000 0.7500000 0.7500000
0.9946691 0.7568749 0.7558600
0.0242916 0.9756062 0.7418193
0.2678330 0.9821243 0.7475489
0.5118819 0.9881104 0.7533326
0.7566241 0.9933784 0.7597377
0.9931343 0.9911531 0.7580551
0.0280350 0.0358598 0.9685831
0.2576963 0.0274459 0.9702334
0.4974773 0.0269111 0.9721954
0.7369042 0.0264505 0.9735339
0.9740548 0.0266222 0.9718573
0.0278067 0.2702908 0.9689162
0.2686325 0.2745409 0.9788311
0.5027099 0.2691581 0.9794760
0.7429153 0.2697588 0.9800502
0.9805411 0.2699666 0.9788930
0.0269458 0.5029117 0.9707652
0.2685410 0.5102476 0.9791892
0.5124217 0.5163606 0.9858874
0.7487368 0.5130329 0.9865204
0.9870274 0.5133111 0.9859286
0.0259437 0.7364636 0.9729557
0.2686459 0.7441238 0.9802595
0.5123902 0.7514652 0.9864653
0.7562108 0.7581803 0.9929437
0.9935137 0.7566555 0.9929643
0.0254007 0.9719405 0.9741961
0.2687635 0.9792410 0.9809341
0.5125090 0.9861607 0.9872894
0.7562545 0.9930803 0.9936447
1.0000000 1.0000000 1.0000000
